avatar/assets/lut/AZ-neutral-2019.cube
LUT_3D_SIZE 16
-0.095824 -0.094502 -0.094524
-0.055838 -0.094587 -0.094594
0.194780 -0.097799 -0.097894
0.342024 -0.100607 -0.100698
0.494421 -0.103224 -0.103321
0.649085 -0.105887 -0.106010
0.792753 -0.109195 -0.109328
0.900629 -0.112054 -0.112184
0.969566 -0.112608 -0.112791
1.035118 -0.113652 -0.113823
1.143303 -0.115201 -0.115403
1.267275 -0.117244 -0.117462
1.280263 -0.117499 -0.117707
1.280263 -0.117499 -0.117707
1.280263 -0.117499 -0.117707
1.280263 -0.117499 -0.117707
-0.096131 -0.073127 -0.094951
-0.084282 -0.081743 -0.094923
0.143808 -0.086108 -0.096996
0.294460 -0.095740 -0.099917
0.447351 -0.101710 -0.102528
0.603914 -0.105004 -0.105139
0.753590 -0.108128 -0.108286
0.878550 -0.111755 -0.111948
0.950460 -0.112404 -0.112586
1.018180 -0.113306 -0.113478
1.106987 -0.114700 -0.114906
1.243480 -0.116819 -0.117034
1.280263 -0.117499 -0.117707
1.280263 -0.117499 -0.117707
1.280263 -0.117499 -0.117707
1.280263 -0.117499 -0.117707
-0.100992 0.126825 -0.099601
-0.097484 0.104978 -0.098746
0.069934 0.071932 -0.097726
0.230930 0.064282 -0.099550
0.388896 0.015833 -0.101513
0.549496 -0.074801 -0.104370
0.705079 -0.094319 -0.107464
0.842874 -0.105586 -0.111317
0.929156 -0.110223 -0.112920
0.997288 -0.111353 -0.113772
1.069283 -0.111852 -0.114994
1.206580 -0.113683 -0.116819
1.279513 -0.116217 -0.117880
1.280030 -0.116636 -0.117820
1.280025 -0.116979 -0.117767
1.280068 -0.117286 -0.117730
-0.105538 0.234086 -0.103573
-0.104637 0.216839 -0.103044
0.007217 0.195385 -0.102241
0.165803 0.164835 -0.102732
0.313782 0.147714 -0.103712
0.472282 0.121037 -0.105022
0.636479 0.088173 -0.106717
0.790117 0.055179 -0.110224
0.905755 0.010722 -0.114025
0.976509 -0.076108 -0.115121
1.041065 -0.096515 -0.116664
1.164063 -0.105688 -0.118773
1.266794 -0.109695 -0.120601
1.272364 -0.110959 -0.120264
1.273415 -0.111496 -0.119866
1.274515 -0.111626 -0.119491
-0.110276 0.340436 -0.107446
-0.109386 0.323329 -0.106901
-0.095671 0.303712 -0.106562
0.113692 0.273935 -0.106195
0.249077 0.244770 -0.107766
0.402375 0.226381 -0.108745
0.564927 0.201529 -0.110299
0.725862 0.171182 -0.112652
0.866034 0.134754 -0.116057
0.953881 0.103972 -0.117565
1.023944 0.078349 -0.119065
1.122045 0.052505 -0.121521
1.250758 0.021319 -0.124292
1.262452 -0.052253 -0.124068
1.263643 -0.073630 -0.123514
1.264735 -0.085029 -0.123078
-0.115844 0.451391 -0.111987
-0.114925 0.434440 -0.111271
-0.110589 0.415249 -0.111212
0.054895 0.388690 -0.110414
0.195690 0.357337 -0.111776
0.335872 0.327928 -0.114001
0.495797 0.308776 -0.115342
0.660913 0.282746 -0.117381
0.811896 0.248334 -0.120543
0.929867 0.209479 -0.123963
0.999937 0.176421 -0.124797
1.080532 0.143110 -0.126260
1.222392 0.121384 -0.129099
1.251706 0.108443 -0.129009
1.253036 0.099295 -0.128350
1.254380 0.090238 -0.127722
-0.122567 0.566895 -0.117538
-0.121542 0.549852 -0.116654
-0.115610 0.532075 -0.116639
-0.077521 0.510497 -0.116632
0.137312 0.477619 -0.116610
0.279551 0.446408 -0.119082
0.428370 0.416233 -0.122029
0.593662 0.395814 -0.123939
0.755788 0.364372 -0.126803
0.894034 0.321657 -0.131061
0.977882 0.283641 -0.133031
1.039192 0.241726 -0.134313
1.178759 0.220959 -0.137467
1.236922 0.206322 -0.138251
1.238505 0.195881 -0.137190
1.239983 0.186237 -0.136227
-0.130716 0.683422 -0.124397
-0.129532 0.667905 -0.123380
-0.126173 0.651810 -0.123088
-0.111848 0.631461 -0.123349
0.080597 0.603412 -0.123113
0.219993 0.572211 -0.125152
0.369008 0.540832 -0.128467
0.524391 0.511007 -0.132219
0.694148 0.485174 -0.134879
0.844241 0.444000 -0.138844
0.955255 0.397239 -0.142856
1.023687 0.355247 -0.144432
1.130527 0.323529 -0.147113
1.219824 0.306895 -0.149053
1.222900 0.296552 -0.147950
1.224321 0.287591 -0.146944
-0.140300 0.793189 -0.132801
-0.138932 0.779218 -0.131599
-0.136553 0.765632 -0.130734
-0.121597 0.748204 -0.131295
0.027137 0.725953 -0.131646
0.158212 0.698423 -0.132596
0.307532 0.668977 -0.136030
0.465158 0.638124 -0.140237
0.627300 0.608150 -0.144649
0.786939 0.573368 -0.148246
0.918713 0.520994 -0.153106
0.996556 0.473949 -0.155727
1.075644 0.429742 -0.157719
1.198247 0.410730 -0.161136
1.206978 0.400388 -0.160202
1.208416 0.390987 -0.159064
-0.151460 0.890187 -0.142847
-0.150023 0.878944 -0.141522
-0.148364 0.866864 -0.140208
-0.128069 0.853185 -0.140754
-0.101244 0.837288 -0.141725
0.105309 0.814038 -0.142135
0.242319 0.789420 -0.145064
0.398149 0.761744 -0.149225
0.560331 0.731836 -0.153908
0.722400 0.701405 -0.158658
0.863295 0.652702 -0.162948
0.971813 0.596320 -0.167899
1.028416 0.539508 -0.169465
1.153760 0.517911 -0.173283
1.191119 0.505965 -0.173577
1.192407 0.497112 -0.172432
-0.162444 0.969436 -0.153071
-0.161431 0.962674 -0.152129
-0.160473 0.955623 -0.151243
-0.142857 0.946397 -0.151770
-0.125165 0.932899 -0.152961
0.060242 0.914152 -0.153715
0.180714 0.890713 -0.155298
0.329280 0.865851 -0.159192
0.484277 0.840518 -0.163765
0.645995 0.814722 -0.168890
0.807370 0.786854 -0.174266
0.930353 0.728081 -0.179692
1.007898 0.669178 -0.183055
1.100575 0.629372 -0.186072
1.174304 0.615190 -0.188039
1.175974 0.606179 -0.186900
-0.170845 1.022065 -0.161139
-0.169855 1.016485 -0.160112
-0.168885 1.010523 -0.159156
-0.160049 1.003643 -0.159249
-0.130183 0.995294 -0.161253
0.016433 0.985519 -0.163659
0.130796 0.973865 -0.166307
0.267117 0.953935 -0.170280
0.414716 0.932151 -0.174932
0.568655 0.910515 -0.180122
0.726517 0.889070 -0.185743
0.884535 0.863018 -0.191799
0.985100 0.799186 -0.197264
1.054407 0.740330 -0.199596
1.156263 0.724029 -0.202980
1.159504 0.716043 -0.202006
-0.180037 1.102728 -0.170388
-0.179006 1.090738 -0.169402
-0.177807 1.076583 -0.168217
-0.171983 1.059664 -0.167024
-0.135075 1.038986 -0.168714
-0.101690 1.031308 -0.171304
0.098398 1.024295 -0.174274
0.216998 1.014394 -0.179189
0.354673 1.001813 -0.185552
0.498095 0.989204 -0.191911
0.647056 0.973230 -0.198046
0.800640 0.955872 -0.204360
0.950244 0.934662 -0.210931
1.016605 0.855615 -0.213993
1.133636 0.834844 -0.218381
1.143024 0.826655 -0.217690
-0.189560 1.210828 -0.180034
-0.188017 1.193559 -0.178463
-0.186449 1.176153 -0.176882
-0.181579 1.159400 -0.175594
-0.139910 1.139877 -0.177086
-0.122992 1.119720 -0.179796
0.072204 1.099510 -0.182890
0.175670 1.080307 -0.187152
0.303934 1.059536 -0.193443
0.435525 1.039520 -0.200296
0.571798 1.025670 -0.207494
0.717741 1.018326 -0.215198
0.864004 1.007494 -0.222837
1.000070 0.990175 -0.229960
1.096492 0.946810 -0.233459
1.126439 0.938000 -0.233885
-0.190737 1.223578 -0.181194
-0.190737 1.223578 -0.181194
-0.190737 1.223578 -0.181194
-0.188465 1.222725 -0.181263
-0.146862 1.218306 -0.183923
-0.130648 1.212169 -0.188053
0.047856 1.201921 -0.192206
0.147923 1.183123 -0.196110
0.275114 1.162275 -0.202513
0.403546 1.142859 -0.209373
0.538059 1.123034 -0.216788
0.671903 1.104581 -0.224423
0.808666 1.086226 -0.232367
0.943651 1.069578 -0.240498
1.058970 1.055310 -0.246762
1.111269 1.046106 -0.248856
-0.190737 1.223578 -0.181194
-0.190737 1.223578 -0.181194
-0.190737 1.223578 -0.181194
-0.189176 1.223314 -0.181272
-0.149322 1.220224 -0.183849
-0.132265 1.215163 -0.187965
0.037170 1.209559 -0.192544
0.136407 1.203698 -0.197540
0.258033 1.195472 -0.204945
0.386164 1.186874 -0.213107
0.516273 1.177815 -0.221523
0.648406 1.168734 -0.230192
0.784315 1.159072 -0.239297
0.913811 1.150247 -0.248030
1.032295 1.142179 -0.255763
1.100624 1.138409 -0.259295
-0.095937 -0.094571 -0.064293
-0.073738 -0.094673 -0.074855
0.167162 -0.097291 -0.077089
0.313651 -0.100127 -0.090467
0.463764 -0.102715 -0.099301
0.617219 -0.105272 -0.104610
0.763831 -0.108432 -0.108398
0.884358 -0.111975 -0.111832
0.953797 -0.112472 -0.112389
1.020639 -0.113358 -0.113282
1.109089 -0.114747 -0.114720
1.243640 -0.116809 -0.116895
1.280256 -0.117502 -0.117670
1.280263 -0.117499 -0.117707
1.280263 -0.117499 -0.117707
1.280263 -0.117499 -0.117707
-0.096062 -0.082872 -0.085963
-0.090022 -0.086973 -0.088195
0.116221 -0.092824 -0.092836
0.268980 -0.098341 -0.097785
0.419386 -0.101891 -0.101649
0.573390 -0.104501 -0.104601
0.723771 -0.107451 -0.107555
0.855144 -0.111137 -0.111199
0.934817 -0.112295 -0.112372
1.000087 -0.113068 -0.113170
1.073465 -0.114286 -0.114481
1.207978 -0.116221 -0.116414
1.280124 -0.117493 -0.117701
1.280263 -0.117499 -0.117707
1.280263 -0.117499 -0.117707
1.280263 -0.117499 -0.117707
-0.100019 0.103860 -0.096312
-0.098522 0.080593 -0.096934
0.028122 0.040412 -0.095926
0.210089 0.043537 -0.098625
0.366366 -0.055233 -0.101203
0.521123 -0.084622 -0.103798
0.676382 -0.098592 -0.106719
0.817187 -0.107170 -0.110324
0.913931 -0.111101 -0.112635
0.983111 -0.111442 -0.113306
1.043522 -0.112317 -0.114376
1.173387 -0.114620 -0.116024
1.275156 -0.116583 -0.117736
1.280017 -0.116965 -0.117770
1.280056 -0.117275 -0.117736
1.280262 -0.117499 -0.117707
-0.104733 0.215407 -0.102866
-0.104013 0.199176 -0.102339
-0.066427 0.179011 -0.101625
0.146101 0.149088 -0.101771
0.291886 0.133150 -0.102781
0.446670 0.106590 -0.104073
0.610156 0.072427 -0.105655
0.765759 0.038544 -0.109360
0.891110 -0.061066 -0.113581
0.962145 -0.087438 -0.114506
1.029973 -0.101008 -0.115877
1.132978 -0.108098 -0.117730
1.260885 -0.110940 -0.119986
1.273498 -0.111507 -0.119861
1.274455 -0.111626 -0.119473
1.275554 -0.111734 -0.119102
-0.109369 0.320741 -0.106611
-0.108567 0.304303 -0.106083
-0.100956 0.285395 -0.105752
0.094230 0.258086 -0.105181
0.228558 0.229111 -0.106660
0.378980 0.211470 -0.107615
0.538531 0.187487 -0.109085
0.700299 0.157786 -0.111242
0.843602 0.122757 -0.114416
0.940134 0.091363 -0.116421
1.009044 0.068142 -0.118048
1.090775 0.039123 -0.120230
1.230733 -0.050504 -0.123111
1.263875 -0.075543 -0.123462
1.264908 -0.086884 -0.123006
1.266103 -0.094535 -0.122516
-0.114727 0.430106 -0.111029
-0.113880 0.413705 -0.110358
-0.110667 0.396278 -0.110261
0.033829 0.371767 -0.109587
0.176147 0.340907 -0.110494
0.313694 0.311592 -0.112617
0.470379 0.293461 -0.113850
0.634211 0.268722 -0.115737
0.787709 0.236179 -0.118679
0.914311 0.197952 -0.122428
0.986199 0.166611 -0.123227
1.050080 0.131609 -0.124347
1.190421 0.110223 -0.126992
1.253213 0.097268 -0.128209
1.254746 0.087698 -0.127552
1.255780 0.078923 -0.127017
-0.121211 0.544585 -0.116398
-0.120250 0.528552 -0.115604
-0.116514 0.511552 -0.115476
-0.093071 0.490693 -0.115384
0.117866 0.459840 -0.115104
0.259801 0.428694 -0.117416
0.404161 0.399156 -0.120236
0.567565 0.379617 -0.122028
0.729860 0.350887 -0.124645
0.869754 0.311550 -0.128580
0.964338 0.272744 -0.131105
1.031856 0.236068 -0.132356
1.147612 0.208906 -0.134968
1.238179 0.191883 -0.136746
1.240559 0.182522 -0.135859
1.241936 0.173944 -0.135005
-0.129024 0.661148 -0.122958
-0.127876 0.645427 -0.121990
-0.125673 0.629725 -0.121396
-0.114504 0.610235 -0.121769
0.066508 0.583239 -0.121541
0.201618 0.553062 -0.123229
0.348125 0.521992 -0.126341
0.500905 0.491995 -0.129942
0.667333 0.469481 -0.132435
0.820675 0.431604 -0.136118
0.941046 0.385479 -0.140546
1.010096 0.345473 -0.142050
1.099736 0.310533 -0.144257
1.217174 0.292796 -0.147250
1.224871 0.283724 -0.146512
1.226169 0.275194 -0.145575
-0.138299 0.772616 -0.131024
-0.136999 0.758561 -0.129879
-0.135349 0.744859 -0.128895
-0.121000 0.727856 -0.129394
-0.047442 0.709168 -0.130032
0.140143 0.679713 -0.130381
0.286502 0.650439 -0.133595
0.441224 0.619927 -0.137608
0.601892 0.590245 -0.141995
0.763172 0.558729 -0.145338
0.897025 0.510038 -0.149847
0.984569 0.463572 -0.153051
1.045403 0.417273 -0.154747
1.175640 0.398332 -0.158444
1.208980 0.387046 -0.158582
1.210494 0.378083 -0.157525
-0.149134 0.871683 -0.140706
-0.147704 0.860011 -0.139403
-0.146314 0.848305 -0.138159
-0.129795 0.835420 -0.138528
-0.110801 0.819683 -0.139394
0.091153 0.796818 -0.139805
0.223442 0.772727 -0.142348
0.376990 0.744525 -0.146318
0.536758 0.714251 -0.150844
0.697459 0.684993 -0.155596
0.841975 0.640871 -0.159683
0.956796 0.586816 -0.164921
1.020631 0.537318 -0.166944
1.125977 0.505758 -0.170177
1.192880 0.492562 -0.171820
1.194267 0.484274 -0.170791
-0.160739 0.957662 -0.151495
-0.159704 0.950161 -0.150554
-0.158375 0.940738 -0.149278
-0.146703 0.930203 -0.149234
-0.127235 0.917099 -0.150290
0.045861 0.898938 -0.151131
0.165379 0.874755 -0.152276
0.311736 0.850173 -0.156065
0.466186 0.824877 -0.160560
0.625793 0.799450 -0.165644
0.786333 0.772937 -0.170956
0.912050 0.718270 -0.176181
0.998003 0.661065 -0.180246
1.078220 0.615580 -0.182895
1.174834 0.599805 -0.185886
1.177979 0.592569 -0.185048
-0.169071 1.011778 -0.159344
-0.168106 1.005390 -0.158413
-0.167174 0.999466 -0.157489
-0.161990 0.993927 -0.157298
-0.130254 0.985101 -0.159182
-0.008278 0.975138 -0.161520
0.118276 0.961814 -0.163570
0.252875 0.940148 -0.167047
0.397398 0.919351 -0.171612
0.550229 0.898045 -0.176749
0.707865 0.876573 -0.182383
0.865253 0.853925 -0.188371
0.974735 0.790704 -0.194321
1.034058 0.727026 -0.196521
1.153205 0.711111 -0.200894
1.161362 0.703632 -0.200244
-0.178141 1.080656 -0.168537
-0.177164 1.069161 -0.167575
-0.175822 1.053434 -0.166269
-0.171538 1.037174 -0.165124
-0.135437 1.031198 -0.166559
-0.110597 1.024505 -0.169061
0.088389 1.016250 -0.172008
0.203401 1.005328 -0.176600
0.338951 0.994862 -0.182862
0.482663 0.980529 -0.188946
0.632064 0.963165 -0.194823
0.783466 0.946519 -0.201044
0.936714 0.926208 -0.207636
1.010706 0.857048 -0.211673
1.113688 0.824076 -0.215574
1.144802 0.814444 -0.215947
-0.187357 1.186466 -0.177814
-0.185855 1.169125 -0.176248
-0.184401 1.153029 -0.174801
-0.181018 1.136917 -0.173492
-0.142569 1.119470 -0.174802
-0.127420 1.100566 -0.177471
0.060617 1.081830 -0.180569
0.162331 1.063414 -0.184542
0.288601 1.043950 -0.190787
0.419675 1.028523 -0.197550
0.561554 1.022248 -0.204946
0.704963 1.013200 -0.212528
0.848310 1.001597 -0.219988
0.993855 0.989161 -0.227547
1.077531 0.936529 -0.230697
1.128205 0.926223 -0.232198
-0.190737 1.223578 -0.181194
-0.190706 1.223252 -0.181178
-0.190610 1.222383 -0.181116
-0.189379 1.221289 -0.181054
-0.150385 1.216657 -0.183397
-0.132379 1.201809 -0.186539
0.038613 1.183117 -0.189806
0.138690 1.165279 -0.193597
0.262314 1.146360 -0.199923
0.390588 1.127873 -0.206795
0.524248 1.108712 -0.214188
0.654816 1.092201 -0.221738
0.791789 1.074904 -0.229765
0.924844 1.059494 -0.237804
1.044925 1.044778 -0.244615
1.112489 1.035092 -0.247689
-0.190737 1.223578 -0.181194
-0.190737 1.223578 -0.181194
-0.190737 1.223578 -0.181194
-0.190057 1.223355 -0.181240
-0.154194 1.220690 -0.183443
-0.133326 1.215611 -0.187584
0.024949 1.210012 -0.192134
0.125878 1.204328 -0.196937
0.244514 1.196445 -0.204095
0.370216 1.187813 -0.212025
0.499748 1.178756 -0.220418
0.632176 1.169729 -0.229112
0.765669 1.160344 -0.238045
0.897645 1.151321 -0.246958
1.019760 1.142727 -0.255099
1.100500 1.138187 -0.259263
-0.097650 -0.095399 0.168771
-0.076123 -0.095605 0.149150
0.132629 -0.097369 0.122750
0.274573 -0.099687 0.109297
0.422345 -0.101979 0.079873
0.578442 -0.104394 0.039404
0.733306 -0.107731 -0.059687
0.861037 -0.111430 -0.087479
0.937916 -0.112486 -0.099708
1.003076 -0.113312 -0.106541
1.076329 -0.114587 -0.110390
1.209339 -0.116531 -0.111646
1.279368 -0.117750 -0.111740
1.279428 -0.117706 -0.111961
1.279528 -0.117666 -0.112459
1.279754 -0.117602 -0.113248
-0.097264 -0.084342 0.121690
-0.094055 -0.091430 0.104664
0.082394 -0.094883 0.079586
0.236269 -0.098693 0.076309
0.384745 -0.101264 0.039926
0.542193 -0.104006 -0.059719
0.693392 -0.106833 -0.085640
0.829158 -0.110359 -0.099896
0.919381 -0.112278 -0.107187
0.986512 -0.112983 -0.110272
1.043523 -0.114128 -0.111634
1.174502 -0.115836 -0.111802
1.275259 -0.117549 -0.112687
1.279742 -0.117603 -0.113627
1.280076 -0.117546 -0.114878
1.280115 -0.117519 -0.116251
-0.098202 0.069479 0.051148
-0.097011 0.033534 -0.023140
-0.053290 -0.048921 -0.055031
0.190830 -0.067897 -0.068862
0.338781 -0.084449 -0.081601
0.491450 -0.095113 -0.091672
0.646807 -0.102560 -0.099740
0.791173 -0.108209 -0.106395
0.899613 -0.111602 -0.110943
0.969095 -0.111799 -0.111655
1.034626 -0.113012 -0.111740
1.141501 -0.114632 -0.112825
1.268532 -0.116809 -0.115232
1.280056 -0.117298 -0.116456
1.280083 -0.117502 -0.116713
1.280130 -0.117499 -0.116954
-0.103848 0.193828 -0.046135
-0.103146 0.177913 -0.064279
-0.091134 0.159391 -0.086385
0.123833 0.133216 -0.092297
0.268434 0.117871 -0.096998
0.422529 0.090667 -0.100771
0.583893 0.057639 -0.103899
0.745419 -0.000837 -0.107912
0.873846 -0.078690 -0.111521
0.947820 -0.095419 -0.112344
1.015876 -0.104667 -0.113830
1.103154 -0.109709 -0.115802
1.239646 -0.111447 -0.118113
1.274616 -0.111626 -0.118705
1.275591 -0.111757 -0.118654
1.276753 -0.112243 -0.118582
-0.108475 0.299249 -0.093227
-0.107749 0.283706 -0.096622
-0.105062 0.266641 -0.100845
0.074778 0.241765 -0.102643
0.208796 0.214172 -0.104692
0.354930 0.197403 -0.105633
0.513448 0.173621 -0.106690
0.674699 0.144765 -0.108626
0.821121 0.110831 -0.111938
0.926382 0.080363 -0.114811
0.994979 0.057333 -0.116404
1.063862 0.019353 -0.118489
1.200754 -0.071302 -0.121343
1.265051 -0.087733 -0.122764
1.266316 -0.095152 -0.122474
1.267558 -0.100651 -0.122032
-0.113694 0.408453 -0.107303
-0.112900 0.392663 -0.107608
-0.110551 0.376375 -0.108390
-0.042953 0.356428 -0.107857
0.157457 0.324896 -0.107956
0.293498 0.295753 -0.110102
0.447565 0.278334 -0.111691
0.609001 0.254701 -0.113506
0.764616 0.223723 -0.116320
0.896935 0.186695 -0.120319
0.974043 0.155191 -0.121465
1.039609 0.122560 -0.122693
1.160982 0.100925 -0.125357
1.253098 0.085699 -0.127362
1.256096 0.076358 -0.126864
1.256979 0.067732 -0.126393
-0.119988 0.522642 -0.111799
-0.119008 0.506992 -0.111677
-0.117071 0.491096 -0.112176
-0.102105 0.471421 -0.113143
0.099933 0.442616 -0.112993
0.239993 0.412262 -0.115160
0.381848 0.382385 -0.117999
0.543010 0.364176 -0.119870
0.705048 0.337544 -0.122492
0.847889 0.300539 -0.126319
0.950935 0.261836 -0.129332
1.020167 0.227471 -0.130530
1.118600 0.197499 -0.132708
1.235740 0.179069 -0.135302
1.242493 0.170125 -0.134639
1.243655 0.162331 -0.133883
-0.127480 0.639423 -0.118719
-0.126402 0.624190 -0.119064
-0.124715 0.608814 -0.118951
-0.115913 0.590312 -0.119709
0.049320 0.565092 -0.119675
0.183667 0.534952 -0.121150
0.327751 0.504564 -0.124292
0.477105 0.474949 -0.127907
0.642394 0.454134 -0.130251
0.797390 0.419661 -0.133639
0.924948 0.374495 -0.138210
0.996553 0.336105 -0.139891
1.070098 0.298968 -0.141715
1.201488 0.280812 -0.145149
1.226999 0.270603 -0.145058
1.228094 0.262885 -0.144228
-0.136442 0.752381 -0.128012
-0.135184 0.738064 -0.127313
-0.133976 0.724627 -0.126652
-0.120952 0.708217 -0.127437
-0.080521 0.689233 -0.128167
0.125985 0.660027 -0.128358
0.268667 0.631701 -0.131364
0.420655 0.601557 -0.135207
0.578883 0.572123 -0.139494
0.740011 0.544091 -0.142618
0.876390 0.499167 -0.146885
0.971881 0.453991 -0.150642
1.031421 0.409200 -0.152273
1.149692 0.386451 -0.155697
1.210931 0.374543 -0.157076
1.212201 0.366794 -0.156160
-0.146931 0.853378 -0.138102
-0.145543 0.841604 -0.137276
-0.144277 0.830535 -0.136298
-0.131666 0.817324 -0.136435
-0.115801 0.801682 -0.137215
0.077536 0.779869 -0.137650
0.207187 0.754845 -0.139797
0.356921 0.727774 -0.143659
0.513984 0.697618 -0.148067
0.675275 0.668146 -0.152789
0.821080 0.629441 -0.156728
0.942570 0.576902 -0.162118
1.010174 0.530843 -0.164539
1.099612 0.494647 -0.167368
1.193306 0.479767 -0.170094
1.196084 0.472606 -0.169292
-0.158824 0.944095 -0.149727
-0.157440 0.934331 -0.148409
-0.156090 0.924667 -0.147123
-0.149656 0.914240 -0.146847
-0.127616 0.901352 -0.147789
0.030383 0.883103 -0.148621
0.148707 0.860436 -0.149541
0.295243 0.835225 -0.153198
0.448073 0.810300 -0.157617
0.605988 0.785123 -0.162667
0.764872 0.760442 -0.167988
0.894062 0.709680 -0.173046
0.987946 0.654961 -0.177751
1.055597 0.603914 -0.180057
1.174691 0.587861 -0.184162
1.179910 0.580201 -0.183333
-0.167408 1.000234 -0.157719
-0.166507 0.995685 -0.156859
-0.165601 0.990175 -0.156001
-0.161588 0.984041 -0.155620
-0.130884 0.975145 -0.157322
-0.083045 0.965367 -0.159540
0.109403 0.947775 -0.160835
0.238882 0.927234 -0.164050
0.383498 0.906084 -0.168521
0.535278 0.885107 -0.173666
0.689729 0.865010 -0.179281
0.848516 0.843308 -0.185234
0.961963 0.782464 -0.191218
1.021370 0.719635 -0.193872
1.139141 0.698539 -0.198241
1.163378 0.690238 -0.198359
-0.176272 1.058909 -0.166735
-0.175263 1.046544 -0.165714
-0.173950 1.033315 -0.164420
-0.170780 1.030376 -0.163225
-0.136345 1.024332 -0.164558
-0.115737 1.016076 -0.167053
0.080743 1.006748 -0.169948
0.191729 0.997336 -0.174295
0.327385 0.987366 -0.180484
0.467969 0.971143 -0.185906
0.616778 0.953836 -0.191762
0.768400 0.936944 -0.197994
0.922345 0.919843 -0.204594
1.004520 0.851368 -0.209255
1.098396 0.811999 -0.212828
1.146498 0.802803 -0.214253
-0.185269 1.162739 -0.175679
-0.183862 1.146933 -0.174275
-0.182481 1.131066 -0.172879
-0.180535 1.116810 -0.171675
-0.145015 1.099865 -0.172665
-0.129834 1.082122 -0.175352
0.049872 1.065248 -0.178446
0.149405 1.047848 -0.182163
0.274610 1.031076 -0.188317
0.410522 1.025738 -0.195188
0.550272 1.017884 -0.202548
0.690811 1.008191 -0.210073
0.836970 0.996793 -0.217504
0.986999 0.983586 -0.224966
1.059619 0.926901 -0.228121
1.129663 0.915994 -0.230618
-0.190674 1.223029 -0.181150
-0.190592 1.221921 -0.181043
-0.190513 1.220810 -0.180952
-0.190044 1.217429 -0.180651
-0.153124 1.200920 -0.181580
-0.133261 1.184048 -0.184412
0.027163 1.166917 -0.187703
0.128476 1.150658 -0.191383
0.249766 1.132098 -0.197502
0.377911 1.114454 -0.204445
0.509134 1.096726 -0.211736
0.641068 1.080579 -0.219383
0.773860 1.065045 -0.227290
0.907161 1.050405 -0.235404
1.028061 1.037205 -0.242675
1.113368 1.026403 -0.246738
-0.190737 1.223578 -0.181194
-0.190737 1.223578 -0.181194
-0.190737 1.223578 -0.181194
-0.190737 1.223578 -0.181194
-0.157101 1.220827 -0.183223
-0.133799 1.215959 -0.187219
0.011133 1.210595 -0.191724
0.118394 1.204899 -0.196521
0.234297 1.196986 -0.203496
0.358684 1.188520 -0.211297
0.487489 1.179567 -0.219586
0.616827 1.170703 -0.228101
0.749659 1.161302 -0.236951
0.884346 1.151636 -0.245979
1.007372 1.139965 -0.253973
1.101100 1.131062 -0.258439
-0.098947 -0.096384 0.302923
-0.088580 -0.096542 0.284032
0.116186 -0.097905 0.254774
0.241696 -0.100153 0.227671
0.382478 -0.101971 0.209838
0.531793 -0.104126 0.185183
0.682606 -0.106643 0.156065
0.820087 -0.109930 0.122353
0.922417 -0.112685 0.089177
0.988770 -0.113354 0.061519
1.045328 -0.114619 0.029275
1.176459 -0.116481 -0.060470
1.273652 -0.118226 -0.084131
1.277630 -0.118259 -0.092101
1.277761 -0.118197 -0.097830
1.277967 -0.118152 -0.102062
-0.098615 -0.090252 0.260568
-0.097477 -0.094356 0.246042
0.075789 -0.096766 0.222864
0.204894 -0.099272 0.196818
0.344437 -0.101221 0.180826
0.492970 -0.103394 0.156938
0.645421 -0.105789 0.128181
0.788828 -0.108926 0.095084
0.904022 -0.112359 0.060877
0.971710 -0.113035 0.034854
1.035942 -0.114151 -0.059584
1.142814 -0.115819 -0.087095
1.267222 -0.117984 -0.099125
1.278066 -0.118122 -0.103374
1.278339 -0.118077 -0.106211
1.278337 -0.118032 -0.108284
-0.099050 0.068491 0.201942
-0.098379 0.047708 0.192150
-0.073490 -0.063565 0.182762
0.158350 -0.080551 0.158546
0.299164 -0.090578 0.145078
0.449032 -0.098209 0.122675
0.604530 -0.103535 0.095061
0.754990 -0.107646 0.062515
0.883558 -0.111514 0.027869
0.954939 -0.112278 -0.059837
1.021397 -0.113275 -0.086125
1.110339 -0.114836 -0.099602
1.243959 -0.117199 -0.106441
1.278299 -0.117991 -0.108932
1.278690 -0.117966 -0.110217
1.278771 -0.117913 -0.111031
-0.101951 0.162769 0.144181
-0.101338 0.147721 0.133182
-0.093445 0.128594 0.117779
0.100298 0.104652 0.097425
0.238561 0.083297 0.082053
0.391892 0.049286 0.055442
0.562671 -0.039977 0.019385
0.718451 -0.074966 -0.060715
0.851823 -0.093157 -0.082980
0.933569 -0.102978 -0.095504
1.000082 -0.108339 -0.103139
1.074217 -0.110936 -0.108274
1.209993 -0.111624 -0.110775
1.274963 -0.111836 -0.111536
1.276149 -0.112400 -0.111710
1.277051 -0.113356 -0.111707
-0.106704 0.269118 0.100017
-0.106064 0.254757 0.090118
-0.104598 0.239410 0.077950
0.010756 0.223928 0.031269
0.186374 0.199629 -0.042467
0.330288 0.180262 -0.066655
0.486553 0.157136 -0.081665
0.646983 0.129602 -0.092364
0.797088 0.096932 -0.100697
0.911942 0.068082 -0.107613
