avatar/assets/lut/AZ-neutral-2019.cube
LUT_3D_SIZE 6
-0.095824 -0.094502 -0.094524
0.342024 -0.100607 -0.100698
0.792753 -0.109195 -0.109328
1.035118 -0.113652 -0.113823
1.280263 -0.117499 -0.117707
1.280263 -0.117499 -0.117707
-0.105538 0.234086 -0.103573
0.165803 0.164835 -0.102732
0.636479 0.088173 -0.106717
0.976509 -0.076108 -0.115121
1.266794 -0.109695 -0.120601
1.274515 -0.111626 -0.119491
-0.122567 0.566895 -0.117538
-0.077521 0.510497 -0.116632
0.428370 0.416233 -0.122029
0.894034 0.321657 -0.131061
1.178759 0.220959 -0.137467
1.239983 0.186237 -0.136227
-0.151460 0.890187 -0.142847
-0.128069 0.853185 -0.140754
0.242319 0.789420 -0.145064
0.722400 0.701405 -0.158658
1.028416 0.539508 -0.169465
1.192407 0.497112 -0.172432
-0.180037 1.102728 -0.170388
-0.171983 1.059664 -0.167024
0.098398 1.024295 -0.174274
0.498095 0.989204 -0.191911
0.950244 0.934662 -0.210931
1.143024 0.826655 -0.217690
-0.190737 1.223578 -0.181194
-0.189176 1.223314 -0.181272
0.037170 1.209559 -0.192544
0.386164 1.186874 -0.213107
0.784315 1.159072 -0.239297
1.100624 1.138409 -0.259295
-0.098947 -0.096384 0.302923
0.241696 -0.100153 0.227671
0.682606 -0.106643 0.156065
0.988770 -0.113354 0.061519
1.273652 -0.118226 -0.084131
1.277967 -0.118152 -0.102062
-0.101951 0.162769 0.144181
0.100298 0.104652 0.097425
0.562671 -0.039977 0.019385
0.933569 -0.102978 -0.095504
1.209993 -0.111624 -0.110775
1.277051 -0.113356 -0.111707
-0.118915 0.499183 -0.074865
-0.109156 0.450143 -0.100330
0.359874 0.366170 -0.111562
0.826738 0.288687 -0.115903
1.093049 0.184799 -0.121472
1.245324 0.150473 -0.125564
-0.145125 0.834004 -0.121954
-0.135046 0.799509 -0.123933
0.190563 0.737588 -0.130870
0.652367 0.652141 -0.145549
0.999574 0.522804 -0.157829
1.197698 0.461124 -0.163162
-0.174686 1.038392 -0.159918
-0.170233 1.023270 -0.157659
0.071872 0.998530 -0.164505
0.456712 0.960842 -0.179129
0.908945 0.911303 -0.196899
1.148113 0.791346 -0.205332
-0.190770 1.223284 -0.178170
-0.190779 1.223274 -0.178038
-0.018183 1.210844 -0.187397
0.346645 1.188944 -0.205356
0.736792 1.159072 -0.224740
1.101859 1.122056 -0.236216
-0.102474 -0.099322 0.731521
0.165044 -0.100354 0.653638
0.567275 -0.107447 0.553293
0.945560 -0.116343 0.433068
1.215044 -0.120979 0.331542
1.270070 -0.121695 0.293608
-0.102192 0.107371 0.568364
-0.048205 0.032327 0.533876
0.450159 -0.090782 0.449161
0.870298 -0.110788 0.361286
1.124412 -0.114216 0.258902
1.271592 -0.119218 0.221320
-0.114331 0.400376 0.374706
-0.109079 0.359235 0.341816
0.287426 0.290675 0.283411
0.724695 0.232625 0.236742
1.036624 0.161580 0.176179
1.247884 0.126099 0.148023
-0.139000 0.752726 0.222306
-0.134009 0.718528 0.199044
0.137530 0.659412 0.163448
0.568768 0.592069 0.124871
0.971347 0.489317 0.092730
1.201503 0.420962 0.073359
-0.172497 1.011182 0.088531
-0.169384 0.993632 0.084485
0.047708 0.967265 0.074392
0.420835 0.921718 0.056468
0.863941 0.878096 0.033559
1.150576 0.753325 0.003967
-0.193959 1.216639 0.025483
-0.193952 1.216467 0.023212
-0.103383 1.202513 0.004639
0.317760 1.165487 -0.067754
0.706457 1.126269 -0.096464
1.081859 1.095680 -0.111578
-0.104380 -0.101568 1.024004
0.078019 -0.101683 0.991193
0.440288 -0.108471 0.947830
0.866144 -0.118205 0.875115
1.134105 -0.125419 0.709383
1.260697 -0.127673 0.660436
-0.104884 0.028930 0.957486
-0.092190 -0.081139 0.934361
0.357197 -0.102951 0.868563
0.785902 -0.112532 0.796320
1.050588 -0.120999 0.626420
1.262530 -0.126082 0.577442
-0.114521 0.330012 0.814071
-0.109501 0.297381 0.784451
0.218955 0.236822 0.723859
0.643690 0.175500 0.662000
1.002556 0.120907 0.538919
1.241867 0.091359 0.475954
-0.135639 0.661151 0.638761
-0.132334 0.627093 0.609192
0.107054 0.573982 0.561280
0.515388 0.509202 0.502833
0.913639 0.464082 0.465446
1.201892 0.419093 0.424547
-0.170627 0.963641 0.447504
-0.166823 0.942559 0.438371
0.012604 0.914198 0.421922
0.394782 0.869336 0.407339
0.817800 0.834803 0.383878
1.124201 0.723783 0.360138
-0.199385 1.205986 0.335923
-0.197980 1.192523 0.331996
-0.118517 1.162160 0.321042
0.329835 1.123949 0.345725
0.683085 1.088194 0.334746
1.055896 1.061165 0.326135
-0.104799 -0.101642 1.364515
-0.039984 -0.101805 1.303173
0.348207 -0.107633 1.233153
0.704196 -0.118119 1.162928
1.066105 -0.130308 1.096318
1.251953 -0.134862 1.046150
-0.105364 -0.086643 1.237327
-0.102002 -0.098139 1.191750
0.264059 -0.104557 1.135518
0.616712 -0.113885 1.075628
1.015725 -0.127760 1.038068
1.253574 -0.133841 0.983758
-0.113997 0.232796 1.103124
-0.110646 0.203226 1.068876
0.170993 0.176551 1.048291
0.526596 0.124002 1.022171
0.951750 0.089071 0.976341
1.234367 0.056757 0.865006
-0.136411 0.526623 1.018567
-0.133525 0.503072 0.999750
0.075943 0.477404 0.965773
0.449069 0.455235 0.914769
0.860455 0.415157 0.874833
1.168398 0.378755 0.762613
-0.168942 0.902516 0.894708
-0.165668 0.884276 0.876742
-0.084745 0.860739 0.853774
0.362919 0.821323 0.817712
0.794630 0.786301 0.785631
1.083781 0.764296 0.764749
-0.203106 1.158112 0.708004
-0.201141 1.139933 0.699902
-0.126402 1.117894 0.684550
0.308287 1.080734 0.677187
0.737475 1.051434 0.737424
1.032392 1.034957 0.728141
-0.104826 -0.101653 1.377628
-0.081874 -0.101816 1.372882
0.309660 -0.107057 1.353762
0.655192 -0.117692 1.329073
1.019913 -0.131594 1.302908
1.248027 -0.137740 1.290288
-0.105264 -0.098643 1.372034
-0.104092 -0.101496 1.373709
0.229520 -0.104685 1.358819
0.571313 -0.114835 1.335046
0.955041 -0.129232 1.307507
1.247947 -0.137738 1.290393
-0.112785 0.191169 1.339991
-0.110659 0.162737 1.344758
0.139849 0.135403 1.334057
0.469251 0.092319 1.314323
0.850750 0.055257 1.287841
1.212893 -0.000445 1.240906
-0.134730 0.456454 1.294843
-0.132439 0.432675 1.298787
0.048009 0.404755 1.287289
0.412391 0.409286 1.235018
0.756966 0.372023 1.185186
1.125742 0.343632 1.139238
-0.168668 0.767260 1.233432
-0.166225 0.750754 1.206892
-0.103416 0.728089 1.174960
0.334150 0.707267 1.126151
0.758448 0.755496 1.084697
1.053868 0.735930 1.057596
-0.206233 1.099692 1.107512
-0.204706 1.087497 1.094846
-0.130734 1.070226 1.077277
0.293475 1.043788 1.050627
0.722267 1.023050 1.029261
1.021471 1.011080 1.016351
