avatar/assets/lut/NostalgiaHoney.cube
TITLE "Generated by Resolve"
LUT_3D_SIZE 33
0 0 0
0 0 0
0 0 0
0 0 0
0 0 0
0 0 0
0 0 0
0 0 0
0.016556 0 0
0.0544289 0 0
0.0933242 0 0
0.13283 0 0
0.172702 0 0
0.212757 0 0
0.25214 0 0
0.294316 0 0
0.338979 0 0
0.384375 0 0
0.429007 0 0
0.47219 0 0
0.512276 0 0
0.54902 0 0
0.582773 0 0
0.616648 0 0
0.655268 0 0
0.695369 0 0
0.734142 0 0
0.771084 0 0
0.80914 0 0
0.846998 0 0
0.884565 0 0
0.922133 0 0
0.959945 0 0
0 0 0
0 0 0
0 0 0
0 0 0
0 0 0
0 0 0
0 0 0
0 0 0
0.0250553 0 0
0.0631571 0 0
0.102174 0 0
0.142199 0 0
0.181933 0 0
0.221866 0 0
0.261936 0 0
0.305333 0 0
0.350179 0 0
0.395407 0 0
0.440162 0 0
0.481941 0 0
0.521523 0 0
0.557671 0 0
0.591897 0 0
0.628458 0 0
0.667567 0 0
0.707439 0 0
0.746548 0 0
0.785534 0 0
0.824582 0 0
0.86273 0 0
0.901061 0 0
0.939422 0 0
0.977646 0 0
0 0 0
0 0 0
0 0 0
0 0 0
0 0 0
0 0 0
0 0 0
0 0 0
0.0333715 0 0
0.0720989 0 0
0.111009 0 0
0.151003 0 0
0.191073 0 0
0.231205 0 0
0.272267 0 0
0.316121 0 0
0.360327 0 0
0.405829 0 0
0.450431 0 0
0.492897 0 0
0.531411 0 0
0.566979 0 0
0.602197 0 0
0.640116 0 0
0.681819 0 0
0.722393 0 0
0.762783 0 0
0.802335 0 0
0.841505 0 0
0.879988 0 0
0.918853 0 0
0.957687 0 0
0.996475 0 0
0 0 0
0 0 0
0 0 0
0 0 0
0 0 0
0 0 0
0 0 0
0.00492866 0 0
0.0419013 0 0
0.080354 0 0
0.119951 0 0
0.160204 0 0
0.199573 0 0
0.239322 0 0
0.281514 0 0
0.326665 0 0
0.372137 0 0
0.417044 0 0
0.461158 0 0
0.503487 0 0
0.542535 0 0
0.578286 0 0
0.614939 0 0
0.656077 0 0
0.698177 0 0
0.739803 0 0
0.780392 0 0
0.820325 0 0
0.859815 0 0
0.898604 0 0
0.937469 0 0
0.976196 0 0
1 0 0
0 0 0
0 0 0
0 0 0
0 0 0
0 0 0
0 0 0
0 0 0
0.0127565 0 0
0.0504158 0 0
0.0884565 0 0
0.128145 0 0
0.168521 0 0
0.209079 0 0
0.249744 0 0
0.292454 0 0
0.337362 0 0
0.383581 0 0
0.429618 0 0
0.474601 0 0
0.516121 0 0
0.554955 0 0
0.591241 0 0
0.630472 0 0
0.673716 0 0
0.716457 0 0
0.757992 0 0
0.798688 0 0
0.838697 0 0
0.878202 0 0
0.917006 0 0
0.955581 0 0
0.994079 0 0
1 0 0
0 0 0
0 0 0
0 0 0
0 0 0
0 0 0
0 0 0
0 0 0
0.0194858 0 0
0.0577249 0 0
0.0971389 0 0
0.136736 0 0
0.177432 0 0
0.218341 0 0
0.259556 0 0
0.304891 0 0
0.350774 0 0
0.398184 0 0
0.444465 0 0
0.488731 0 0
0.529946 0 0
0.568017 0 0
0.605737 0 0
0.647517 0 0
0.691997 0 0
0.734432 0 0
0.775692 0 0
0.816373 0 0
0.856291 0 0
0.895155 0.00106813 0
0.933379 0.0053254 0
0.97174 0.00892653 0
1 0.0128328 0
1 0.0167391 0
0 0 0
0 0 0
0 0 0
0 0 0
0 0 0
0 0 0
0 0 0
0.0268864 0 0
0.066041 0 0
0.105806 0 0
0.146685 0.000366217 0
0.188373 0.00122072 0
0.229419 0.00227359 0
0.273121 0.00352483 0
0.319463 0.0049897 0
0.366751 0.0068513 0
0.414176 0.00880446 0
0.460075 0.0105745 0
0.503883 0.0122683 0
0.544289 0.0141604 0
0.581918 0.016907 0
0.62089 0.019913 0
0.665461 0.0234836 0
0.709133 0.0270848 0
0.750683 0.0305791 0
0.791577 0.0343633 0
0.831556 0.0381018 0
0.870436 0.0419013 0
0.908934 0.0455024 0
0.946517 0.0489662 0
0.983597 0.0519722 0
1 0.0550546 0
1 0.0582895 0
0 0.0261997 0
0 0.0285954 0
0 0.03093 0
0 0.0333715 0
0 0.0346532 0
0 0.0367895 0
0 0.0387121 0
0.0345617 0.0405585 0
0.0742351 0.042237 0
0.115053 0.0440833 0
0.156847 0.0454871 0
0.198825 0.0469978 0
0.240787 0.0485084 0
0.285878 0.0499886 0
0.333486 0.0521706 0
0.380911 0.054139 0
0.428016 0.0560159 0
0.473869 0.0576944 0
0.516609 0.0594949 0
0.556268 0.061326 0
0.593973 0.0640726 0
0.634638 0.0670176 0
0.679301 0.0698405 0
0.722469 0.0731823 0
0.763241 0.0757763 0
0.803326 0.0787976 0
0.842298 0.0819104 0
0.880598 0.0849317 0
0.918273 0.0879225 0
0.955489 0.090959 0
0.992645 0.0939651 0
1 0.0968338 0
1 0.0996719 0
0 0.0672313 0
0 0.0702068 0
0 0.0732128 0
0 0.0758984 0
0 0.0787518 0
0 0.0815137 0
0.00637827 0.0842756 0
0.044007 0.0869917 0
0.084062 0.0891432 0
0.125322 0.0910811 0
0.167193 0.093019 0
0.210056 0.0946822 0
0.252613 0.0964981 0
0.299153 0.0982528 0
0.347189 0.100175 0
0.3944 0.102174 0
0.441123 0.103792 0
0.485664 0.104967 0
0.527291 0.106462 0
0.566033 0.107881 0
0.603815 0.110063 0
0.64596 0.112261 0
0.689525 0.114473 0
0.731258 0.116793 0
0.772488 0.119448 0
0.811917 0.121675 0
0.85005 0.124117 0
0.888121 0.126879 0
0.925689 0.129717 0
0.962524 0.132708 0
0.999405 0.135637 0
1 0.138567 0
1 0.141558 0
0 0.111254 0
0 0.114702 0
0 0.118105 0
0 0.121477 0
0 0.125048 0
0 0.128466 0
0.015198 0.13225 0
0.0543221 0.134981 0
0.0942855 0.137179 0
0.135485 0.139376 0
0.177554 0.141161 0
0.220035 0.142931 0
0.26363 0.144686 0
0.311299 0.146288 0
0.358724 0.147784 0
0.405554 0.149264 0
0.451423 0.150317 0
0.494835 0.151156 0
0.535546 0.152056 0
0.572946 0.15288 0
0.610819 0.154086 0
0.653742 0.155535 0
0.69633 0.157321 0
0.737926 0.159243 0
0.778408 0.161395 0
0.81828 0.16408 0
0.85658 0.166567 0
0.894148 0.168887 0
0.931456 0.171527 0
0.96817 0.174395 0
1 0.177172 0
1 0.179873 0
1 0.18265 0
0 0.157534 0
0 0.161425 0
0 0.16527 0
0 0.168933 0
0 0.172976 0
0 0.177005 0
0.0247654 0.180636 0
0.0637369 0.183627 0
0.104189 0.185977 0
0.145068 0.1879 0
0.187045 0.189654 0
0.228931 0.191135 0
0.273533 0.192203 0
0.320394 0.193362 0
0.3673 0.193988 0
0.413611 0.194675 0
0.458152 0.195087 0
0.500648 0.195163 0
0.540505 0.195453 0
0.577523 0.196307 0
0.61622 0.197253 0
0.659022 0.198169 0
0.701503 0.199802 0
0.742718 0.201678 0
0.783276 0.203677 0
0.822721 0.205905 0
0.861173 0.208591 0
0.89897 0.2112 0
0.936172 0.213642 0
0.972396 0.216114 0
1 0.218448 0
1 0.22092 0
1 0.223453 0
0 0.2056 0
0 0.209873 0
0 0.214084 0
0 0.217807 0
0 0.221942 0
0 0.22565 0
0.0341192 0.229221 0
0.0727398 0.231815 0
0.112535 0.233951 0
0.152895 0.23537 0
0.194324 0.236545 0
0.235676 0.237339 0
0.280156 0.237919 0
0.326513 0.238148 0
0.37319 0.238209 0
0.418479 0.238193 0
0.462531 0.238193 0
0.504585 0.238025 0
0.543786 0.238285 0
0.58088 0.238972 0
0.620142 0.239918 0
0.663554 0.241169 0
0.705913 0.24242 0
0.746792 0.243702 0
0.786755 0.245579 0
0.826017 0.247578 0
0.864118 0.24979 0
0.901747 0.252094 0
0.938857 0.254475 0
0.975341 0.256901 0
1 0.25919 0
1 0.261463 0
1 0.263752 0
0 0.254017 0
0 0.258305 0
0 0.262196 0
0 0.265766 0
0 0.269642 0
0.00686656 0.272953 0
0.0420844 0.275944 0
0.0803388 0.277958 0
0.119295 0.27924 0
0.158724 0.279881 0
0.199435 0.280369 0
0.240009 0.280598 0
0.284459 0.280659 0
0.33106 0.280446 0
0.37731 0.280415 0
0.422461 0.280613 0
0.466224 0.280079 0
0.507744 0.279866 0
0.546777 0.279973 0
0.583947 0.280507 0
0.623346 0.281331 0
0.667201 0.282307 0
0.709087 0.283619 0
0.750225 0.285023 0
0.790372 0.286534 0
0.829007 0.287907 0
0.866819 0.28983 0
0.903975 0.291676 0
0.940871 0.293812 0
0.97705 0.296147 0
1 0.298375 0
1 0.300587 0
1 0.302708 0
0 0.301488 0
0 0.305318 0
0 0.308507 0
0 0.311574 0
0 0.314641 0
0.0127413 0.317296 0
0.0479744 0.319539 0
0.0851301 0.320974 0
0.123857 0.321798 0
0.163058 0.322347 0
0.202853 0.322347 0
0.24361 0.32224 0
0.288579 0.322087 0
0.334722 0.321889 0
0.380606 0.321813 0
0.425742 0.321675 0
0.469444 0.32134 0
0.510857 0.320989 0
0.548974 0.320653 0
0.586145 0.32108 0
0.626123 0.32166 0
0.669337 0.322469 0
0.711437 0.3234 0
0.752224 0.324605 0
0.791897 0.326024 0
0.830747 0.327565 0
0.868482 0.329351 0
0.905547 0.331289 0
0.942229 0.333242 0
0.978653 0.335164 0
1 0.33698 0
1 0.338933 0
1 0.34107 0
0 0.346563 0
0 0.349706 0
0 0.352499 0
0 0.355032 0
0 0.356893 0
0.0171206 0.358968 0
0.0522316 0.360906 0
0.0894484 0.362158 0
0.127459 0.363043 0
0.166766 0.3635 0
0.206638 0.363745 0
0.247593 0.363363 0
0.291966 0.363027 0
0.338201 0.36257 0
0.3841 0.362264 0
0.42855 0.362051 0
0.472023 0.361471 0
0.512978 0.360876 0
0.550973 0.360647 0
0.587976 0.360967 0
0.628367 0.361379 0
0.671946 0.362036 0
0.713268 0.362539 0
0.753902 0.363684 0
0.793454 0.364782 0
0.832135 0.366217 0
0.869932 0.367773 0
0.906752 0.369528 0
0.943313 0.371283 0
0.979065 0.373205 0
1 0.374945 0
1 0.376593 0
1 0.378363 0
0 0.38909 0
0 0.391592 0
0 0.393896 0
0 0.396094 0
0 0.39826 0
0.0210727 0.400076 0
0.0558938 0.401358 0
0.0928511 0.402579 0
0.131304 0.403326 0
0.170077 0.403922 0
0.209888 0.403937 0
0.251194 0.403677 0
0.295811 0.403372 0
0.341695 0.402686 0
0.386877 0.402075 0
0.431128 0.401266 0
0.473991 0.400534 0
0.514626 0.399802 0
0.552377 0.399435 0
0.58912 0.399558 0
0.629709 0.399878 0
0.673167 0.400458 0
0.71516 0.401221 0
0.755779 0.40209 0
0.795071 0.40322 0
0.833616 0.404471 0
0.871046 0.405921 0
0.90808 0.407309 0
0.944045 0.408789 0
0.97995 0.410529 0
1 0.412024 0
1 0.413428 0
1 0.414878 0
0 0.430076 0
0 0.432502 0
0 0.43473 0
0 0.436851 0
0 0.438956 0
0.0242618 0.440955 0
0.0598917 0.442222 0
0.0962387 0.44303 0
0.133684 0.443366 0
0.17258 0.443687 0
0.212039 0.443824 0
0.253376 0.443381 0
0.297841 0.442786 0
0.343572 0.442069 0
0.388998 0.441398 0
0.432746 0.440803 0
0.475532 0.439872 0
0.516106 0.438895 0
0.553353 0.438605 0
0.590066 0.438361 0
0.630396 0.438468 0
0.673655 0.438712 0
0.715129 0.439124 0
0.755917 0.439963 0
0.795026 0.44094 0
0.833066 0.442008 0
0.870359 0.443244 0
0.907027 0.444541 0
0.943297 0.445853 0
0.978759 0.447227 0
1 0.448554 0
1 0.449897 0
1 0.451484 0
0 0.471458 0
0 0.473472 0
0 0.475624 0
0 0.477607 0
0 0.47953 0
0.0269627 0.481422 0
0.0623636 0.482597 0
0.0987564 0.483375 0
0.136492 0.483665 0
0.174594 0.483787 0
0.213581 0.483314 0
0.254948 0.482856 0
0.299062 0.482124 0
0.344656 0.48127 0
0.390066 0.48043 0
0.433814 0.479667 0
0.476143 0.47863 0
0.516472 0.477577 0
0.553582 0.477012 0
0.590127 0.476921 0
0.630869 0.476799 0
0.673533 0.476951 0
0.714931 0.477241 0
0.75523 0.477729 0
0.794583 0.478721 0
0.832654 0.47953 0
0.869596 0.480552 0
0.905806 0.481712 0
0.941939 0.482795 0
0.977081 0.484016 0
1 0.485069 0
1 0.486229 0
1 0.487312 0
0 0.51252 0
0 0.514763 0
0 0.516686 0
0 0.518242 0
0 0.519814 0
0.0295872 0.521401 0
0.0646982 0.522408 0
0.100694 0.52311 0
0.138079 0.523323 0
0.17644 0.523232 0
0.215076 0.522896 0
0.256657 0.52221 0
0.301152 0.521752 0
0.346151 0.520867 0
0.391073 0.519905 0
0.434669 0.518959 0
0.476951 0.517555 0
0.516747 0.516182 0
0.553582 0.515389 0
0.590173 0.515053 0
0.630686 0.514794 0
0.673228 0.514687 0
0.714427 0.514733 0
0.754192 0.515053 0
0.793027 0.515557 0
0.831189 0.516396 0
0.867948 0.51725 0
0.904082 0.518212 0
0.939879 0.519112 0
0.974731 0.520195 0
1 0.521065 0
1 0.522118 0
1 0.523064 0
0 0.55314 0
0 0.555154 0
0 0.556909 0
0 0.558556 0
0 0.560174 0
0.0319219 0.561608 0
0.0665751 0.562493 0
0.102556 0.562783 0
0.139788 0.562921 0
0.177508 0.56257 0
0.216449 0.562051 0
0.257557 0.561151 0
0.301686 0.560174 0
0.346914 0.559319 0
0.391348 0.558328 0
0.434501 0.557183 0
0.476493 0.555734 0
0.516258 0.554314 0
0.552697 0.553384 0
0.589136 0.552728 0
0.629191 0.5523 0
0.671946 0.551888 0
0.712993 0.551781 0
0.752361 0.551949 0
0.791135 0.552224 0
0.828717 0.552743 0
0.865751 0.553597 0
0.901564 0.554299 0
0.937194 0.554925 0
0.971801 0.555764 0
1 0.556466 0
1 0.557122 0
1 0.558038 0
0 0.59263 0
0 0.594522 0
0 0.596185 0
0 0.597757 0
0.000762951 0.599207 0
0.0338903 0.600488 0
0.0685893 0.601221 0
0.104204 0.601648 0
0.141207 0.601617 0
0.179171 0.601236 0
0.217395 0.600549 0
0.259098 0.599435 0
0.30277 0.598352 0
0.347585 0.597086 0
0.391989 0.595895 0
0.434775 0.594644 0
0.476616 0.593011 0
0.515862 0.591485 0
0.552117 0.590372 0
0.588327 0.589532 0
0.628275 0.58883 0
0.670634 0.588251 0
0.711101 0.587961 0
0.750439 0.587839 0
0.788769 0.587854 0
0.826093 0.588067 0
0.86273 0.588525 0
0.89897 0.589319 0
0.934051 0.589807 0
0.968399 0.590387 0
1 0.590799 0
1 0.59118 0
1 0.591775 0
0 0.631052 0
0 0.63267 0
0 0.634318 0
0 0.635645 0
0.00299077 0.636805 0
0.0361944 0.637919 0
0.0706035 0.638376 0
0.106081 0.63856 0
0.14284 0.638315 0
0.180346 0.637827 0
0.218387 0.636912 0
0.259739 0.635767 0
0.303365 0.634409 0
0.347585 0.633021 0
0.391882 0.63151 0
0.434195 0.630076 0
0.475761 0.628321 0
0.514977 0.626688 0
0.550988 0.625437 0
0.586954 0.624445 0
0.626673 0.623529 0
0.66891 0.622995 0
0.709331 0.622431 0
0.748577 0.62208 0
0.786694 0.621881 0
0.823651 0.621866 0
0.859907 0.622202 0
0.895994 0.622614 0
0.930831 0.622904 0
0.965072 0.623178 0
0.99971 0.623285 0
1 0.62359 0
1 0.624002 0
0 0.667994 0
0 0.669459 0
0 0.670771 0
0 0.671977 0
0.00529488 0.673106 0
0.0380407 0.674113 0
0.0723583 0.674586 0
0.107851 0.67451 0
0.144488 0.674022 0
0.181796 0.673259 0
0.219577 0.672175 0
0.260914 0.670802 0
0.30425 0.669261 0
0.34844 0.667597 0
0.391943 0.665995 0
0.43444 0.66424 0
0.475547 0.662531 0
0.514733 0.660655 0
0.550225 0.659327 0
0.586114 0.658106 0
0.625559 0.657023 0
0.66717 0.656062 0
0.707439 0.655467 0
0.746517 0.654948 0
0.784405 0.654551 0
0.821302 0.65449 0
0.857557 0.654704 0
0.893034 0.654612 0
0.927642 0.654643 0
0.961578 0.654749 0
0.996139 0.654627 0
1 0.654871 0
1 0.655146 0
0 0.70457 0
0 0.705882 0
0 0.706966 0
0 0.707988 0
0.00720226 0.708995 0
0.0405585 0.709285 0
0.0748608 0.709621 0
0.109987 0.709529 0
0.146136 0.708965 0
0.183078 0.708019 0
0.220691 0.706783 0
0.261952 0.705226 0
0.305089 0.703517 0
0.348989 0.70164 0
0.392447 0.699763 0
0.434379 0.697841 0
0.47512 0.695613 0
0.514229 0.693904 0
0.54963 0.692287 0
0.585168 0.690852 0
0.624231 0.689601 0
0.665721 0.688426 0
0.705486 0.687465 0
0.744503 0.686854 0
0.782116 0.686229 0
0.818921 0.686061 0
0.854963 0.685939 0
0.889891 0.685695 0
0.924331 0.685512 0
0.958328 0.68545 0
0.99266 0.685328 0
1 0.685542 0
1 0.68542 0
0 0.739757 0
0 0.74107 0
0 0.741939 0
0 0.742626 0
0.00958267 0.743511 0
0.0427253 0.743816 0
0.0764324 0.74377 0
0.111345 0.74342 0
0.147539 0.742733 0
0.184558 0.741634 0
0.221714 0.740154 0
0.263066 0.738415 0
0.305943 0.736614 0
0.349615 0.734676 0
0.39295 0.73257 0
0.434424 0.730449 0
0.475074 0.727962 0
0.513375 0.725917 0
0.548959 0.724254 0
0.584024 0.722683 0
0.623102 0.721111 0
0.664256 0.719738 0
0.703975 0.71873 0
0.742702 0.717861 0
0.780423 0.717327 0
0.81677 0.716762 0
0.852338 0.716197 0
0.886931 0.715816 0
0.921263 0.71548 0
0.955413 0.715572 0
0.98938 0.715389 0
1 0.715084 0
1 0.714672 0
0 0.774441 0
0 0.77528 0
0 0.775921 0
0 0.776486 0
0.012253 0.777096 0
0.0451667 0.777142 0
0.0789349 0.77702 0
0.113863 0.776379 0
0.149599 0.775555 0
0.186221 0.77435 0
0.22356 0.77261 0
0.264424 0.770672 0
0.307118 0.768566 0
0.350637 0.766445 0
0.393545 0.764309 0
0.434714 0.76199 0
0.475059 0.759579 0
0.513283 0.75729 0
0.548272 0.755184 0
0.583185 0.753399 0
0.62182 0.751675 0
0.663096 0.750286 0
0.702434 0.74902 0
0.740963 0.748043 0
0.778439 0.747127 0
0.814496 0.746288 0
0.849851 0.745556 0
0.884596 0.745312 0
0.918853 0.744869 0
0.952605 0.744625 0
0.98613 0.744045 0
1 0.743572 0
1 0.743435 0
0 0.808057 0
0 0.808743 0
0 0.809277 0
0 0.809628 0
0.0146792 0.81004 0
0.0475929 0.809766 0
0.0809491 0.809308 0
0.11548 0.808682 0
0.151293 0.807675 0
0.187823 0.806149 0
0.224521 0.804318 0
0.265721 0.802075 0
0.307958 0.799802 0
0.351308 0.797543 0
0.393774 0.795117 0
0.434836 0.792615 0
0.475044 0.790219 0
0.512856 0.787442 0
0.547417 0.785199 0
0.582086 0.783246 0
0.62092 0.781476 0
0.661707 0.780041 0
0.701122 0.778653 0
0.739208 0.777234 0
0.77615 0.776028 0
0.81239 0.775067 0
0.847929 0.774533 0
0.882383 0.774014 0
0.916274 0.773266 0
0.949584 0.77261 0
0.983474 0.772351 0
1 0.77174 0
1 0.771176 0
0 0.840635 0
0 0.841138 0
0 0.841443 0
0 0.841657 0
0.0171359 0.841871 0
0.0499123 0.841459 0
0.0830396 0.840803 0
0.117174 0.83978 0
0.152895 0.838834 0
