avatar/assets/lut/NostalgiaHoney.cube
TITLE "Generated by Resolve"
LUT_3D_SIZE 5
0 0 0
0.016556 0 0
0.338979 0 0
0.655268 0 0
0.959945 0 0
0 0.0672313 0
0.084062 0.0891432 0
0.441123 0.103792 0
0.772488 0.119448 0
1 0.141558 0
0 0.430076 0
0.133684 0.443366 0
0.475532 0.439872 0
0.795026 0.44094 0
1 0.451484 0
0 0.739757 0
0.147539 0.742733 0
0.475074 0.727962 0
0.780423 0.717327 0
1 0.714672 0
0 0.992752 0
0.153628 0.983749 0
0.468513 0.958633 0
0.7617 0.938857 0
1 0.930312 0
0 0 0.0608682
0.0224613 0 0.0720531
0.349584 0 0.0678416
0.667277 0 0.0716869
0.975998 0 0.0993057
0 0.0774548 0.121965
0.0961318 0.102739 0.148867
0.457511 0.115846 0.157656
0.785138 0.128496 0.168307
1 0.15024 0.18732
0 0.439124 0.17615
0.139712 0.452186 0.184588
0.483253 0.447105 0.177615
0.8038 0.446616 0.179644
1 0.455833 0.189746
0 0.745541 0.192294
0.150454 0.747189 0.190524
0.476524 0.731456 0.172305
0.782254 0.718914 0.160983
1 0.715221 0.159518
0 0.9944 0.201694
0.152682 0.984482 0.189425
0.466148 0.958633 0.161975
0.760037 0.938552 0.142733
1 0.929808 0.135622
0 0 0.331609
0.0246433 0 0.341802
0.352544 0 0.339406
0.674998 0 0.343343
0.988769 0 0.369299
0 0.0858167 0.38883
0.107958 0.113634 0.413352
0.465034 0.124758 0.422889
0.792706 0.134264 0.427405
1 0.154955 0.44329
0 0.444465 0.434195
0.144717 0.456062 0.444282
0.484901 0.450095 0.441138
0.809812 0.448203 0.435706
1 0.45594 0.442237
0 0.74728 0.445228
0.150103 0.747997 0.443809
0.472816 0.731853 0.424506
0.780529 0.716991 0.409659
1 0.711971 0.407721
0 0.992309 0.450507
0.147601 0.981399 0.43798
0.46009 0.955703 0.410498
0.754101 0.935225 0.390112
1 0.92607 0.382773
0 0 0.604059
0.0275578 0 0.618128
0.356222 0 0.618219
0.682582 0 0.627085
0.999191 0 0.657313
0 0.0942855 0.676249
0.117494 0.123171 0.704433
0.467857 0.130541 0.712932
0.795438 0.138674 0.718944
1 0.157824 0.734783
0 0.447303 0.722866
0.149874 0.457633 0.735042
0.486778 0.45098 0.731579
0.808118 0.447745 0.728878
1 0.454261 0.732647
0 0.746334 0.732372
0.149386 0.745464 0.731777
0.470283 0.727977 0.715343
0.774792 0.712352 0.703929
1 0.705913 0.694255
0 0.987442 0.734691
0.142611 0.97583 0.722576
0.452995 0.949966 0.695994
0.743893 0.930251 0.673442
1 0.920806 0.663539
0 0 0.841123
0.0332952 0 0.853986
0.36257 0 0.854505
0.693797 0 0.867445
1 0 0.900053
0 0.105638 0.916854
0.128206 0.133806 0.944884
0.474235 0.138125 0.950164
0.800397 0.145403 0.957046
1 0.16318 0.972045
0 0.452613 0.960342
0.156024 0.462043 0.970901
0.490974 0.454398 0.966384
0.808621 0.450828 0.964477
1 0.455604 0.9673
0 0.747875 0.966751
0.151369 0.745525 0.965454
0.471427 0.726238 0.94876
0.773236 0.710399 0.936873
1 0.703075 0.930053
0 0.985046 0.964874
0.140932 0.97261 0.952834
0.451118 0.946349 0.928161
0.74078 0.926299 0.909361
1 0.916213 0.903059
