avatar/assets/lut/NostalgiaHoney.cube
TITLE "Generated by Resolve"
LUT_3D_SIZE 9
0 0 0
0 0 0
0.016556 0 0
0.172702 0 0
0.338979 0 0
0.512276 0 0
0.655268 0 0
0.80914 0 0
0.959945 0 0
0 0 0
0 0 0
0.0504158 0 0
0.209079 0 0
0.383581 0 0
0.554955 0 0
0.716457 0 0
0.878202 0 0
1 0 0
0 0.0672313 0
0 0.0787518 0
0.084062 0.0891432 0
0.252613 0.0964981 0
0.441123 0.103792 0
0.603815 0.110063 0
0.772488 0.119448 0
0.925689 0.129717 0
1 0.141558 0
0 0.254017 0
0 0.269642 0
0.119295 0.27924 0
0.284459 0.280659 0
0.466224 0.280079 0
0.623346 0.281331 0
0.790372 0.286534 0
0.940871 0.293812 0
1 0.302708 0
0 0.430076 0
0 0.438956 0
0.133684 0.443366 0
0.297841 0.442786 0
0.475532 0.439872 0
0.630396 0.438468 0
0.795026 0.44094 0
0.943297 0.445853 0
1 0.451484 0
0 0.59263 0
0.000762951 0.599207 0
0.141207 0.601617 0
0.30277 0.598352 0
0.476616 0.593011 0
0.628275 0.58883 0
0.788769 0.587854 0
0.934051 0.589807 0
1 0.591775 0
0 0.739757 0
0.00958267 0.743511 0
0.147539 0.742733 0
0.305943 0.736614 0
0.475074 0.727962 0
0.623102 0.721111 0
0.780423 0.717327 0
0.921263 0.71548 0
1 0.714672 0
0 0.872679 0
0.0191348 0.872953 0
0.153735 0.869154 0
0.308949 0.859815 0
0.473747 0.848463 0
0.618143 0.838895 0
0.77203 0.832334 0
0.910979 0.828305 0
1 0.825269 0
0 0.992752 0
0.0222477 0.990372 0
0.153628 0.983749 0
0.306325 0.972152 0
0.468513 0.958633 0
0.609232 0.946975 0
0.7617 0.938857 0
0.898787 0.934051 0
1 0.930312 0
0 0 0
0 0 0
0.0209201 0 0
0.177356 0 0
0.345083 0 0
0.516167 0 0
0.661906 0 0
0.81593 0 0
0.968246 0 0
0 0 0
0 0 0
0.0558328 0 0
0.214969 0 0
0.391836 0 0
0.562036 0 0
0.725704 0 0
0.887434 0 0.0160372
1 0 0.0317235
0 0.073167 0
0 0.0857252 0.00445563
0.0915236 0.0969863 0.0124514
0.261906 0.103548 0.0212863
0.449897 0.110475 0.0291295
0.611368 0.116564 0.0350652
0.778927 0.124132 0.0422217
0.932418 0.135088 0.0522774
1 0.146151 0.0624094
0 0.261799 0.0277104
0 0.276631 0.0398871
0.123507 0.285435 0.0459907
0.290639 0.28571 0.0465553
0.472465 0.284779 0.047425
0.629526 0.285679 0.0490883
0.795911 0.290562 0.0545663
0.94641 0.298146 0.0622416
1 0.30631 0.0705272
0 0.435554 0.0502785
0 0.443854 0.0565805
0.137758 0.448539 0.0591135
0.301701 0.447181 0.0566873
0.479423 0.443839 0.0536049
0.635843 0.442206 0.0536355
0.799786 0.444297 0.0563058
0.947768 0.449149 0.0619669
1 0.454154 0.0672923
0 0.597162 0.0596017
0.00416571 0.603586 0.0641947
0.144274 0.605585 0.064332
0.30576 0.602075 0.0593423
0.478813 0.596094 0.053254
0.631617 0.591684 0.0497749
0.792447 0.590417 0.0498817
0.936812 0.591714 0.0518196
1 0.593423 0.0543984
0 0.743374 0.0688182
0.0119478 0.746624 0.0704204
0.14966 0.745312 0.0680858
0.308064 0.73904 0.0606699
0.476616 0.730251 0.0513313
0.624994 0.723003 0.044419
0.781842 0.718517 0.04065
0.92285 0.716548 0.0396277
1 0.715434 0.0396277
0 0.8748 0.0778668
0.0203861 0.874922 0.0766003
0.154589 0.870939 0.0713359
0.309621 0.861097 0.0605325
0.473976 0.849714 0.0487068
0.618585 0.839796 0.0393683
0.772488 0.832929 0.0330968
0.911467 0.828656 0.0297093
1 0.825422 0.0274357
0 0.994034 0.0808881
0.0225986 0.991363 0.077348
0.153506 0.984497 0.0694133
0.30602 0.97258 0.0568551
0.467918 0.959014 0.0425879
0.609033 0.947417 0.0311284
0.761547 0.939086 0.0238346
0.898772 0.934157 0.0193027
1 0.930388 0.0163272
0 0 0.0608682
0 0 0.068574
0.0224613 0 0.0720531
0.180591 0 0.0700084
0.349584 0 0.0678416
0.520928 0 0.0661936
0.667277 0 0.0716869
0.822889 0 0.0827649
0.975998 0 0.0993057
0 0 0.0940566
0 0 0.103243
0.0581064 0 0.108141
0.219547 0 0.106966
0.398795 0 0.108598
0.568811 0 0.114656
0.734386 0 0.127352
0.895079 0 0.143572
1 0 0.15877
0 0.0774548 0.121965
0 0.0911116 0.135607
0.0961318 0.102739 0.148867
0.271153 0.109667 0.153628
0.457511 0.115846 0.157656
0.617319 0.120928 0.161776
0.785138 0.128496 0.168307
0.937743 0.138613 0.177081
1 0.15024 0.18732
0 0.268025 0.157336
0 0.282124 0.169512
0.126009 0.289647 0.17438
0.294713 0.290272 0.172457
0.477745 0.288182 0.172854
0.63505 0.289082 0.174624
0.801556 0.293843 0.179507
0.951232 0.300862 0.186053
1 0.309056 0.193805
0 0.439124 0.17615
0 0.448127 0.182971
0.139712 0.452186 0.184588
0.303838 0.450843 0.18088
0.483253 0.447105 0.177615
0.640192 0.445136 0.177203
0.8038 0.446616 0.179644
0.951324 0.450782 0.184558
1 0.455833 0.189746
0 0.600488 0.184543
0.00605783 0.606378 0.188159
0.145617 0.608469 0.188235
0.307012 0.604868 0.182681
0.479957 0.598459 0.175647
0.63386 0.5935 0.171878
0.794659 0.591745 0.171176
0.938888 0.592645 0.173068
1 0.594186 0.175326
0 0.745541 0.192294
0.0135958 0.748852 0.193942
0.150454 0.747189 0.190524
0.308537 0.740764 0.182773
0.476524 0.731456 0.172305
0.625498 0.723949 0.165179
0.782254 0.718914 0.160983
0.923461 0.71664 0.159808
1 0.715221 0.159518
0 0.876112 0.199634
0.0206302 0.876112 0.198459
0.15407 0.871473 0.192401
0.308904 0.861677 0.181353
0.47306 0.850111 0.168963
0.617746 0.839841 0.158816
0.771893 0.832578 0.152529
0.910872 0.828092 0.14905
1 0.824735 0.146426
0 0.9944 0.201694
0.021912 0.991562 0.197803
0.152682 0.984482 0.189425
0.30428 0.972335 0.176272
0.466148 0.958633 0.161975
0.607431 0.946883 0.150378
0.760037 0.938552 0.142733
0.897673 0.93341 0.138369
1 0.929808 0.135622
0 0 0.199603
0 0 0.207324
0.023209 0 0.21146
0.181796 0 0.210529
0.351904 0 0.208728
0.523674 0 0.206821
0.671244 0 0.212406
0.828702 0 0.224521
0.982666 0 0.240848
0 0 0.233646
0 0 0.241474
0.0597238 0 0.24773
0.221424 0 0.248371
0.403845 0 0.251026
0.573709 0 0.256306
0.741405 0 0.267689
0.901534 0 0.280949
1 0 0.2925
0 0.0814984 0.262699
0 0.0958572 0.275685
0.102647 0.108385 0.287495
0.275212 0.115358 0.294057
0.462211 0.120195 0.29546
0.621836 0.124407 0.296681
0.789563 0.131518 0.301106
0.942107 0.141909 0.307988
1 0.152544 0.315557
0 0.272618 0.29424
0 0.285786 0.304768
0.130236 0.292638 0.310124
0.296956 0.292363 0.311452
0.482902 0.290455 0.307286
0.640223 0.291218 0.306371
0.804974 0.295445 0.309026
0.955093 0.303105 0.31458
1 0.310994 0.320394
0 0.442344 0.308125
0.000854505 0.450278 0.313542
0.14197 0.454948 0.31574
0.304707 0.453758 0.312261
0.484489 0.449012 0.306294
0.643839 0.446357 0.305684
0.807004 0.447684 0.307713
0.954192 0.451682 0.311147
1 0.456519 0.315022
0 0.602808 0.313222
0.00816358 0.608637 0.316625
0.146715 0.610407 0.316121
0.306996 0.606699 0.310842
0.479744 0.600183 0.303288
0.634546 0.594217 0.298619
0.796307 0.592142 0.298085
0.93991 0.592416 0.299153
1 0.59382 0.300801
0 0.746639 0.31809
0.0137636 0.74966 0.318959
0.150225 0.747951 0.315877
0.307179 0.741131 0.308202
0.47509 0.731991 0.298909
0.62414 0.723796 0.291295
0.781567 0.718166 0.287251
0.923171 0.715709 0.286122
1 0.71397 0.285313
0 0.87628 0.322637
0.0201419 0.876204 0.321431
0.152956 0.871183 0.315862
0.306767 0.861433 0.305699
0.471199 0.8495 0.294286
0.615152 0.839048 0.284718
0.76994 0.83122 0.27866
0.908751 0.826688 0.275044
1 0.823148 0.272847
0 0.99379 0.323186
0.0201724 0.990738 0.319509
0.150286 0.983383 0.311803
0.30164 0.971328 0.300465
0.463416 0.957321 0.287236
0.604639 0.945418 0.276555
0.757382 0.937179 0.269337
0.895689 0.931746 0.265324
1 0.928115 0.262791
0 0 0.331609
0 0 0.337926
0.0246433 0 0.341802
0.183337 0 0.341405
0.352544 0 0.339406
0.526162 0 0.33904
0.674998 0 0.343343
0.83415 0 0.354726
0.988769 0 0.369299
0 0 0.361059
0 0 0.367895
0.0612345 0 0.373144
0.223987 0 0.376242
0.408179 0 0.379492
0.578195 0 0.384726
0.747234 0 0.395102
0.906355 0 0.406683
1 0 0.418097
0 0.0858167 0.38883
0 0.100969 0.401968
0.107958 0.113634 0.413352
0.278462 0.120882 0.42034
0.465034 0.124758 0.422889
0.624445 0.127245 0.423056
0.792706 0.134264 0.427405
0.945357 0.144274 0.435142
1 0.154955 0.44329
0 0.276967 0.420218
0 0.288869 0.431357
0.134798 0.294682 0.437049
0.301183 0.295003 0.439277
0.482994 0.292531 0.437369
0.642939 0.292958 0.435355
0.808148 0.297261 0.437263
0.957412 0.304128 0.442267
1 0.311849 0.44889
0 0.444465 0.434195
0.00410468 0.452537 0.44126
0.144717 0.456062 0.444282
0.307713 0.454566 0.443153
0.484901 0.450095 0.441138
0.647303 0.446616 0.435721
0.809812 0.448203 0.435706
0.956313 0.451835 0.438758
1 0.45594 0.442237
0 0.604288 0.439673
0.00987259 0.609751 0.444022
0.147814 0.611078 0.44419
0.307179 0.607156 0.439307
0.477958 0.600977 0.431144
0.634623 0.594537 0.423575
0.797345 0.591119 0.423041
0.94107 0.591516 0.424216
1 0.592538 0.42591
0 0.74728 0.445228
0.0139315 0.749783 0.446265
0.150103 0.747997 0.443809
0.305959 0.740917 0.435416
0.472816 0.731853 0.424506
0.621057 0.72311 0.414481
0.780529 0.716991 0.409659
0.92253 0.714046 0.408545
1 0.711971 0.407721
0 0.875807 0.450401
0.0191348 0.875273 0.449042
0.151064 0.869978 0.442557
0.304463 0.860212 0.431815
0.468147 0.848325 0.418509
0.611948 0.837568 0.407126
0.766781 0.829755 0.399573
0.906401 0.824567 0.395972
1 0.82089 0.39382
0 0.992309 0.450507
0.018143 0.988815 0.446128
0.147601 0.981399 0.43798
0.298283 0.969329 0.424949
0.46009 0.955703 0.410498
0.601022 0.943511 0.398123
0.754101 0.935225 0.390112
0.892622 0.929824 0.385428
1 0.92607 0.382773
0 0 0.458274
0 0 0.465782
0.0259098 0 0.470726
0.18439 0 0.47097
0.354223 0 0.469474
0.527565 0 0.469062
0.678874 0 0.475975
0.838895 0 0.490547
0.994247 0 0.509285
0 0 0.492164
0 0 0.502602
0.0638132 0 0.510124
0.226688 0 0.51545
0.412284 0 0.522072
0.58143 0 0.529305
0.751415 0 0.543038
0.910048 0 0.557687
1 0 0.57052
0 0.0898604 0.531624
0 0.105135 0.549386
0.112856 0.118364 0.564981
0.281178 0.124971 0.573571
0.466392 0.12784 0.576669
0.625376 0.129732 0.577829
0.794186 0.136217 0.583291
0.946777 0.14583 0.591989
1 0.155886 0.601236
0 0.28011 0.573144
0 0.29041 0.585245
0.138186 0.296635 0.593133
0.303319 0.296498 0.595041
0.483055 0.294697 0.594705
0.642527 0.29424 0.593637
0.808377 0.297902 0.595972
0.958236 0.304585 0.601297
1 0.311788 0.607538
0 0.446097 0.589868
0.00633249 0.453254 0.597467
0.147326 0.456611 0.601953
0.310643 0.454871 0.602335
0.48603 0.450294 0.599634
0.645975 0.446754 0.597147
0.809476 0.447395 0.595285
0.956344 0.450904 0.597696
1 0.454948 0.600656
0 0.604486 0.595926
0.0107881 0.609659 0.601358
0.149004 0.610819 0.602502
0.308156 0.606256 0.598138
0.478172 0.599527 0.591852
0.63241 0.592981 0.588327
0.798367 0.588998 0.58204
0.941146 0.589364 0.581262
1 0.589975 0.581476
0 0.746731 0.601831
0.0138399 0.748959 0.603525
0.149416 0.746593 0.600961
0.304494 0.73933 0.59263
0.470863 0.730144 0.58201
0.61619 0.721523 0.570153
0.777966 0.714916 0.561425
0.921675 0.711147 0.560525
1 0.708858 0.559533
0 0.874266 0.606256
0.0172274 0.87306 0.604883
0.149111 0.867811 0.599115
0.301701 0.857847 0.58793
0.464591 0.845914 0.573556
0.606851 0.835096 0.559747
0.761944 0.827253 0.548913
0.903685 0.821653 0.544167
1 0.8177 0.541726
0 0.989761 0.6056
0.0155489 0.986145 0.601572
0.144823 0.978424 0.593194
0.294499 0.966323 0.579522
0.456001 0.952773 0.56318
0.59617 0.940978 0.548196
0.749004 0.932601 0.537789
0.888624 0.927169 0.531502
1 0.923232 0.528435
0 0 0.604059
0 0 0.612772
0.0275578 0 0.618128
0.185885 0 0.61912
0.356222 0 0.618219
0.529488 0 0.618402
0.682582 0 0.627085
0.844068 0 0.641154
0.999191 0 0.657313
0 0 0.640177
0 0 0.649378
0.0663157 0 0.656123
0.230213 0 0.661799
0.416022 0 0.667994
0.585351 0 0.675227
0.75555 0 0.685847
0.912886 0 0.697337
1 0 0.708156
0 0.0942855 0.676249
0 0.110262 0.691783
0.117494 0.123171 0.704433
0.285054 0.129122 0.710643
0.467857 0.130541 0.712932
0.627085 0.132616 0.714305
0.795438 0.138674 0.718944
0.948043 0.147814 0.726421
1 0.157824 0.734783
0 0.283085 0.710063
0 0.292927 0.720409
0.140978 0.2981 0.726421
0.305928 0.298909 0.728511
0.48368 0.296483 0.727596
0.642451 0.295933 0.72726
0.809033 0.299657 0.729793
0.959045 0.305852 0.734691
1 0.312383 0.739788
0 0.447303 0.722866
0.00946059 0.454627 0.731136
0.149874 0.457633 0.735042
0.312505 0.455283 0.733806
0.486778 0.45098 0.731579
0.644602 0.447654 0.729824
0.808118 0.447745 0.728878
0.955383 0.450843 0.730709
1 0.454261 0.732647
0 0.605493 0.728634
0.0122072 0.610422 0.733639
0.15053 0.610666 0.734325
0.310033 0.605951 0.730907
0.479347 0.598535 0.725185
0.632364 0.592233 0.72163
0.795239 0.587961 0.718379
0.939879 0.587839 0.716152
1 0.587976 0.714565
0 0.746334 0.732372
0.0143435 0.748211 0.734218
0.149386 0.745464 0.731777
0.304509 0.737987 0.724453
0.470283 0.727977 0.715343
0.615335 0.719066 0.707378
0.774792 0.712352 0.703929
0.921065 0.708125 0.697368
1 0.705913 0.694255
0 0.872877 0.736187
0.0163272 0.871382 0.7346
0.147951 0.865888 0.729229
0.29987 0.855726 0.718685
0.462715 0.843442 0.706416
0.603387 0.832456 0.694774
0.756313 0.824964 0.685389
0.900343 0.819043 0.67834
1 0.814527 0.676646
0 0.987442 0.734691
0.0134279 0.983566 0.730617
0.142611 0.97583 0.722576
0.291646 0.963623 0.710124
0.452995 0.949966 0.695994
0.592676 0.938445 0.683345
0.743893 0.930251 0.673442
0.883864 0.924941 0.666682
1 0.920806 0.663539
0 0 0.725933
0 0 0.733318
0.0300755 0 0.738476
0.187304 0 0.738323
0.359564 0 0.738918
0.53254 0 0.739345
0.687877 0 0.74905
0.849638 0 0.763943
1 0 0.781201
0 0 0.759823
0 0 0.768917
0.0710002 0 0.777707
0.234821 0 0.78439
0.421744 0 0.791363
0.589975 0 0.798703
0.759655 0 0.808804
0.916487 0 0.819959
1 0.000732433 0.830579
0 0.0995041 0.79884
0 0.115923 0.81471
0.122698 0.128328 0.827207
0.290013 0.133486 0.83299
0.470893 0.134325 0.834669
0.629191 0.13576 0.835798
0.798215 0.142107 0.841169
0.950484 0.150835 0.848768
1 0.159884 0.856031
0 0.286763 0.832074
0.00196841 0.295857 0.841856
0.144778 0.301427 0.848096
0.309133 0.301091 0.849393
0.486076 0.299351 0.848859
0.644388 0.298772 0.848829
0.809979 0.301625 0.85127
0.959808 0.307546 0.856077
1 0.313939 0.861112
0 0.449973 0.844877
0.0120394 0.456336 0.851865
0.152987 0.459541 0.856031
0.315908 0.457221 0.855055
0.488838 0.452567 0.852201
0.64506 0.449409 0.850507
0.808331 0.449119 0.850217
0.954681 0.451499 0.851637
1 0.454871 0.853681
0 0.606867 0.849454
0.0142214 0.611429 0.854231
0.15259 0.611276 0.855177
0.311925 0.606226 0.85124
0.480934 0.598657 0.845411
0.632364 0.592035 0.841108
0.793317 0.588357 0.838758
0.937774 0.587503 0.837064
1 0.587015 0.835325
0 0.746761 0.852567
0.0157015 0.748455 0.854719
0.150103 0.74522 0.851575
0.305562 0.737423 0.844862
0.470741 0.726894 0.835462
0.616175 0.717632 0.828168
0.773846 0.71107 0.824155
0.917723 0.706798 0.820493
1 0.703975 0.815656
0 0.872251 0.855436
0.0162356 0.870451 0.853819
0.147784 0.864759 0.848447
0.299474 0.854246 0.838087
0.462043 0.841566 0.826062
0.602823 0.830472 0.815671
0.755322 0.822339 0.80856
0.897292 0.816464 0.805524
1 0.811795 0.798932
0 0.985931 0.853025
0.0123903 0.981933 0.849012
0.141451 0.973968 0.841184
0.290333 0.9617 0.828992
0.45153 0.947829 0.815122
0.590967 0.936278 0.803296
0.741238 0.928252 0.794186
0.879332 0.92343 0.787854
1 0.919036 0.782132
0 0 0.841123
0 0 0.848646
0.0332952 0 0.853986
0.190555 0 0.854246
0.36257 0 0.854505
0.536446 0 0.857023
0.693797 0 0.867445
0.855924 0 0.883009
1 0 0.900053
0 0 0.876066
0 0 0.885496
0.0760815 0 0.895201
0.240772 0 0.902724
0.427878 0 0.909483
0.594751 0 0.916869
0.764965 0 0.926665
0.919768 0 0.936629
1 0.00466926 0.947356
0 0.105638 0.916854
0 0.122087 0.933165
0.128206 0.133806 0.944884
0.29456 0.138094 0.949615
0.474235 0.138125 0.950164
0.632776 0.13991 0.95227
0.800397 0.145403 0.957046
0.952789 0.154086 0.96437
1 0.16318 0.972045
0 0.290257 0.948455
0.00616464 0.299641 0.958328
0.148653 0.304524 0.96405
0.313146 0.304631 0.964889
0.488762 0.301976 0.963806
0.646632 0.301518 0.963714
0.811795 0.304417 0.966445
0.961303 0.309941 0.970703
1 0.316182 0.975937
0 0.452613 0.960342
0.0153201 0.459327 0.967468
0.156024 0.462043 0.970901
0.319127 0.459358 0.969848
0.490974 0.454398 0.966384
0.646311 0.451102 0.964187
0.808621 0.450828 0.964477
0.95523 0.452964 0.965927
1 0.455604 0.9673
0 0.60885 0.964034
0.0171511 0.61326 0.969055
0.155032 0.612741 0.969528
0.314076 0.607172 0.965118
0.482887 0.599451 0.959304
0.633387 0.592782 0.954482
0.792569 0.589105 0.952102
0.935897 0.587594 0.950561
1 0.586923 0.949264
0 0.747875 0.966751
0.0170291 0.748714 0.967987
0.151369 0.745525 0.965454
0.307027 0.737209 0.958206
0.471427 0.726238 0.94876
0.616907 0.716991 0.941161
0.773236 0.710399 0.936873
0.914855 0.706294 0.933761
1 0.703075 0.930053
0 0.872053 0.967819
0.0166781 0.8701 0.966354
0.148104 0.864073 0.960845
0.299519 0.853086 0.950683
0.461799 0.840131 0.938872
0.602579 0.828809 0.928878
0.755764 0.82063 0.922744
0.895796 0.814908 0.919402
1 0.810376 0.915465
0 0.985046 0.964874
0.0119173 0.980774 0.960678
0.140932 0.97261 0.952834
0.289616 0.960098 0.941329
0.451118 0.946349 0.928161
0.590372 0.934478 0.916899
0.74078 0.926299 0.909361
0.878935 0.921294 0.905303
1 0.916213 0.903059
