avatar/assets/lut/Warm_1.siona_gut.cube
TITLE "Generated by Resolve"
LUT_3D_SIZE 5
0 0 0
0.198459 0.0113832 0.0110018
0.473915 0.0303807 0.0295262
0.770016 0.051957 0.0505684
1 0.0818341 0.0797436
0.129229 0.180606 0.173419
0.242191 0.207874 0.0516823
0.524773 0.258717 0.07953
0.827405 0.303288 0.10576
1 0.365072 0.137621
0.350072 0.458595 0.469108
0.362875 0.482734 0.270024
0.579751 0.510155 0.130404
0.876249 0.56289 0.15198
1 0.637293 0.170062
0.555474 0.731319 0.690684
0.610452 0.727245 0.730999
0.654261 0.788937 0.166964
0.903914 0.799634 0.171618
1 0.851255 0.150683
0.714641 0.971649 0.865965
0.758511 0.961303 0.898466
0.721355 1 0.478202
0.925353 1 0.110704
1 1 0.0839551
0 0 0.196902
0.194186 0.0236362 0.203479
0.472999 0.0294499 0.262974
0.768948 0.0509041 0.308232
1 0.0807202 0.377218
0.0349889 0.190372 0.2383
0.245106 0.20029 0.234775
0.532967 0.186557 0.203281
0.81915 0.190311 0.197726
1 0.287755 0.337484
0.284779 0.469383 0.440238
0.383658 0.469993 0.485115
0.583398 0.507637 0.229831
0.882338 0.544961 0.239155
1 0.613993 0.372274
0.527733 0.738598 0.678691
0.5823 0.732555 0.712047
0.638514 0.788663 0.252491
0.904173 0.796963 0.25594
1 0.838056 0.352193
0.69604 0.977569 0.857832
0.728664 0.969421 0.877119
0.730495 1 0.651514
0.914519 1 0.196216
1 0.996826 0.284413
0 0 0.493019
0.224903 0.00988785 0.508202
0.473823 0.0281682 0.527352
0.767803 0.0497597 0.579232
1 0.0794232 0.650065
0.0395972 0.217121 0.534829
0.234852 0.187045 0.58262
0.531533 0.162753 0.568002
0.814527 0.152758 0.583429
1 0.276951 0.66244
0.0940566 0.47155 0.583078
0.231983 0.488304 0.590082
0.591806 0.497246 0.580865
0.912764 0.473655 0.541817
1 0.543328 0.633906
0.239384 0.76112 0.659159
0.371649 0.765057 0.664515
0.62858 0.77435 0.622751
0.911665 0.787259 0.499443
1 0.81004 0.615824
0.589746 1 0.830747
0.632776 0.997345 0.841978
0.780133 0.965988 0.913649
0.877806 1 0.379141
1 0.9823 0.560296
0 0 0.725887
0.244175 0.00936904 0.739025
0.485969 0.261936 0.69987
0.773312 0.0493477 0.772473
1 0.0780346 0.858091
0.0425879 0.237308 0.762417
0.213794 0.162219 0.810727
0.515999 0.264347 0.751812
0.815641 0.149096 0.798154
1 0.274449 0.88011
0.0993668 0.506477 0.80293
0.223362 0.507286 0.830671
0.572641 0.497063 0.842939
0.913512 0.450431 0.846891
1 0.52987 0.885496
0.138781 0.761837 0.835813
0.235645 0.770321 0.839048
0.541207 0.786297 0.8365
0.909209 0.76585 0.808652
1 0.759228 0.83331
0.138689 1 0.901289
0.216938 1 0.885725
0.546242 1 0.862531
0.789761 1 0.689479
1 0.967254 0.771099
0 0 0.993637
0.276631 0.00914015 1
0.572778 0.0323339 1
0.788418 0.520409 0.933577
1 0.0768597 1
0.0483558 0.271519 1
0.192645 0.137591 1
0.588113 0.135912 1
0.794171 0.537209 0.942977
1 0.271824 1
0.107836 0.56791 1
0.214237 0.551095 1
0.570077 0.476783 1
0.818372 0.630274 0.979767
1 0.523995 1
0.139834 0.835462 1
0.229129 0.834073 1
0.508721 0.818952 1
0.862974 0.76202 1
1 0.742458 1
0.128191 1 1
0.204913 1 1
0.402884 1 1
0.739101 0.998703 1
1 0.948806 1
