avatar/assets/lut/Warm_1.siona_gut.cube
TITLE "Generated by Resolve"
LUT_3D_SIZE 33
0 0 0
0.00881972 0 0
0.0191653 0.00030518 0.000244144
0.0408942 0.00151064 0.00140383
0.0644999 0.00283818 0.00267033
0.0955215 0.00494392 0.0047303
0.128634 0.00695811 0.00668345
0.163088 0.00910964 0.0087892
0.198459 0.0113832 0.0110018
0.233646 0.0136721 0.0132448
0.268589 0.0159762 0.0154726
0.303349 0.018265 0.0177157
0.337942 0.020798 0.0201724
0.372412 0.0233005 0.0226139
0.406287 0.0256504 0.0249027
0.440208 0.0280156 0.0272068
0.473915 0.0303807 0.0295262
0.508003 0.0328069 0.0318914
0.541695 0.0351415 0.034165
0.575525 0.0377356 0.0366979
0.610727 0.0403754 0.0392615
0.646403 0.0428931 0.0417334
0.685328 0.0457008 0.0444495
0.725719 0.0486763 0.047364
0.770016 0.051957 0.0505684
0.817761 0.0555123 0.0540322
0.868055 0.0590524 0.0574807
0.922835 0.0631418 0.0614633
0.979019 0.0675059 0.0657206
1 0.0718395 0.0699474
1 0.0763256 0.0743572
1 0.0791333 0.0771038
1 0.0818341 0.0797436
0.00511177 0.0075227 0.00708019
0.0132906 0.00848402 0.0047303
0.0214084 0.00933852 0.00242618
0.043122 0.0119783 0.00357061
0.0670634 0.0148775 0.00520333
0.0982681 0.0180972 0.00743114
0.131609 0.0210727 0.00962844
0.166339 0.0242771 0.0120089
0.201892 0.0273289 0.0144198
0.237278 0.0302892 0.016846
0.272389 0.0330205 0.0192569
0.307439 0.0360266 0.0217899
0.342016 0.038819 0.0242313
0.376455 0.0416114 0.0266575
0.410407 0.0441749 0.0290227
0.444724 0.0473335 0.0317235
0.47866 0.0501717 0.0342565
0.512901 0.0529335 0.0367285
0.546654 0.0553597 0.0390478
0.580438 0.0582132 0.0415045
0.615671 0.0610208 0.0440375
0.651484 0.0638895 0.0466316
0.690486 0.0669261 0.049424
0.731029 0.0705882 0.0525063
0.775509 0.0744793 0.0558633
0.823468 0.0787671 0.0595254
0.874174 0.0831617 0.063386
0.928954 0.0881056 0.0673533
0.985351 0.0933242 0.0718395
1 0.0984207 0.0762341
1 0.103319 0.0806897
1 0.10631 0.0834821
1 0.108965 0.0861067
0.0112612 0.0163577 0.0155032
0.0171359 0.0174258 0.00970474
0.0233768 0.0186923 0.00408942
0.0449531 0.0224918 0.00535592
0.0693828 0.0272068 0.00747692
0.100862 0.031281 0.0099794
0.134524 0.0355993 0.0125124
0.16939 0.0394446 0.0150454
0.205158 0.0433967 0.0176547
0.24065 0.0469368 0.0202182
0.27599 0.0506142 0.0228275
0.311055 0.0538949 0.0253758
0.345739 0.0573129 0.0279393
0.380316 0.0603799 0.030518
0.414588 0.0636301 0.0331731
0.448737 0.0666056 0.0357366
0.482734 0.0698558 0.0383001
0.517037 0.0727703 0.0408179
0.551064 0.0759136 0.0433814
0.585184 0.0789502 0.046128
0.620615 0.0822461 0.0487984
0.656443 0.0852522 0.0514076
0.695644 0.0890822 0.0543984
0.736248 0.0928664 0.0575265
0.780896 0.0975509 0.0610666
0.828656 0.102037 0.0645304
0.879652 0.107637 0.0686656
0.934859 0.113359 0.0730755
0.99118 0.119341 0.0774548
1 0.125185 0.0823682
1 0.130877 0.0867933
1 0.133333 0.0894484
1 0.136156 0.0920882
0.0246891 0.0352636 0.0336614
0.0278325 0.0370489 0.0245975
0.0307774 0.038407 0.0151675
0.0509194 0.0419013 0.0129091
0.0732128 0.0453193 0.0114443
0.104189 0.050309 0.0132143
0.138277 0.0556802 0.0161898
0.173495 0.0610208 0.0190585
0.209537 0.0659342 0.0219577
0.24535 0.0705577 0.0248417
0.280949 0.0745251 0.0277409
0.316274 0.0788739 0.0305486
0.35111 0.0827192 0.0332647
0.385855 0.0865492 0.0360113
0.420066 0.0898756 0.0386206
0.454353 0.0936904 0.0413367
0.488518 0.0971542 0.044007
0.523018 0.100633 0.0466926
0.557 0.103578 0.0491951
0.591226 0.107225 0.0520027
0.627054 0.110811 0.0549935
0.663127 0.114305 0.057847
0.702373 0.118196 0.0608835
0.743175 0.122927 0.06421
0.787671 0.127886 0.0675975
0.835996 0.133761 0.0716259
0.887114 0.139834 0.0758679
0.942535 0.146761 0.0804608
0.999313 0.153903 0.0853132
1 0.160647 0.090013
1 0.166613 0.0944686
1 0.169589 0.0973373
1 0.172 0.099855
0.0390936 0.0558328 0.0530861
0.0394903 0.0581216 0.040589
0.0397803 0.0604105 0.0282444
0.0572671 0.0623789 0.0214542
0.0776379 0.0647135 0.0159915
0.108278 0.0703593 0.0171969
0.142733 0.0774853 0.0205386
0.177935 0.0836347 0.0234073
0.21442 0.0895399 0.0267643
0.250431 0.095079 0.0298619
0.286152 0.10016 0.0328832
0.32166 0.105043 0.0358892
0.356664 0.109453 0.0387732
0.391714 0.113741 0.041825
0.426123 0.117769 0.0446326
0.460502 0.121813 0.0474708
0.494865 0.125658 0.050248
0.529458 0.129503 0.0530404
0.563607 0.132982 0.0556649
0.597848 0.136568 0.0584268
0.633677 0.140444 0.0613413
0.669779 0.14435 0.0642557
0.709468 0.149004 0.0677195
0.750072 0.15378 0.0708476
0.795056 0.159777 0.0747082
0.84358 0.166537 0.0789349
0.894774 0.173449 0.0832532
0.95053 0.181613 0.0881819
1 0.189425 0.0928511
1 0.196963 0.0978408
1 0.204166 0.102632
1 0.206394 0.105135
1 0.20853 0.107515
0.0580758 0.0826581 0.0784161
0.0596628 0.0841688 0.0717021
0.0610971 0.0854505 0.0647593
0.0741741 0.0889448 0.0464332
0.0889143 0.0924849 0.0256657
0.116274 0.0975204 0.0226596
0.148516 0.102983 0.0254978
0.183383 0.109529 0.028748
0.219913 0.116655 0.0321508
0.256443 0.123232 0.0357519
0.292332 0.128908 0.0389563
0.328099 0.134813 0.0422217
0.363348 0.139864 0.0453803
0.39852 0.144778 0.0485695
0.433005 0.148989 0.0514382
0.467536 0.15375 0.0544442
0.502098 0.157992 0.0573587
0.536843 0.162234 0.0602731
0.571054 0.165698 0.0629129
0.605417 0.169772 0.0657359
0.641413 0.173816 0.0687724
0.677577 0.177966 0.0717479
0.717037 0.182773 0.0749981
0.758144 0.188708 0.0786145
0.80325 0.195361 0.0825971
0.851774 0.202518 0.0868086
0.903212 0.210391 0.0913863
0.958984 0.219409 0.0963149
1 0.228107 0.101122
1 0.236713 0.106294
1 0.243702 0.110857
1 0.246098 0.113329
1 0.24799 0.115587
0.0793011 0.112367 0.106935
0.0837262 0.112398 0.108949
0.088365 0.112978 0.111681
0.0948043 0.117433 0.0768749
0.102464 0.123415 0.037232
0.125643 0.126925 0.0285649
0.155352 0.130571 0.0311742
0.189136 0.136721 0.0343633
0.226001 0.145068 0.038117
0.262623 0.152529 0.0418097
0.299016 0.159594 0.0455329
0.334905 0.165789 0.0489204
0.370428 0.171695 0.052369
0.405646 0.176959 0.0555886
0.440299 0.182132 0.0586557
0.474754 0.186709 0.0616007
0.509438 0.191501 0.0645457
0.544656 0.196033 0.0679179
0.579141 0.200336 0.0707866
0.61355 0.204074 0.0735485
0.649561 0.208774 0.076585
0.685664 0.212955 0.0795148
0.725338 0.218784 0.0829633
0.766155 0.224231 0.0862898
0.811521 0.23183 0.0905318
0.860212 0.239811 0.0949264
0.911757 0.248722 0.0995956
0.9673 0.258015 0.104311
1 0.267735 0.109377
1 0.276631 0.114488
1 0.284749 0.119112
1 0.286198 0.121309
1 0.288243 0.123522
0.103212 0.145266 0.138796
0.108873 0.145052 0.144732
0.11429 0.144564 0.150378
0.11632 0.150729 0.110216
0.117189 0.157214 0.0620737
0.138293 0.160998 0.0455787
0.165972 0.163104 0.0403296
0.198566 0.168521 0.0411231
0.233585 0.175692 0.0446632
0.269276 0.183093 0.0483253
0.305791 0.190326 0.0521706
0.341741 0.197498 0.0556344
0.37731 0.203525 0.0591135
0.41265 0.209583 0.0624857
0.447349 0.214633 0.0656138
0.482139 0.220233 0.0688487
0.517174 0.225071 0.0721141
0.552132 0.229984 0.0751965
0.586557 0.233921 0.0779583
0.621225 0.238453 0.0808881
0.657176 0.243091 0.0838788
0.693462 0.247791 0.0869612
0.733181 0.253361 0.0904707
0.774395 0.260182 0.0942092
0.819318 0.267674 0.098024
0.868376 0.27657 0.102739
0.919585 0.285542 0.107103
0.975494 0.296147 0.112169
1 0.306493 0.117464
1 0.315908 0.12224
1 0.32372 0.126635
1 0.325582 0.128801
1 0.327031 0.130755
0.129229 0.180606 0.173419
0.134661 0.180423 0.179263
0.140291 0.180179 0.185046
0.137362 0.186267 0.144213
0.133288 0.193256 0.0961929
0.152438 0.197131 0.0706645
0.18024 0.199969 0.0533303
0.210483 0.203861 0.0489815
0.242191 0.207874 0.0516823
0.276112 0.21384 0.0549935
0.31249 0.221653 0.0587167
0.34876 0.229343 0.062501
0.384527 0.235904 0.0662089
0.419974 0.242359 0.069688
0.454795 0.248005 0.0729534
0.48986 0.253559 0.0764019
0.524773 0.258717 0.07953
0.559792 0.263874 0.0826429
0.594385 0.268284 0.0854963
0.629099 0.272694 0.0883803
0.665232 0.277455 0.0915847
0.701442 0.282353 0.0945907
0.741085 0.288518 0.098024
0.78201 0.295079 0.101488
0.827405 0.303288 0.10576
0.875914 0.312398 0.109957
0.927749 0.322545 0.114916
0.983505 0.33341 0.119844
1 0.34406 0.124651
1 0.353765 0.129381
1 0.362249 0.13373
1 0.363592 0.135546
1 0.365072 0.137621
0.156664 0.216144 0.209659
0.161776 0.215946 0.215381
0.166644 0.215427 0.220417
0.164324 0.220417 0.190234
0.160876 0.22623 0.154101
0.175372 0.231373 0.11397
0.196124 0.235996 0.0712749
0.222599 0.239506 0.056672
0.252506 0.241932 0.0590219
0.285283 0.246464 0.0621195
0.320348 0.253361 0.0656901
0.355795 0.260807 0.0693828
0.391653 0.267781 0.0731975
0.427192 0.274617 0.0767681
0.461982 0.280308 0.0800336
0.496956 0.286122 0.083299
0.531853 0.291463 0.0864118
0.566949 0.296849 0.0895552
0.601541 0.301137 0.0923629
0.636545 0.305867 0.0954757
0.67248 0.310872 0.0984817
0.708705 0.315953 0.101518
0.748287 0.322133 0.104906
0.789685 0.329503 0.108827
0.834638 0.337865 0.112657
0.883619 0.347707 0.117311
0.934951 0.357733 0.121782
0.99057 0.369528 0.126589
1 0.380575 0.131395
1 0.390646 0.136034
1 0.399084 0.139895
1 0.400732 0.142031
1 0.401709 0.143771
0.18497 0.251911 0.24773
0.189609 0.251377 0.252415
0.194186 0.251179 0.25742
0.198169 0.253437 0.249195
0.202487 0.256718 0.240299
0.208042 0.263066 0.17731
0.21442 0.271382 0.0958267
0.234913 0.275593 0.0647593
0.266056 0.278676 0.0675364
0.297169 0.281727 0.0700999
0.329381 0.28632 0.0729992
0.362646 0.291417 0.0760815
0.398642 0.299062 0.0800183
0.433829 0.305638 0.0832532
0.468956 0.312078 0.0868696
0.504021 0.317983 0.0901656
0.539071 0.323857 0.0933852
0.574136 0.329152 0.0964828
0.60911 0.334066 0.0995804
0.643839 0.33846 0.102403
0.679789 0.343862 0.10544
0.715892 0.348806 0.10837
0.755795 0.355734 0.112047
0.796613 0.362661 0.115404
0.841947 0.371786 0.119631
0.890333 0.381552 0.12372
0.941787 0.39263 0.128298
0.997314 0.404303 0.133013
1 0.416236 0.13785
1 0.426307 0.14197
1 0.435721 0.14609
1 0.436179 0.147677
1 0.437171 0.149248
0.213413 0.28748 0.285512
0.21738 0.287068 0.289769
0.221454 0.286458 0.294057
0.230518 0.28751 0.302373
0.240055 0.288396 0.310933
0.238209 0.296117 0.235752
0.232166 0.30605 0.12929
0.248508 0.312215 0.0844129
0.278782 0.3149 0.079118
0.309087 0.317372 0.0778363
0.338964 0.319478 0.0801251
0.370932 0.323705 0.0829328
0.405921 0.330449 0.0865949
0.440833 0.33724 0.0900893
0.475837 0.343374 0.0935988
0.511086 0.350042 0.0970016
0.54612 0.355856 0.100206
0.581476 0.361563 0.103532
0.61619 0.366079 0.106294
0.65098 0.371099 0.109178
0.68687 0.376394 0.112154
0.722988 0.381765 0.115114
0.762325 0.387961 0.118257
0.803464 0.395941 0.12192
0.848646 0.405097 0.125994
0.897261 0.415579 0.130312
0.948425 0.42652 0.13463
1 0.439261 0.139101
1 0.451179 0.143587
1 0.461753 0.147723
1 0.470542 0.151354
1 0.471336 0.15285
1 0.471733 0.154101
0.241443 0.322423 0.32285
0.245014 0.322072 0.326818
0.249027 0.321889 0.330907
0.25835 0.322164 0.340368
0.268345 0.322576 0.350576
0.262226 0.330358 0.281453
0.250187 0.340856 0.183246
0.262852 0.347082 0.127535
0.291493 0.350225 0.0991073
0.320836 0.353063 0.0858015
0.351675 0.355734 0.0884108
0.382605 0.358801 0.0909285
0.414862 0.363088 0.0936904
0.447501 0.367895 0.0966049
0.482628 0.374533 0.100206
0.517876 0.381155 0.103563
0.55288 0.387106 0.106706
0.587961 0.392676 0.109728
0.622766 0.397559 0.11249
0.657542 0.402518 0.115389
0.693217 0.407767 0.118151
0.729473 0.413199 0.121233
0.768994 0.420325 0.124575
0.810071 0.428168 0.128191
0.854826 0.437491 0.131853
0.903212 0.448218 0.135943
0.954269 0.459724 0.140139
1 0.472557 0.144579
1 0.484871 0.148791
1 0.495933 0.152697
1 0.505379 0.15584
1 0.505684 0.157183
1 0.506111 0.158648
0.269154 0.357046 0.360128
0.272755 0.356878 0.363867
0.275883 0.356497 0.367178
0.285679 0.35671 0.377874
0.296269 0.356603 0.389395
0.287892 0.364034 0.330617
0.272374 0.373892 0.246174
0.281163 0.380911 0.178912
0.305226 0.385199 0.122194
0.332494 0.388739 0.0936141
0.363088 0.390845 0.0959029
0.39379 0.393484 0.0982528
0.42385 0.395972 0.100664
0.455009 0.399252 0.103243
0.48954 0.40531 0.106554
0.524102 0.411612 0.10956
0.559136 0.417762 0.112718
0.594522 0.423774 0.115969
0.629297 0.428489 0.118639
0.663951 0.433677 0.121416
0.699733 0.43917 0.124315
0.735836 0.444678 0.12726
0.775174 0.451652 0.130419
0.815976 0.459632 0.133776
0.860853 0.469505 0.137545
0.909072 0.480613 0.141497
0.959899 0.492409 0.145464
1 0.506157 0.149706
1 0.518914 0.153628
1 0.529992 0.157031
1 0.539422 0.160204
1 0.539727 0.161364
1 0.539635 0.162402
0.296513 0.391211 0.396674
0.29958 0.390768 0.399649
0.302907 0.390951 0.403479
0.311971 0.390463 0.413245
0.322362 0.390585 0.42446
0.320195 0.395422 0.393713
0.314397 0.40267 0.349325
0.316289 0.410056 0.265476
0.324254 0.418326 0.157412
0.342748 0.423117 0.100954
0.374258 0.426093 0.10367
0.404776 0.428138 0.105852
0.435203 0.430655 0.10811
0.465553 0.433051 0.110338
0.497963 0.437491 0.112993
0.530373 0.44152 0.115572
0.565393 0.44802 0.118685
0.600748 0.453895 0.121859
0.63563 0.45919 0.12459
0.670054 0.463874 0.127169
0.705837 0.469627 0.130037
0.741772 0.475029 0.132845
0.780789 0.482429 0.135683
0.821622 0.490455 0.139086
0.866316 0.500725 0.142687
0.914351 0.512154 0.146441
0.964981 0.524758 0.150256
1 0.538262 0.154101
1 0.551736 0.157824
1 0.562936 0.160983
1 0.572976 0.16376
1 0.572503 0.164508
1 0.572366 0.165347
0.323613 0.425132 0.432853
0.32639 0.42504 0.436042
0.329168 0.424628 0.438636
0.338308 0.424598 0.448753
0.34815 0.424262 0.459709
0.3523 0.426947 0.456123
0.354391 0.430518 0.447272
0.350942 0.43917 0.350576
0.343114 0.450874 0.194751
0.353491 0.458106 0.112032
0.384543 0.460151 0.111803
0.415412 0.46276 0.112871
0.445884 0.464927 0.114977
0.476356 0.467414 0.117418
0.506371 0.469215 0.119371
0.536843 0.471901 0.121538
0.571649 0.478157 0.124529
0.606836 0.484291 0.127611
0.641535 0.489189 0.130114
0.676005 0.494591 0.132738
0.711681 0.500252 0.135546
0.747127 0.505714 0.13785
0.786252 0.513146 0.14081
0.827085 0.521935 0.144198
0.871473 0.532113 0.147524
0.919326 0.544045 0.15111
0.969619 0.556542 0.154604
1 0.57113 0.158297
1 0.584558 0.161501
1 0.596185 0.164172
1 0.605814 0.166445
1 0.605646 0.167376
1 0.605219 0.168276
0.350072 0.458595 0.469108
0.352819 0.458457 0.471763
0.355566 0.458305 0.474647
0.364004 0.457954 0.483696
0.373342 0.457557 0.493431
0.380392 0.459083 0.496345
0.386526 0.461204 0.496956
0.379171 0.469703 0.412345
0.362875 0.482734 0.270024
0.367483 0.491127 0.177615
0.395895 0.494179 0.141848
0.425376 0.497215 0.119722
0.455833 0.499428 0.121828
0.486381 0.501534 0.123857
0.516518 0.503624 0.125826
0.547234 0.505959 0.127947
0.579751 0.510155 0.130404
0.612665 0.514275 0.132937
0.647227 0.519417 0.135439
0.681254 0.52433 0.137652
0.716762 0.529946 0.140276
0.752422 0.535866 0.142809
0.79147 0.543648 0.145693
0.831678 0.552071 0.148486
0.876249 0.56289 0.15198
0.923766 0.575082 0.155245
0.973907 0.588342 0.158572
1 0.602716 0.161593
1 0.616693 0.164675
1 0.62887 0.167163
1 0.638941 0.16907
1 0.638163 0.169604
1 0.637293 0.170062
0.376333 0.491829 0.503029
0.378836 0.491661 0.50544
0.380972 0.491249 0.507607
0.389181 0.491127 0.51574
0.39794 0.490715 0.524163
0.407904 0.491096 0.532876
0.417762 0.491173 0.54107
0.407187 0.500206 0.474052
0.382315 0.514733 0.344823
0.381079 0.524224 0.243
0.407019 0.528023 0.171969
0.43473 0.531411 0.126207
0.465446 0.533455 0.128161
0.496178 0.535637 0.130251
0.526802 0.537545 0.132265
0.557229 0.539818 0.134218
0.587564 0.541802 0.135973
0.61796 0.543801 0.137728
0.65214 0.548562 0.140017
0.686381 0.554055 0.142428
0.721828 0.559838 0.145006
0.75729 0.565789 0.147356
0.796231 0.573419 0.150134
0.836255 0.582452 0.152758
0.880247 0.593225 0.155688
0.92755 0.605859 0.15874
0.977356 0.619242 0.161746
1 0.634699 0.164813
1 0.648783 0.167208
1 0.660868 0.169131
1 0.670726 0.170703
1 0.669932 0.171191
1 0.668986 0.171771
0.40145 0.524193 0.533578
0.403418 0.523796 0.535393
0.405905 0.523934 0.537652
0.41323 0.523247 0.544411
0.42179 0.523079 0.552346
0.431769 0.52285 0.561074
0.442512 0.523033 0.570367
0.436179 0.529702 0.529854
0.418982 0.54139 0.448096
0.414832 0.551125 0.342504
0.425605 0.559121 0.215717
0.443061 0.564706 0.132219
0.473854 0.56701 0.134173
0.504646 0.568673 0.135958
0.535103 0.570855 0.137789
0.565682 0.572488 0.139544
0.596155 0.574884 0.141543
0.626703 0.576333 0.143114
0.659007 0.580133 0.145068
0.691432 0.583413 0.146868
0.726497 0.589273 0.14934
0.761807 0.595117 0.151537
0.800336 0.603143 0.153918
0.840345 0.612161 0.156527
0.884123 0.623575 0.159258
0.93109 0.636316 0.16199
0.980743 0.650416 0.164843
1 0.665278 0.167102
1 0.67985 0.169299
1 0.691859 0.171038
1 0.702068 0.172045
1 0.700603 0.172412
1 0.699397 0.172427
0.426062 0.556191 0.561883
0.428046 0.556069 0.563775
0.429984 0.555642 0.565393
0.437263 0.555489 0.571908
0.44509 0.555016 0.578836
0.455253 0.554788 0.58761
0.465766 0.554086 0.595575
0.465095 0.559289 0.580545
0.456443 0.56759 0.546334
0.44918 0.577523 0.444312
0.443778 0.58938 0.259159
0.450752 0.598199 0.137606
0.481483 0.600168 0.139437
0.512764 0.602197 0.141329
0.543297 0.603937 0.14316
0.574075 0.605951 0.144793
0.604303 0.60766 0.146349
0.635035 0.609308 0.147845
0.665736 0.611337 0.14966
0.696361 0.613474 0.151141
0.730709 0.618799 0.153216
0.76582 0.624826 0.15523
0.804288 0.632731 0.157565
0.844068 0.642329 0.159945
0.887587 0.653651 0.162432
0.934401 0.666697 0.165011
0.98323 0.680278 0.167071
1 0.696025 0.169223
1 0.710552 0.171084
1 0.72253 0.171939
1 0.732021 0.172335
1 0.730449 0.17229
1 0.728573 0.172198
0.450996 0.588983 0.589624
0.452964 0.58883 0.59115
0.454963 0.588663 0.592538
0.461585 0.58822 0.597589
0.468818 0.587777 0.602853
0.478828 0.587427 0.610101
0.489448 0.58677 0.618296
0.492973 0.589929 0.613718
0.491279 0.595514 0.600565
0.482368 0.605249 0.523766
0.465248 0.620325 0.34583
0.463371 0.631144 0.212528
0.49218 0.634195 0.175601
0.52105 0.636713 0.146624
0.551812 0.638407 0.14818
0.582483 0.640116 0.149737
0.613413 0.641993 0.151446
0.643992 0.643534 0.152834
0.674281 0.644953 0.154101
0.704326 0.646433 0.155428
0.737041 0.650156 0.157
0.770062 0.654414 0.158587
0.807797 0.662058 0.160769
0.847105 0.671244 0.162692
0.89041 0.682673 0.164981
0.936843 0.695872 0.167193
0.985489 0.710063 0.169085
1 0.725765 0.170977
1 0.740093 0.171908
1 0.751934 0.172274
1 0.760891 0.171649
1 0.758877 0.171283
1 0.756222 0.170535
0.475441 0.621988 0.612802
0.477302 0.62182 0.614069
0.478737 0.621424 0.615259
0.485451 0.62121 0.620157
0.492485 0.620706 0.625437
0.502373 0.620188 0.632944
0.512505 0.619242 0.640848
0.520256 0.620874 0.643397
0.5252 0.623743 0.641886
0.514778 0.633234 0.588174
0.486549 0.650339 0.441138
0.47686 0.663218 0.304829
0.502556 0.667506 0.219272
0.529 0.670954 0.151202
0.559853 0.672541 0.152895
0.59089 0.674311 0.154284
0.621485 0.675807 0.155627
0.652369 0.677195 0.156863
0.682689 0.678477 0.158251
0.71313 0.680079 0.159442
0.743511 0.68188 0.160616
0.774197 0.683772 0.161715
0.810956 0.690501 0.163638
0.849928 0.699886 0.16524
0.893004 0.711376 0.167285
0.93901 0.724712 0.1691
0.98732 0.738888 0.170687
1 0.754635 0.171786
1 0.768856 0.17232
1 0.77995 0.171389
1 0.787518 0.169162
1 0.784894 0.168292
1 0.781857 0.167285
0.501335 0.657481 0.637995
0.502846 0.656992 0.639017
0.504845 0.65716 0.64036
0.510597 0.656367 0.644739
0.51751 0.656168 0.649989
0.526665 0.654932 0.656779
0.537636 0.654566 0.665171
0.54667 0.654826 0.670542
0.555108 0.656443 0.674632
0.54667 0.664332 0.635279
0.520073 0.680491 0.540719
0.506691 0.693278 0.414023
0.520928 0.701366 0.270375
0.538476 0.707576 0.156085
0.569711 0.709377 0.157473
0.600595 0.710414 0.158663
0.631693 0.711955 0.159792
0.662394 0.712917 0.160891
0.693263 0.714626 0.162173
0.723491 0.715526 0.163226
0.753597 0.716854 0.164126
0.78323 0.717525 0.164965
0.817502 0.722683 0.166247
0.85391 0.728969 0.167742
0.895094 0.739467 0.169131
0.940795 0.752773 0.170657
0.988434 0.767132 0.171572
1 0.782498 0.172061
1 0.796262 0.171359
1 0.805844 0.168765
1 0.812955 0.16524
1 0.809506 0.164141
1 0.806149 0.162661
0.527794 0.693263 0.663569
0.529168 0.693049 0.664729
0.530571 0.692576 0.665522
0.536538 0.69221 0.670024
0.542947 0.691661 0.674739
0.552361 0.690944 0.68188
0.562417 0.689982 0.689494
0.572457 0.689967 0.696483
0.582406 0.690455 0.702831
0.5785 0.696727 0.679973
0.558175 0.709468 0.622919
0.544884 0.722423 0.528786
0.543374 0.735088 0.325246
0.548363 0.745525 0.160266
0.57937 0.746517 0.161349
0.610819 0.748043 0.162539
0.642054 0.749096 0.16347
0.672984 0.750134 0.164401
0.703822 0.751095 0.165438
0.734401 0.752377 0.166384
0.76466 0.753231 0.167102
0.794553 0.754055 0.167803
0.825818 0.755642 0.168612
0.857694 0.758404 0.169345
0.896895 0.767132 0.170672
0.941924 0.780514 0.171542
0.989151 0.794385 0.172061
1 0.809552 0.171191
1 0.821851 0.168795
1 0.830564 0.164935
1 0.8365 0.160357
1 0.833066 0.158816
1 0.829374 0.157092
0.555474 0.731319 0.690684
0.557061 0.731167 0.691783
0.558419 0.73106 0.692943
0.564065 0.730465 0.69691
0.569909 0.729625 0.70135
0.579126 0.728832 0.708171
0.589364 0.727977 0.715923
0.599786 0.727642 0.723659
0.610452 0.727245 0.730999
0.61059 0.731731 0.719631
0.598321 0.741512 0.686519
0.584878 0.753475 0.612268
0.569253 0.770016 0.415732
0.562997 0.783658 0.230625
0.592645 0.785748 0.196948
0.622812 0.788037 0.166186
0.654261 0.788937 0.166964
0.685481 0.789776 0.167697
0.716396 0.790494 0.168322
0.747066 0.791241 0.168963
0.777737 0.792218 0.169802
0.808026 0.792813 0.170291
0.837934 0.793362 0.170718
0.867887 0.79379 0.171054
0.903914 0.799634 0.171618
0.94461 0.809339 0.171817
0.98883 0.821042 0.171557
1 0.834546 0.169055
1 0.84596 0.165026
1 0.85388 0.159899
1 0.859251 0.154147
1 0.85539 0.152544
1 0.851255 0.150683
0.584131 0.770977 0.719097
0.585611 0.770825 0.720195
0.586725 0.770382 0.720943
0.592248 0.76994 0.724987
0.598032 0.769238 0.729198
0.607065 0.768353 0.735943
0.617044 0.76701 0.743267
0.62797 0.766705 0.751385
0.639048 0.765957 0.759365
0.643076 0.768765 0.755306
0.638514 0.77496 0.737621
0.626566 0.785962 0.680034
0.598321 0.805325 0.532906
0.581048 0.821347 0.359426
0.607736 0.825467 0.259663
0.635248 0.829969 0.168765
0.667094 0.830625 0.169329
0.69865 0.83125 0.169863
0.729854 0.831693 0.170535
0.761135 0.832486 0.170901
0.79176 0.832944 0.171267
0.822202 0.83328 0.171496
0.852369 0.833066 0.171527
0.882597 0.833677 0.17171
0.914443 0.835431 0.171527
0.947936 0.838499 0.171084
0.986984 0.845502 0.169558
1 0.858366 0.165682
1 0.868635 0.160327
1 0.875883 0.153811
1 0.880812 0.147692
1 0.876783 0.14551
1 0.872511 0.143587
0.612985 0.811124 0.748012
0.614191 0.81059 0.748791
0.615915 0.810803 0.750027
0.620844 0.809857 0.753491
0.626856 0.809583 0.757794
0.635294 0.808286 0.763973
0.645289 0.807584 0.771695
0.65568 0.806012 0.779156
0.66746 0.805508 0.787884
0.67425 0.806455 0.789364
0.676707 0.810132 0.783932
0.66656 0.819165 0.740856
0.632822 0.839719 0.625238
0.609201 0.857252 0.490867
0.628367 0.865583 0.325353
0.647822 0.872694 0.170535
0.679927 0.873503 0.170871
0.712093 0.873549 0.171237
0.743389 0.873991 0.171221
0.774365 0.873594 0.171145
0.805234 0.873884 0.170977
0.835782 0.873228 0.170642
0.865934 0.873106 0.170077
0.895613 0.872114 0.169421
0.925216 0.871458 0.168368
0.954177 0.870176 0.167422
0.98912 0.873808 0.16527
1 0.882338 0.160357
1 0.890517 0.15462
1 0.897139 0.147311
1 0.901884 0.140078
1 0.897322 0.138216
1 0.892958 0.135821
0.642237 0.852033 0.777661
0.643626 0.851881 0.778515
0.644617 0.851423 0.779202
0.649638 0.85095 0.782956
0.654795 0.850126 0.786679
0.663249 0.848936 0.79295
0.672587 0.847242 0.799878
0.683482 0.84622 0.807904
0.694453 0.844694 0.816129
