avatar/assets/lut/Warm_1.siona_gut.cube
TITLE "Generated by Resolve"
LUT_3D_SIZE 9
0 0 0
0.0644999 0.00283818 0.00267033
0.198459 0.0113832 0.0110018
0.337942 0.020798 0.0201724
0.473915 0.0303807 0.0295262
0.610727 0.0403754 0.0392615
0.770016 0.051957 0.0505684
0.979019 0.0675059 0.0657206
1 0.0818341 0.0797436
0.0390936 0.0558328 0.0530861
0.0776379 0.0647135 0.0159915
0.21442 0.0895399 0.0267643
0.356664 0.109453 0.0387732
0.494865 0.125658 0.050248
0.633677 0.140444 0.0613413
0.795056 0.159777 0.0747082
1 0.189425 0.0928511
1 0.20853 0.107515
0.129229 0.180606 0.173419
0.133288 0.193256 0.0961929
0.242191 0.207874 0.0516823
0.384527 0.235904 0.0662089
0.524773 0.258717 0.07953
0.665232 0.277455 0.0915847
0.827405 0.303288 0.10576
1 0.34406 0.124651
1 0.365072 0.137621
0.241443 0.322423 0.32285
0.268345 0.322576 0.350576
0.291493 0.350225 0.0991073
0.414862 0.363088 0.0936904
0.55288 0.387106 0.106706
0.693217 0.407767 0.118151
0.854826 0.437491 0.131853
1 0.484871 0.148791
1 0.506111 0.158648
0.350072 0.458595 0.469108
0.373342 0.457557 0.493431
0.362875 0.482734 0.270024
0.455833 0.499428 0.121828
0.579751 0.510155 0.130404
0.716762 0.529946 0.140276
0.876249 0.56289 0.15198
1 0.616693 0.164675
1 0.637293 0.170062
0.450996 0.588983 0.589624
0.468818 0.587777 0.602853
0.491279 0.595514 0.600565
0.49218 0.634195 0.175601
0.613413 0.641993 0.151446
0.737041 0.650156 0.157
0.89041 0.682673 0.164981
1 0.740093 0.171908
1 0.756222 0.170535
0.555474 0.731319 0.690684
0.569909 0.729625 0.70135
0.610452 0.727245 0.730999
0.569253 0.770016 0.415732
0.654261 0.788937 0.166964
0.777737 0.792218 0.169802
0.903914 0.799634 0.171618
1 0.84596 0.165026
1 0.851255 0.150683
0.665385 0.887251 0.803128
0.67776 0.885069 0.811978
0.716182 0.878279 0.84065
0.708461 0.897002 0.777554
0.700191 0.9552 0.188312
0.823377 0.949889 0.158587
0.942641 0.941482 0.150317
1 0.933944 0.13962
1 0.932204 0.119387
0.714641 0.971649 0.865965
0.724483 0.969268 0.873167
0.758511 0.961303 0.898466
0.792035 0.957122 0.917006
0.721355 1 0.478202
0.806592 1 0.122683
0.925353 1 0.110704
1 1 0.0985122
1 1 0.0839551
0 0 0.0619211
0.0649424 0.00250248 0.0670939
0.19794 0.0108492 0.0915847
0.337469 0.0203098 0.110674
0.473442 0.0299077 0.126055
0.610178 0.0398413 0.140337
0.769512 0.0514839 0.159243
0.978546 0.0670481 0.18883
1 0.0813458 0.208621
0.0117494 0.0592813 0.0759899
0.0786755 0.0619516 0.07393
0.219211 0.0608225 0.0659342
0.354726 0.065156 0.0668193
0.48864 0.0740368 0.0745708
0.624353 0.0843519 0.0845808
0.783246 0.0981308 0.0990005
0.992996 0.120104 0.123842
1 0.155642 0.171695
0.0989395 0.18587 0.161776
0.142061 0.186496 0.176242
0.242924 0.205982 0.082948
0.386221 0.225483 0.093019
0.525139 0.243519 0.10425
0.664271 0.259632 0.116289
0.825238 0.283162 0.131777
1 0.321828 0.158114
1 0.346334 0.203952
0.227222 0.32575 0.314351
0.254108 0.323781 0.337804
0.289357 0.348882 0.143893
0.415259 0.362295 0.121599
0.55404 0.382803 0.134264
0.69427 0.401465 0.146593
0.854704 0.42916 0.161486
1 0.475257 0.186374
1 0.496864 0.227131
0.341146 0.460838 0.462669
0.358541 0.459388 0.478706
0.364813 0.479835 0.324468
0.452491 0.499382 0.150515
0.579767 0.509392 0.159625
0.717189 0.527565 0.17052
0.876524 0.558877 0.18439
1 0.611231 0.204471
1 0.631327 0.239567
0.444816 0.590814 0.586343
0.456825 0.58941 0.5944
0.49659 0.592004 0.615015
0.488167 0.633051 0.214145
0.611109 0.641566 0.183093
0.737011 0.649561 0.189883
0.890288 0.68069 0.199619
1 0.736843 0.214206
1 0.751797 0.240299
0.550378 0.732784 0.688273
0.55967 0.731472 0.694148
0.605463 0.727535 0.727855
0.571389 0.767102 0.457603
0.650263 0.788495 0.202319
0.77583 0.791318 0.205814
0.903349 0.798764 0.209277
1 0.843519 0.209293
1 0.847166 0.220508
0.661372 0.888548 0.80119
0.668421 0.886992 0.805508
0.710216 0.879469 0.836301
0.714351 0.893263 0.79527
0.695048 0.953811 0.231022
0.819303 0.948333 0.200046
0.940063 0.939788 0.193011
1 0.931655 0.18938
1 0.928359 0.18941
0.711055 0.972763 0.864729
0.716747 0.971283 0.867842
0.75256 0.962783 0.89424
0.792462 0.956176 0.920058
0.722362 1 0.517952
0.801404 1 0.168963
0.921538 1 0.15819
1 1 0.149874
1 1 0.154376
0 0 0.196902
0.0771038 0.0107729 0.19443
0.194186 0.0236362 0.203479
0.33669 0.019501 0.24065
0.472999 0.0294499 0.262974
0.609552 0.0392157 0.281468
0.768948 0.0509041 0.308232
0.977966 0.0664683 0.352667
1 0.0807202 0.377218
0.0113527 0.0733959 0.211612
0.0752575 0.0583352 0.233936
0.213352 0.0596475 0.218158
0.353643 0.0519417 0.237324
0.486015 0.0580758 0.250675
0.621225 0.0675517 0.265415
0.779583 0.0800946 0.28983
0.989136 0.102754 0.333974
1 0.149248 0.372122
0.0349889 0.190372 0.2383
0.0828565 0.1953 0.243168
0.245106 0.20029 0.234775
0.398245 0.193179 0.218311
0.532967 0.186557 0.203281
0.665461 0.185153 0.19617
0.81915 0.190311 0.197726
1 0.212543 0.223758
1 0.287755 0.337484
0.107622 0.332326 0.30547
0.155413 0.335393 0.309361
0.274876 0.349325 0.254261
0.420127 0.358877 0.218692
0.563699 0.367773 0.216052
0.702998 0.37705 0.215381
0.86099 0.395697 0.218494
1 0.434058 0.243534
1 0.467521 0.357961
0.284779 0.469383 0.440238
0.310582 0.469032 0.451911
0.383658 0.469993 0.485115
0.442588 0.500114 0.225757
0.583398 0.507637 0.229831
0.723598 0.519615 0.233555
0.882338 0.544961 0.239155
1 0.591714 0.262898
1 0.613993 0.372274
0.414939 0.597742 0.57377
0.426535 0.597009 0.579217
0.485695 0.592676 0.617197
0.486076 0.629404 0.334783
0.60618 0.641733 0.242023
0.739315 0.648081 0.246113
0.894377 0.674968 0.250858
1 0.726909 0.270726
1 0.740353 0.373251
0.527733 0.738598 0.678691
0.536431 0.737636 0.682719
0.5823 0.732555 0.712047
0.581003 0.757595 0.592462
0.638514 0.788663 0.252491
0.772305 0.790921 0.254673
0.904173 0.796963 0.25594
1 0.838514 0.263523
1 0.838056 0.352193
0.642481 0.894087 0.792798
0.649012 0.89279 0.796078
0.683909 0.885863 0.817761
0.730144 0.883146 0.838773
0.683131 0.948104 0.365103
0.809842 0.947768 0.242069
0.936141 0.93846 0.233814
1 0.928542 0.250629
1 0.920592 0.320119
0.69604 0.977569 0.857832
0.701152 0.976287 0.860319
0.728664 0.969421 0.877119
0.784115 0.957366 0.917433
0.730495 1 0.651514
0.788815 1 0.208042
0.914519 1 0.196216
1 1 0.198505
1 0.996826 0.284413
0 0 0.347127
0.0886091 0.00177005 0.353628
0.197314 0.0889448 0.319173
0.339147 0.0212711 0.374762
0.472328 0.028748 0.398413
0.608927 0.0385901 0.420523
0.768368 0.0503395 0.453544
0.977401 0.0658885 0.508263
1 0.0800946 0.533745
0.0120241 0.0814679 0.363958
0.0678874 0.0488746 0.393164
0.209903 0.0993362 0.354467
0.353323 0.0520027 0.387213
0.485267 0.0575265 0.402472
0.620386 0.0669108 0.419913
0.778897 0.0795605 0.450523
0.988113 0.1019 0.505089
1 0.148501 0.53843
0.0379492 0.206455 0.390356
0.0766308 0.203632 0.407324
0.235691 0.200488 0.419501
0.398947 0.18233 0.419287
0.533974 0.166491 0.409598
0.665278 0.15729 0.405875
0.816205 0.154269 0.418387
1 0.172427 0.46389
1 0.278187 0.533333
0.0652323 0.333333 0.420752
0.097734 0.337728 0.423484
0.252125 0.348867 0.442695
0.422934 0.353521 0.419394
0.577035 0.34522 0.400565
0.718105 0.333883 0.378424
0.871565 0.325841 0.360311
1 0.364385 0.415244
1 0.421332 0.508965
0.113756 0.470802 0.469947
0.146532 0.474342 0.467613
0.298375 0.483299 0.489921
0.445457 0.496025 0.435538
0.590387 0.503136 0.386969
0.737026 0.50518 0.375479
0.896559 0.51696 0.362676
1 0.554406 0.404761
1 0.58468 0.517128
0.272877 0.608484 0.551003
0.30219 0.609232 0.554452
0.419348 0.608454 0.590127
0.493294 0.622293 0.521813
0.598688 0.641855 0.373526
0.74432 0.644465 0.369238
0.903395 0.664073 0.362005
1 0.707347 0.378485
1 0.722881 0.518868
0.462837 0.75053 0.66215
0.476036 0.74966 0.665995
0.531975 0.74583 0.687175
0.609873 0.742611 0.721477
0.618692 0.788159 0.380285
0.766354 0.790005 0.358694
0.907469 0.793454 0.354345
1 0.829084 0.358557
1 0.82591 0.498787
0.599405 0.905074 0.78056
0.606851 0.903853 0.782773
0.641184 0.89868 0.796216
0.713481 0.884794 0.841154
0.69546 0.928542 0.592752
0.791074 0.946853 0.327337
0.92874 0.935622 0.315358
1 0.923369 0.345205
1 0.911147 0.465965
0.662364 0.987442 0.846082
0.667704 0.98616 0.848066
0.693675 0.980758 0.859174
0.75259 0.966354 0.896406
0.760967 0.982849 0.823407
0.763561 1 0.283879
0.900862 1 0.26923
1 1 0.278553
1 0.989471 0.428946
0 0 0.493019
0.0930953 0.000717174 0.499504
0.224903 0.00988785 0.508202
0.330037 0.12903 0.474159
0.473823 0.0281682 0.527352
0.608347 0.0379644 0.546929
0.767803 0.0497597 0.579232
0.976822 0.0652934 0.62739
1 0.0794232 0.650065
0.0118868 0.0855421 0.50985
0.0607614 0.0412757 0.532036
0.228321 0.0433051 0.532906
0.337209 0.136263 0.487617
0.485679 0.0567941 0.536645
0.619516 0.0663005 0.55201
0.77818 0.079057 0.581872
0.987411 0.10135 0.629145
1 0.147707 0.656641
0.0395972 0.217121 0.534829
0.0742199 0.208331 0.55288
0.234852 0.187045 0.58262
0.372854 0.222553 0.534936
0.531533 0.162753 0.568002
0.662821 0.155001 0.567178
0.814527 0.152758 0.583429
1 0.171084 0.622995
1 0.276951 0.66244
0.0675669 0.346303 0.559045
0.0983749 0.347036 0.565957
0.23566 0.352529 0.591745
0.408087 0.35938 0.577859
0.576776 0.336675 0.589288
0.720714 0.317968 0.57734
0.873991 0.297887 0.573938
1 0.352682 0.621012
1 0.411368 0.655573
0.0940566 0.47155 0.583078
0.123629 0.474891 0.585138
0.231983 0.488304 0.590082
0.420554 0.498756 0.590585
0.591806 0.497246 0.580865
0.748302 0.487602 0.564233
0.912764 0.473655 0.541817
1 0.512535 0.59794
1 0.543328 0.633906
0.119326 0.605875 0.610101
0.149386 0.609201 0.608759
0.252613 0.62089 0.602747
0.473045 0.621149 0.645151
0.590982 0.639933 0.559319
0.750484 0.638193 0.541711
0.91664 0.645518 0.523049
1 0.679774 0.577768
1 0.6963 0.63154
0.239384 0.76112 0.659159
0.267414 0.762387 0.658854
0.371649 0.765057 0.664515
0.557229 0.756069 0.717861
0.62858 0.77435 0.622751
0.75581 0.788312 0.51107
0.911665 0.787259 0.499443
1 0.813748 0.515465
1 0.81004 0.615824
0.468574 0.927306 0.759777
0.483345 0.926009 0.761532
0.546899 0.91928 0.773922
0.649744 0.904311 0.810437
0.719738 0.902022 0.79205
0.755703 0.946242 0.457832
0.916335 0.93167 0.437919
1 0.916259 0.465431
1 0.900496 0.591287
0.589746 1 0.830747
0.597925 1 0.832731
0.632776 0.997345 0.841978
0.697765 0.984283 0.867384
0.780133 0.965988 0.913649
0.73727 1 0.523842
0.877806 1 0.379141
1 1 0.388739
1 0.9823 0.560296
0 0 0.61088
0.0958114 0 0.616053
0.231724 0.00943008 0.622995
0.346136 0.106325 0.599542
0.462974 0.195636 0.601724
0.610315 0.0376745 0.645304
0.767468 0.0493629 0.674693
0.976242 0.064683 0.729885
1 0.0787366 0.755245
0.0116121 0.088426 0.624414
0.0561379 0.0358129 0.637247
0.229862 0.039826 0.641184
0.353201 0.12253 0.613108
0.46659 0.210346 0.605051
0.620752 0.0658885 0.651987
0.777539 0.0786145 0.679301
0.986847 0.100908 0.734035
1 0.146944 0.763302
0.0404517 0.22414 0.644862
0.0716411 0.211002 0.659922
0.225284 0.175601 0.692592
0.393423 0.185321 0.680507
0.493996 0.268055 0.629496
0.661357 0.152102 0.675502
0.812497 0.151019 0.692134
1 0.169863 0.738872
1 0.275715 0.774029
0.0692149 0.356725 0.66537
0.0987411 0.354742 0.672892
0.228107 0.35172 0.706691
0.414878 0.342107 0.717296
0.541482 0.372534 0.674128
0.717723 0.312337 0.704219
0.870176 0.293858 0.709224
1 0.348394 0.75108
1 0.409277 0.77644
0.0956893 0.482414 0.684306
0.12459 0.483879 0.688014
0.227955 0.491722 0.705074
0.412482 0.497459 0.719875
0.577234 0.499275 0.707149
0.747311 0.480018 0.710765
0.914214 0.458122 0.707576
1 0.501625 0.744915
1 0.532937 0.764614
0.118578 0.607095 0.702525
0.147875 0.609918 0.703914
0.232059 0.620584 0.707774
0.39527 0.634256 0.709682
0.59292 0.63331 0.716243
0.74992 0.630671 0.694041
0.925566 0.618967 0.677699
1 0.640421 0.713252
1 0.657008 0.736385
0.140002 0.757961 0.738872
0.170565 0.760296 0.738293
0.238148 0.768063 0.731258
0.396063 0.778958 0.722011
0.613031 0.771939 0.747906
0.735393 0.785245 0.659937
0.914778 0.778073 0.641535
1 0.791974 0.678721
1 0.78706 0.716808
0.174701 0.940917 0.794095
0.205188 0.941985 0.792004
0.298375 0.944106 0.783215
0.471931 0.937331 0.78645
0.681865 0.907454 0.845701
0.73727 0.927245 0.697139
0.891524 0.927459 0.57908
1 0.907012 0.601419
1 0.887327 0.689632
0.376654 1 0.82295
0.39321 1 0.822324
0.461814 1 0.823133
0.583581 1 0.841321
0.720897 0.984802 0.891798
0.780697 0.987991 0.821408
0.837827 1 0.516213
1 1 0.519722
1 0.975311 0.660548
0 0 0.725887
0.10164 0 0.731472
0.244175 0.00936904 0.739025
0.379004 0.0192874 0.746181
0.485969 0.261936 0.69987
0.636423 0.16585 0.749981
0.773312 0.0493477 0.772473
0.975631 0.0640421 0.830121
1 0.0780346 0.858091
0.0120546 0.0942245 0.74081
0.0528115 0.0319677 0.748135
0.237598 0.0373388 0.754849
0.382742 0.0472419 0.758221
0.490303 0.253285 0.710079
0.641001 0.18265 0.754055
0.782696 0.0787518 0.778653
0.986481 0.100786 0.836057
1 0.146212 0.866789
0.0425879 0.237308 0.762417
0.0705425 0.219623 0.775509
0.213794 0.162219 0.810727
0.401038 0.153918 0.808255
0.515999 0.264347 0.751812
0.666926 0.236957 0.775692
0.815641 0.149096 0.798154
1 0.168566 0.847379
1 0.274449 0.88011
0.0727855 0.375753 0.783917
0.101015 0.371298 0.791714
0.217899 0.356512 0.831785
0.40708 0.332021 0.849454
0.551659 0.36669 0.802563
0.710842 0.348119 0.810834
0.87071 0.288518 0.828794
1 0.343099 0.867353
1 0.407294 0.887907
0.0993668 0.506477 0.80293
0.128084 0.506325 0.807431
0.223362 0.507286 0.830671
0.402853 0.503655 0.857389
0.572641 0.497063 0.842939
0.740932 0.486519 0.834806
0.913512 0.450431 0.846891
1 0.497032 0.873457
1 0.52987 0.885496
0.121538 0.633844 0.818891
0.150805 0.635294 0.821317
0.229679 0.640925 0.831983
0.385687 0.648417 0.848707
0.571847 0.64419 0.854047
0.745434 0.625467 0.849607
0.923919 0.607645 0.841245
1 0.628412 0.862196
1 0.646052 0.868681
0.138781 0.761837 0.835813
0.169406 0.763821 0.83682
0.235645 0.770321 0.839048
0.368978 0.780911 0.840543
0.541207 0.786297 0.8365
0.732113 0.777569 0.836439
0.909209 0.76585 0.808652
1 0.762264 0.823743
1 0.759228 0.83331
0.15021 0.937789 0.891005
0.183536 0.938796 0.890135
0.236408 0.942153 0.884413
0.342031 0.947295 0.869352
0.502831 0.94435 0.847959
0.724407 0.915526 0.865843
0.847135 0.922103 0.734112
1 0.895094 0.757122
1 0.871763 0.80264
0.138689 1 0.901289
0.172839 1 0.897948
0.216938 1 0.885725
0.330388 1 0.861006
0.546242 1 0.862531
0.766293 0.981292 0.933974
0.789761 1 0.689479
0.981414 0.997208 0.6589
1 0.967254 0.771099
0 0 0.874449
0.114412 0 0.880949
0.268894 0.00988785 0.889174
0.415091 0.0209964 0.897139
0.561151 0.0523232 0.907485
0.634653 0.451347 0.806043
0.833661 0.0953994 0.915099
0.979583 0.0637522 0.931395
1 0.077409 0.958328
0.0131685 0.10605 0.891371
0.0512398 0.0299382 0.893126
0.256703 0.0362097 0.90193
0.415412 0.0483253 0.907973
0.561959 0.0613565 0.914076
0.635767 0.451072 0.808911
0.840665 0.123949 0.920577
0.990631 0.104479 0.938598
1 0.145693 0.96817
0.0473793 0.263188 0.915526
0.072221 0.240574 0.92549
0.201801 0.148165 0.956039
0.416297 0.140398 0.956664
0.580407 0.141543 0.951675
0.648402 0.456138 0.82771
0.863737 0.184176 0.939101
1 0.179583 0.955154
1 0.273167 0.98323
0.0796368 0.412284 0.93843
0.1066 0.405112 0.945251
0.206363 0.373861 0.986191
0.395666 0.317769 1
0.599985 0.299702 1
0.684352 0.478157 0.878767
0.90544 0.305882 0.972198
1 0.344839 0.9794
1 0.405356 0.994385
0.1066 0.552865 0.957717
0.135149 0.551003 0.962219
0.218723 0.542611 0.987305
0.386954 0.520775 1
0.577752 0.476951 1
0.736706 0.509636 0.974441
0.938323 0.453696 1
1 0.49572 0.992325
1 0.526925 0.997879
0.127474 0.689509 0.972778
0.157488 0.689509 0.975555
0.227573 0.688441 0.989059
0.371008 0.684611 1
0.5552 0.663905 1
0.722972 0.634073 1
0.934737 0.604456 1
1 0.62414 0.99649
1 0.641306 0.991852
0.141207 0.81706 0.982849
0.172732 0.817761 0.984298
0.232654 0.819608 0.989944
0.355276 0.822705 1
0.518349 0.818601 1
0.704234 0.796506 1
0.879561 0.766506 0.988556
1 0.750729 0.984924
1 0.750179 0.968063
0.147311 0.938155 0.990768
0.180575 0.938598 0.990814
0.232105 0.941115 0.99089
0.335119 0.943511 0.988846
0.470726 0.941573 0.981125
0.632975 0.930526 0.966003
0.853605 0.895994 0.978256
1 0.881117 0.936294
1 0.866575 0.941955
0.13344 1 0.998611
0.16759 1 0.996399
0.21088 1 0.9897
0.296345 1 0.974899
0.412253 1 0.949004
0.582727 1 0.924666
0.836683 0.979324 0.963363
0.977401 0.981979 0.847517
1 0.957031 0.913741
0 0 0.993637
0.1178 0 1
0.276631 0.00914015 1
0.427115 0.0211032 1
0.572778 0.0323339 1
0.696666 0.220188 0.982681
0.788418 0.520409 0.933577
1 0.0648356 1
1 0.0768597 1
0.0132753 0.109926 1
0.0501411 0.0285801 1
0.262516 0.0353704 1
0.425834 0.0484321 1
0.57641 0.0607919 1
0.700679 0.237537 0.989181
0.788373 0.52314 0.934371
1 0.126665 1
1 0.144793 1
0.0483558 0.271519 1
0.0721904 0.246784 1
0.192645 0.137591 1
0.416938 0.1308 1
0.588113 0.135912 1
0.72163 0.273655 1
0.794171 0.537209 0.942977
1 0.248631 1
1 0.271824 1
0.0810254 0.424094 1
0.107897 0.415625 1
0.197711 0.375296 1
0.391409 0.316426 1
0.597681 0.296086 1
0.764309 0.333196 1
0.807782 0.570748 0.961334
1 0.381628 1
1 0.403281 1
0.107836 0.56791 1
0.136645 0.564782 1
0.214237 0.551095 1
0.384909 0.523064 1
0.570077 0.476783 1
0.773281 0.455283 1
0.818372 0.630274 0.979767
1 0.503914 1
1 0.523995 1
0.127764 0.706783 1
0.157946 0.705669 1
0.224155 0.700862 1
0.362722 0.68983 1
0.552346 0.663035 1
0.730587 0.614099 1
0.852674 0.676722 1
1 0.619776 1
1 0.636332 1
0.139834 0.835462 1
0.171817 0.835126 1
0.229129 0.834073 1
0.346792 0.831205 1
0.508721 0.818952 1
0.696605 0.788693 1
0.862974 0.76202 1
1 0.739986 1
1 0.742458 1
0.142885 0.952636 1
0.17644 0.952255 1
0.225788 0.951385 1
0.324636 0.948379 1
0.457176 0.939284 1
0.620218 0.91928 1
0.818662 0.888289 1
1 0.869123 1
1 0.85951 1
0.128191 1 1
0.162188 1 1
0.204913 1 1
0.288899 1 1
0.402884 1 1
0.544533 1 1
0.739101 0.998703 1
0.967071 0.968414 1
1 0.948806 1
