src/avatar/assets/lut/Apple_prores_422_6.A002_02161207_C015.cube
TITLE "Generated by Resolve"
LUT_3D_SIZE 9
0 0 0
0.0193179 0 0
0.290806 0 0
0.614145 0 0
0.961898 0 0
1 0 0
1 0 0
1 0 0
1 0 0
0 0 0
0 0 0
0.168109 0 0
0.570397 0 0
0.91664 0 0
1 0 0
1 0 0
1 0 0
1 0 0
0 0.137957 0
0.0262303 0.15227 0
0.160494 0.163455 0
0.329183 0.169696 0
0.736034 0.130282 0
1 0.0873884 0
1 0.0643931 0
1 0.0602121 0
1 0.0657206 0
0 0.30515 0
0.0525826 0.323308 0
0.190768 0.33814 0
0.348318 0.348684 0
0.513603 0.357733 0
0.737835 0.358679 0
1 0.338201 0
1 0.32369 0
1 0.316472 0
0 0.483955 0
0.0830091 0.503166 0
0.215122 0.518196 0
0.37528 0.523873 0.00163272
0.531762 0.527581 0.00608835
0.672328 0.533944 0.0091249
0.804929 0.543175 0
0.932357 0.554116 0
1 0.560861 0
0.000686656 0.651957 0
0.11426 0.666224 0.0100404
0.238788 0.676539 0.0214389
0.395819 0.677089 0.0232548
0.55021 0.676478 0.023743
0.686778 0.678874 0.0269932
0.802762 0.684977 0.032639
0.896712 0.695506 0.0362707
0.981094 0.707576 0.0334173
0.0376287 0.796475 0.0304723
0.147112 0.807248 0.042298
0.266712 0.813931 0.0501564
0.418845 0.8103 0.0479896
0.570367 0.804578 0.0436408
0.703029 0.802121 0.0422827
0.814038 0.803006 0.044007
0.900862 0.808469 0.0498054
0.974136 0.815763 0.0555123
0.0801862 0.919127 0.0718242
0.184833 0.925322 0.0791638
0.299031 0.927169 0.0822766
0.444877 0.918898 0.0756237
0.592905 0.907759 0.0660563
0.720958 0.900069 0.0596475
0.827634 0.8963 0.0568551
0.91017 0.897292 0.0585489
0.979232 0.900603 0.0623331
0.116518 1 0.107149
0.216373 1 0.10956
0.325475 1 0.108064
0.464057 1 0.0978866
0.6103 0.990707 0.0835584
0.735088 0.979126 0.0734112
0.838437 0.971771 0.0671702
0.918181 0.969818 0.0660105
0.984817 0.97055 0.0673686
0 0 0
0.00257877 0 0.0406348
0.28893 0 0.0220188
0.615137 0 0
0.960845 0 0
1 0 0
1 0 0
1 0 0
1 0 0
0 0 0
0 0 0
0.24596 0 0
0.568444 0 0
0.903746 0 0
1 0 0
1 0 0
1 0 0
1 0 0
0 0.138796 0.0241703
0.0264134 0.153063 0.0386511
0.161227 0.164385 0.0500496
0.43949 0.15024 0
0.835355 0.0992599 0
1 0.0687572 0
1 0.0516213 0
1 0.0492866 0
1 0.0546578 0
0 0.306798 0.0468605
0.0542306 0.325338 0.0660563
0.19292 0.340566 0.0819867
0.350896 0.351186 0.0928664
0.526558 0.358297 0.069688
0.872084 0.334066 0
1 0.302296 0
1 0.287373 0
1 0.282551 0
0 0.486305 0.0759289
0.084947 0.505425 0.0959487
0.216251 0.519783 0.111238
0.375937 0.524636 0.116915
0.53196 0.527687 0.120439
0.673869 0.53373 0.119158
0.820676 0.540581 0.0791791
1 0.54107 0
1 0.536553 0
0.00109865 0.652766 0.109621
0.114275 0.66656 0.124331
0.238422 0.676555 0.135332
0.395132 0.676707 0.136599
0.549355 0.675593 0.136385
0.685588 0.677501 0.138949
0.801434 0.683116 0.143069
0.897215 0.692943 0.141146
0.986618 0.703731 0.128725
0.0365148 0.795758 0.143328
0.145586 0.806088 0.15462
0.264652 0.812299 0.161913
0.416266 0.808377 0.159289
0.567788 0.802075 0.154177
0.699855 0.798825 0.151827
0.810651 0.799344 0.153033
0.897108 0.804273 0.158053
0.970352 0.811093 0.162005
0.0775464 0.916915 0.183001
0.181811 0.922713 0.189807
0.295354 0.92401 0.192248
0.440116 0.915343 0.185016
0.588434 0.903502 0.174517
0.716258 0.895308 0.167376
0.82266 0.891096 0.163943
0.90486 0.891646 0.165072
0.973663 0.894621 0.168368
0.112154 1 0.216876
0.211521 1 0.218616
0.320089 1 0.21651
0.457374 1 0.205554
0.604456 0.985122 0.190356
0.729076 0.973098 0.179538
0.832502 0.965637 0.172992
0.911955 0.963256 0.171298
0.978485 0.963821 0.172412
0 0 0.0591287
0 0 0.2972
0.262913 0 0.323323
0.59144 0 0.290044
0.952422 0 0.270039
1 0 0.233265
1 0 0.206973
1 0 0.198627
1 0 0.201724
0 0 0.0950179
0 0 0.133623
0.230457 0 0.286107
0.547265 0 0.240284
0.868406 0 0.180545
1 0 0.158709
1 0 0.143709
1 0 0.141543
1 0 0.148684
0 0.138369 0.156481
0.0241855 0.152911 0.171099
0.160555 0.164202 0.183185
0.482322 0.125093 0.169924
0.822507 0.084596 0.128191
1 0.0547646 0.0971695
1 0.0378271 0.0796063
1 0.0348516 0.076936
1 0.0397345 0.0826886
0 0.307561 0.180438
0.0542 0.326467 0.199756
0.193393 0.341726 0.215595
0.351629 0.351888 0.22591
0.641825 0.337179 0.0810407
1 0.294316 0
1 0.271412 0
1 0.262852 0
1 0.261799 0
0 0.487556 0.207568
0.0846876 0.505989 0.22623
0.215656 0.519997 0.240299
0.375341 0.524117 0.244312
0.53109 0.526726 0.246494
0.679225 0.531823 0.231708
0.909987 0.523888 0.0855879
1 0.506813 0
1 0.494972 0
0 0.651972 0.235721
0.11249 0.665461 0.249805
0.236316 0.675135 0.26009
0.392828 0.674876 0.260456
0.547051 0.673259 0.25922
0.682963 0.674678 0.260838
0.799374 0.679942 0.262074
0.901183 0.688533 0.247883
1 0.69601 0.21297
0.0341192 0.79411 0.267247
0.142809 0.803967 0.27776
0.261402 0.80972 0.28426
0.412177 0.805188 0.280659
0.563973 0.798367 0.274662
0.695674 0.794507 0.271382
0.806058 0.794446 0.271763
0.89221 0.798871 0.275715
0.966079 0.805188 0.276509
0.0734875 0.913588 0.304677
0.17705 0.918654 0.31046
0.290257 0.919631 0.312291
0.433631 0.910689 0.304417
0.582712 0.898024 0.292821
0.710353 0.889342 0.284916
0.816495 0.884688 0.280873
0.898497 0.884901 0.281544
0.966949 0.887449 0.284215
0.10631 1 0.336507
0.205249 1 0.337514
0.313329 1 0.334722
0.449607 0.995163 0.323262
0.597406 0.978424 0.307332
0.721889 0.965881 0.295766
0.825254 0.958144 0.288762
0.904784 0.955734 0.286915
0.971023 0.955932 0.287587
0 0 0.236088
0 0 0.458244
0.238651 0 0.690959
0.577356 0 0.673075
0.932265 0 0.647105
1 0 0.616678
1 0 0.592218
1 0 0.573693
1 0 0.56466
0 0 0.266285
0 0 0.31162
0.189288 0 0.587594
0.531243 0 0.622293
0.867369 0 0.5785
1 0 0.539223
1 0 0.490349
1 0 0.473838
1 0 0.472007
0 0.134981 0.313848
0.0184329 0.14992 0.330282
0.155138 0.159731 0.362631
0.46215 0.105379 0.549874
0.802884 0.0650339 0.509697
1 0 0.420493
1 0 0.400641
1 0 0.412787
1 0 0.432166
0 0.30547 0.338369
0.0498512 0.324804 0.357946
0.188952 0.340291 0.373678
0.349035 0.349447 0.388403
0.680674 0.296773 0.381842
0.992386 0.27129 0.356954
1 0.248951 0.335012
1 0.239826 0.326375
1 0.238468 0.325567
0 0.485252 0.36762
0.0801251 0.503456 0.386221
0.210178 0.516732 0.4
0.370108 0.519554 0.403708
0.526085 0.521614 0.406546
0.786206 0.505089 0.271214
1 0.469123 0.181353
1 0.454612 0.163149
1 0.448981 0.158038
0 0.647715 0.396857
0.106218 0.660853 0.410513
0.229648 0.67013 0.420447
0.38613 0.669322 0.420569
0.540734 0.666972 0.419028
0.676402 0.667842 0.42002
0.798184 0.671885 0.408011
0.956771 0.670878 0.316564
1 0.658518 0.195285
0.0266423 0.788159 0.427222
0.134981 0.797589 0.437201
0.253239 0.803021 0.443259
0.403235 0.798077 0.439078
0.555581 0.790219 0.431632
0.687373 0.786007 0.426993
0.797543 0.785534 0.42501
0.883894 0.789502 0.425849
0.962234 0.794934 0.415885
0.0646372 0.906172 0.462898
0.167697 0.910674 0.467872
0.280339 0.911131 0.468833
0.421805 0.902159 0.460243
0.572778 0.888563 0.446128
0.700572 0.879469 0.435676
0.806592 0.874434 0.430381
0.888502 0.874418 0.430335
0.956725 0.876539 0.431769
0.0957198 1 0.492332
0.194278 1 0.492622
0.301946 0.997772 0.48893
0.4374 0.984985 0.47599
0.586206 0.967819 0.456992
0.710979 0.954955 0.444099
0.814389 0.94696 0.436316
0.893919 0.944381 0.433921
0.960281 0.94461 0.434348
0 0 0.408927
0 0 0.607553
0.190356 0 0.943206
0.568414 0 1
0.91458 0 1
1 0 0.980468
1 0 0.959197
1 0 0.95198
1 0 0.954192
0 0 0.427558
0 0 0.484016
0.149737 0 0.74374
0.508888 0 0.980331
0.847837 0 0.941482
1 0 0.909072
1 0 0.890196
1 0 0.886839
1 0 0.887236
0 0.13193 0.467567
0.0134585 0.146792 0.485863
0.150179 0.155474 0.536126
0.427878 0.0960708 0.866072
0.784512 0.0467536 0.874067
1 0.0169833 0.844465
1 0 0.826917
1 0 0.805768
1 0 0.771038
0 0.304128 0.491524
0.0462501 0.323735 0.511788
0.184588 0.339055 0.52871
0.344915 0.345464 0.564019
0.669505 0.285313 0.755474
0.973281 0.251331 0.722683
1 0.158526 0.630732
1 0.114168 0.586938
1 0.111284 0.584573
0 0.483757 0.51957
0.0754101 0.501259 0.537423
0.204456 0.514046 0.550698
0.364446 0.51632 0.55375
0.522499 0.51603 0.569375
0.785382 0.433295 0.530282
1 0.445304 0.543465
1 0.43183 0.53077
1 0.425696 0.525261
0 0.644129 0.546761
0.0999771 0.656809 0.559899
0.222843 0.665766 0.569467
0.379095 0.664454 0.569085
0.534615 0.661326 0.567208
0.670436 0.661631 0.568566
0.897597 0.644587 0.447898
1 0.619486 0.387854
1 0.606867 0.372824
0.0198825 0.783307 0.576226
0.127642 0.792187 0.585748
0.245075 0.796948 0.591287
0.39411 0.791821 0.587335
0.547555 0.782849 0.579843
0.679286 0.777798 0.576013
0.788998 0.776593 0.575402
0.879545 0.779629 0.566644
1 0.777218 0.493736
0.0559854 0.899336 0.610239
0.158648 0.903456 0.615106
0.270604 0.903334 0.615915
0.410803 0.89398 0.607874
0.562722 0.879377 0.594812
0.690532 0.86949 0.58616
0.796338 0.863874 0.581231
0.878004 0.863447 0.581155
0.9467 0.865278 0.580316
0.0854963 0.993515 0.638544
0.183581 0.992874 0.638758
0.2907 0.988357 0.635264
0.425284 0.975662 0.623514
0.574533 0.957168 0.606592
0.699687 0.943816 0.59443
0.803128 0.935424 0.586725
0.882628 0.932631 0.584253
0.948928 0.932708 0.584482
0 0 0.558633
0 0 0.745068
0.15523 0 1
0.548516 0 1
0.900359 0 1
1 0 1
1 0 1
1 0 1
1 0 1
0 0 0.567788
0 0 0.634226
0.132525 0 0.87155
0.470893 0 1
0.8327 0 1
1 0 1
1 0 1
1 0 1
1 0 1
0 0.130968 0.602716
0.0116274 0.146136 0.62327
0.148257 0.154055 0.687755
0.389471 0.104952 1
0.770855 0.0332799 1
1 0.00329595 1
1 0 1
1 0 1
1 0 1
0 0.304829 0.626291
0.0451667 0.324315 0.647211
0.183032 0.339666 0.665797
0.343496 0.344121 0.716869
0.64596 0.275425 1
0.958297 0.235676 1
1 0.211887 1
1 0.201999 1
1 0.198276 1
0 0.48394 0.652461
0.0731212 0.50106 0.670161
0.201099 0.513176 0.683192
0.360754 0.514778 0.686992
0.518044 0.512367 0.718791
0.808148 0.455421 0.884688
1 0.427497 0.858213
1 0.368231 0.799847
1 0.281331 0.713573
0 0.642573 0.677241
0.0961471 0.655085 0.690257
0.218357 0.663676 0.699489
0.373938 0.661952 0.698772
0.529458 0.658122 0.696117
0.669718 0.653742 0.72163
0.853269 0.549279 0.648005
1 0.592966 0.692699
1 0.586252 0.686748
0.015198 0.780514 0.705211
0.122377 0.788922 0.714229
0.239139 0.79321 0.719249
0.385962 0.787717 0.714855
0.541009 0.777905 0.706294
0.673213 0.772 0.701686
0.782864 0.770138 0.70074
0.963455 0.754742 0.603159
1 0.733257 0.560372
0.0496071 0.894774 0.737133
0.151644 0.898375 0.741451
0.262913 0.897765 0.741772
0.402045 0.888029 0.733394
0.554528 0.872709 0.719676
0.68278 0.86215 0.710704
0.788647 0.855985 0.705776
0.8701 0.855177 0.705577
0.944884 0.856107 0.692699
0.0773327 0.987106 0.763455
0.175006 0.986114 0.763409
0.28159 0.981216 0.759609
0.415457 0.968261 0.747738
0.565087 0.949248 0.730526
0.690959 0.935561 0.718502
0.794476 0.926619 0.710887
0.87396 0.923598 0.708598
0.9402 0.923506 0.70898
0 0 0.677409
0 0 0.858305
0.143297 0 1
0.523857 0 1
0.892073 0 1
1 0 1
1 0 1
1 0 1
1 0 1
0 0 0.679561
0 0 0.753033
0.126619 0 0.976883
0.440772 0 1
0.823819 0 1
1 0 1
1 0 1
1 0 1
1 0 1
0 0.132952 0.709972
0.013611 0.14876 0.732876
0.15024 0.156268 0.807691
0.372137 0.115007 1
0.755322 0.0304112 1
1 0 1
1 0 1
1 0 1
1 0 1
0 0.308522 0.733516
0.0481422 0.328222 0.755261
0.185138 0.343069 0.774731
0.34522 0.345876 0.836805
0.616907 0.282658 1
0.949493 0.226505 1
1 0.202197 1
1 0.191745 1
1 0.189181 1
0 0.487068 0.7579
0.0740215 0.503365 0.775082
0.201144 0.514763 0.787945
0.360708 0.515938 0.792813
0.517754 0.512093 0.837034
0.793729 0.447257 1
1 0.416449 1
1 0.401862 1
1 0.394705 1
0 0.644114 0.780346
0.0957504 0.656245 0.793088
0.217365 0.664424 0.80209
0.372274 0.662257 0.801373
0.527581 0.65774 0.799237
0.664637 0.652857 0.832059
0.908904 0.604318 0.958007
1 0.58471 0.93962
1 0.529259 0.885039
0.01355 0.780362 0.806165
0.12015 0.788296 0.81474
0.236469 0.792325 0.819577
0.381949 0.786496 0.814969
0.537179 0.775921 0.805753
0.669154 0.769406 0.800473
0.790127 0.760082 0.833082
0.918105 0.676356 0.757565
1 0.710109 0.792401
0.0464179 0.893111 0.836362
0.147814 0.896147 0.840192
0.258442 0.895064 0.84007
0.396567 0.884871 0.831235
0.549126 0.869108 0.816968
0.677485 0.85803 0.807218
0.783825 0.85127 0.801678
0.865446 0.850065 0.800641
1 0.832334 0.717128
0.0726329 0.983856 0.860975
0.16968 0.982345 0.86041
0.275715 0.97705 0.856229
0.40914 0.964034 0.844312
0.558618 0.944488 0.826474
0.68481 0.930404 0.813947
0.788983 0.921309 0.806302
0.868513 0.917891 0.803891
0.934646 0.917617 0.804089
0 0 0.768688
0 0 0.947936
0.14461 0 1
0.506615 0 1
0.887922 0 1
1 0 1
1 0 1
1 0 1
1 0 1
0 0 0.766018
0 0 0.843961
0.127443 0 1
0.423804 0 1
0.814389 0 1
1 0 1
1 0 1
1 0 1
1 0 1
0 0.138186 0.793164
0.0185702 0.154025 0.817624
0.155398 0.161349 0.899962
0.36733 0.12491 1
0.740185 0.0373846 1
1 0 1
1 0 1
1 0 1
1 0 1
0 0.315145 0.817014
0.0538796 0.334386 0.838865
0.19089 0.349081 0.859312
0.350042 0.350652 0.929107
0.601205 0.292592 1
0.944289 0.223178 1
1 0.197848 1
1 0.187137 1
1 0.184207 1
0 0.492561 0.83946
0.0781567 0.508309 0.856367
0.204623 0.519081 0.869078
0.363928 0.519799 0.874739
0.520394 0.514717 0.927428
0.774121 0.45211 1
1 0.410864 1
1 0.395727 1
1 0.388052 1
0 0.647837 0.859556
0.0980087 0.659571 0.872038
0.21912 0.667323 0.880827
0.373404 0.664652 0.880156
0.528466 0.659464 0.878599
0.664973 0.653468 0.919875
0.900694 0.597574 1
1 0.576715 1
1 0.563668 1
0.0149844 0.78294 0.883818
0.121035 0.790356 0.891951
0.236484 0.793637 0.896132
0.381247 0.787533 0.891417
0.536171 0.776287 0.88191
0.667811 0.769146 0.876936
0.779965 0.761395 0.911955
0.96701 0.724743 0.994705
1 0.707073 0.978149
0.0460212 0.893904 0.911894
0.146731 0.896315 0.915114
0.256641 0.894652 0.914443
0.394324 0.884382 0.905608
0.546517 0.868009 0.890806
0.674617 0.856474 0.880644
0.781033 0.849515 0.874846
0.878782 0.839734 0.904601
0.981231 0.773571 0.839811
0.0705425 0.98291 0.934569
0.167193 0.981048 0.933684
0.27274 0.975402 0.929168
0.40557 0.962112 0.917021
0.554894 0.94229 0.898909
0.681132 0.927916 0.885985
0.785519 0.918593 0.877852
0.865614 0.915007 0.875227
0.932677 0.914626 0.87364
0 0 0.849805
0 0 1
0.14493 0 1
0.492592 0 1
0.881285 0 1
1 0 1
1 0 1
1 0 1
1 0 1
0 0 0.843
0 0 0.924041
0.130632 0 1
0.413046 0 1
0.803647 0 1
1 0 1
1 0 1
1 0 1
1 0 1
0 0.14461 0.867185
0.0251316 0.160784 0.893248
0.162264 0.167987 0.981674
0.367605 0.134951 1
0.727184 0.0470741 1
1 0 1
1 0 1
1 0 1
1 0 1
0 0.32253 0.890639
0.0611276 0.341863 0.913039
0.197635 0.355764 0.933745
0.355749 0.356268 1
0.592706 0.302708 1
0.934813 0.225864 1
1 0.195743 1
1 0.184649 1
1 0.181292 1
0 0.498894 0.911376
0.0829328 0.513649 0.927581
0.208957 0.523995 0.940307
0.36791 0.524254 0.946639
0.523781 0.51809 1
0.75848 0.4598 1
1 0.407095 1
1 0.391394 1
1 0.383383 1
0 0.65272 0.92958
0.10161 0.664027 0.941772
0.222217 0.671305 0.950347
0.375891 0.668132 0.949706
0.530617 0.662211 0.948684
0.66627 0.65478 0.996796
0.884184 0.599252 1
1 0.570672 1
1 0.557122 1
0.0173953 0.786313 0.952026
0.122896 0.793194 0.959731
0.237705 0.795941 0.963531
0.381689 0.789303 0.958618
0.536141 0.77734 0.948974
0.667353 0.769406 0.944839
0.778454 0.761151 0.985443
0.958724 0.717632 1
1 0.698955 1
0.0465553 0.89546 0.97818
0.146578 0.8972 0.980835
0.25597 0.895155 0.979904
0.392935 0.884459 0.970825
0.544869 0.867674 0.955901
0.672679 0.855665 0.946105
0.778943 0.848249 0.940826
0.864775 0.840528 0.981872
1 0.81001 1
0.0694285 0.982803 0.999207
0.165621 0.98056 0.997986
0.27071 0.974578 0.993225
0.403006 0.961028 0.980926
0.552346 0.941131 0.962844
0.678325 0.926314 0.949996
0.782666 0.916793 0.941695
0.862837 0.913039 0.938903
0.948119 0.903853 0.969696
