src/avatar/assets/lut/Apple_prores_422_6.A002_02161207_C015.cube
TITLE "Generated by Resolve"
LUT_3D_SIZE 33
0 0 0
0 0 0
0 0 0
0 0 0
0.0193179 0 0
0.0876326 0 0
0.153628 0 0
0.220203 0 0
0.290806 0 0
0.365621 0 0
0.444648 0 0
0.527245 0 0
0.614145 0 0
0.702266 0 0
0.790417 0 0
0.877256 0 0
0.961898 0 0
1 0 0
1 0 0
1 0 0
1 0 0
1 0 0
1 0 0
1 0 0
1 0 0
1 0 0
1 0 0
1 0 0
1 0 0
1 0 0
1 0 0
1 0 0
1 0 0
0 0 0
0 0 0
0 0 0
0 0 0
0 0 0
0.0671244 0 0
0.134936 0 0
0.20325 0 0
0.274983 0 0
0.350896 0 0
0.431373 0 0
0.515724 0 0
0.605035 0 0
0.69778 0 0
0.792477 0 0
0.879957 0 0
0.962448 0 0
1 0 0
1 0 0
1 0 0
1 0 0
1 0 0
1 0 0
1 0 0
1 0 0
1 0 0
1 0 0
1 0 0
1 0 0
1 0 0
1 0 0
1 0 0
1 0 0
0 0 0
0 0 0
0 0 0
0 0 0
0 0 0
0.0055848 0 0
0.0946059 0 0
0.179004 0 0
0.260655 0 0
0.341985 0 0
0.429953 0 0
0.518273 0 0
0.607584 0 0
0.696391 0 0
0.783902 0 0
0.868421 0 0
0.949081 0 0
1 0 0
1 0 0
1 0 0
1 0 0
1 0 0
1 0 0
1 0 0
1 0 0
1 0 0
1 0 0
1 0 0
1 0 0
1 0 0
1 0 0
1 0 0
1 0 0
0 0 0
0 0 0
0 0 0
0 0 0
0 0 0
0 0 0
0.0356146 0 0
0.131655 0 0
0.230762 0 0
0.32578 0 0
0.418189 0 0
0.507561 0 0
0.595666 0 0
0.682734 0 0
0.769329 0 0
0.852827 0 0
0.932845 0 0
1 0 0
1 0 0
1 0 0
1 0 0
1 0 0
1 0 0
1 0 0
1 0 0
1 0 0
1 0 0
1 0 0
1 0 0
1 0 0
1 0 0
1 0 0
1 0 0
0 0 0
0 0 0
0 0 0
0 0 0
0 0 0
0.00993362 0 0
0.0462654 0 0
0.0903182 0.00103761 0
0.168109 0 0
0.267094 0 0
0.370642 0 0
0.471839 0 0
0.570397 0 0
0.664225 0 0
0.75314 0 0
0.836835 0 0
0.91664 0 0
0.993912 0 0
1 0 0
1 0 0
1 0 0
1 0 0
1 0 0
1 0 0
1 0 0
1 0 0
1 0 0
1 0 0
1 0 0
1 0 0
1 0 0
1 0 0
1 0 0
0 0.00570687 0
0 0.0148775 0
0 0.0218967 0
0 0.0277714 0
0 0.032517 0
0.028397 0.0361028 0
0.0614939 0.0397955 0
0.0955978 0.043183 0
0.136385 0.0453956 0
0.203021 0.043183 0
0.302586 0.0336004 0
0.412253 0.0199741 0
0.521889 0.00479133 0
0.625742 0 0
0.723751 0 0
0.814786 0 0
0.898787 0 0
0.977859 0 0
1 0 0
1 0 0
1 0 0
1 0 0
1 0 0
1 0 0
1 0 0
1 0 0
1 0 0
1 0 0
1 0 0
1 0 0
1 0 0
1 0 0
1 0 0
0 0.0556649 0
0 0.0606394 0
0 0.0652934 0
0 0.0696117 0
0.00703441 0.0734417 0
0.0411536 0.0763867 0
0.0739147 0.0793622 0
0.106676 0.0822614 0
0.141268 0.0848554 0
0.181857 0.0865644 0
0.241154 0.0852216 0
0.337881 0.0766918 0
0.451652 0.0629587 0
0.566003 0.0475166 0
0.67451 0.0325475 0
0.774823 0.0189212 0
0.86688 0.00689708 0
0.952895 0 0
1 0 0
1 0 0
1 0 0
1 0 0
1 0 0
1 0 0
1 0 0
1 0 0
1 0 0
1 0 0
1 0 0
1 0 0
1 0 0
1 0 0
1 0 0
0 0.0976883 0
0 0.101671 0
0 0.105608 0
0 0.109377 0
0.0176547 0.112688 0
0.0507668 0.11577 0
0.0843214 0.118318 0
0.11722 0.12105 0
0.15111 0.123583 0
0.18703 0.125841 0
0.228702 0.127337 0
0.283696 0.126726 0
0.375402 0.119768 0
0.487861 0.107439 0
0.603082 0.0929732 0
0.712505 0.0787213 0
0.81355 0.0657969 0
0.907683 0.0541543 0
0.997162 0.0437781 0
1 0.0342107 0
1 0.0258335 0
1 0.0187533 0
1 0.0133059 0
1 0.00889601 0
1 0.00590524 0
1 0.00408942 0
1 0.00325017 0
1 0.00315862 0
1 0.00383001 0
1 0.005066 0
1 0.00657664 0
1 0.00831617 0
1 0.0102998 0
0 0.137957 0
0 0.141604 0
0 0.145357 0
0 0.148974 0
0.0262303 0.15227 0
0.0584726 0.155444 0
0.0928359 0.158022 0
0.126238 0.160784 0
0.160494 0.163455 0
0.196109 0.165911 0
0.233982 0.168078 0
0.276814 0.169635 0
0.329183 0.169696 0
0.410681 0.165164 0
0.516808 0.15523 0
0.628214 0.142885 0
0.736034 0.130282 0
0.838178 0.118257 0
0.935393 0.106889 0
1 0.0965286 0
1 0.0873884 0
1 0.0795148 0
1 0.0731212 0
1 0.0680705 0
1 0.0643931 0
1 0.0619669 0
1 0.0606088 0
1 0.0601053 0
1 0.0602121 0
1 0.0611276 0
1 0.0624247 0
1 0.0639506 0
1 0.0657206 0
0 0.178103 0
0 0.181735 0
0 0.18558 0
0.00315862 0.189288 0
0.0336004 0.192813 0
0.065568 0.196277 0
0.100069 0.199115 0
0.134478 0.202075 0
0.169284 0.204959 0
0.205325 0.207645 0
0.243 0.21004 0
0.282673 0.212161 0
0.326436 0.213794 0
0.376944 0.214511 0
0.444862 0.212619 0
0.538659 0.206027 0
0.642741 0.196551 0
0.74696 0.186038 0
0.850034 0.175036 0
0.948455 0.164431 0
1 0.154574 0
1 0.145708 0
1 0.13846 0
1 0.132586 0
1 0.127993 0
1 0.124697 0
1 0.122499 0
1 0.121172 0
1 0.120714 0
1 0.120897 0
1 0.121447 0
1 0.12221 0
1 0.123033 0
0 0.219135 0
0 0.222965 0
0 0.227085 0
0.00949111 0.231083 0
0.0402686 0.234928 0
0.0720073 0.238621 0
0.105425 0.241993 0
0.141482 0.24477 0
0.17705 0.247944 0
0.213519 0.250751 0
0.251545 0.253315 0
0.291081 0.255634 0
0.332219 0.257725 0
0.37583 0.259648 0
0.423972 0.261067 0
0.479667 0.261402 0
0.556329 0.258549 0
0.648539 0.252415 0
0.748531 0.243961 0
0.848005 0.234714 0
0.944915 0.225284 0
1 0.216342 0
1 0.208499 0
1 0.201892 0
1 0.196399 0
1 0.191989 0
1 0.188937 0
1 0.186755 0
1 0.185458 0
1 0.184741 0
1 0.184421 0
1 0.184298 0
1 0.18439 0
0 0.261524 0
0 0.265644 0
0 0.2701 0
0.0155032 0.274372 0
0.0464027 0.278538 0
0.0781567 0.282567 0
0.111192 0.286351 0
0.147753 0.289326 0
0.184085 0.292485 0
0.22118 0.295521 0
0.259678 0.298299 0
0.299565 0.300786 0
0.34052 0.303044 0
0.382101 0.305211 0
0.424628 0.307393 0
0.469932 0.309438 0
0.518517 0.31104 0
0.576776 0.311025 0
0.653727 0.307927 0
0.742336 0.302373 0
0.835264 0.295232 0
0.926604 0.287633 0
1 0.280186 0
1 0.273503 0
1 0.267689 0
1 0.262898 0
1 0.259129 0
1 0.256199 0
1 0.254093 0
1 0.252415 0
1 0.251057 0
1 0.250172 0
1 0.249256 0
0 0.30515 0
0 0.309575 0
0 0.314321 0
0.0215457 0.318853 0
0.0525826 0.323308 0
0.0843519 0.327672 0
0.117281 0.331777 0
0.15285 0.335286 0
0.190768 0.33814 0
0.228489 0.341329 0
0.267094 0.343908 0
0.30721 0.346426 0
0.348318 0.348684 0
0.389685 0.350774 0
0.430549 0.352941 0
0.471626 0.355291 0
0.513603 0.357733 0
0.558053 0.359854 0
0.605966 0.361318 0
0.665232 0.361181 0
0.737835 0.358679 0
0.817975 0.354208 0
0.900359 0.348699 0
0.98085 0.343236 0
1 0.338201 0
1 0.333532 0
1 0.329625 0
1 0.326314 0
1 0.32369 0
1 0.321386 0
1 0.319478 0
1 0.317845 0
1 0.316472 0
0 0.349401 0
0 0.354116 0
0 0.359152 0
0.0278172 0.363897 0
0.0589609 0.368612 0
0.0907607 0.37322 0
0.123583 0.377539 0
0.158404 0.381353 0
0.197086 0.384192 0
0.235325 0.387167 0
0.274418 0.389868 0
0.314641 0.392218 0
0.355718 0.394324 0
0.397101 0.396246 0
0.437385 0.39794 0
0.477134 0.400015 0
0.516167 0.402441 0
0.555596 0.404898 0
0.596963 0.407095 0
0.640558 0.408957 0
0.686427 0.410346 0
0.741558 0.410361 0
0.805707 0.408774 0
0.87393 0.406195 0
0.943175 0.402991 0
1 0.399619 0
1 0.396399 0
1 0.393698 0
1 0.391424 0
1 0.389334 0
1 0.387503 0
1 0.38587 0
1 0.384375 0
0 0.3944 0
0 0.399313 0
0.005066 0.404562 0
0.0353246 0.409415 0
0.0664225 0.414206 0
0.0980392 0.41883 0
0.130724 0.423224 0
0.164782 0.426871 0
0.202777 0.42977 0
0.241871 0.43238 0
0.281163 0.434836 0
0.321401 0.436942 0
0.362387 0.438804 0
0.403662 0.440436 0
0.444007 0.442054 0
0.483391 0.443824 0
0.521431 0.445914 0
0.558785 0.448127 0
0.596399 0.450278 0
0.634668 0.452216 0
0.674266 0.454154 0
0.714977 0.455879 0
0.756695 0.457282 0
0.803922 0.458015 0
0.856718 0.457908 0
0.912337 0.457206 0
0.968643 0.456168 0
1 0.454994 0
1 0.453971 0
1 0.452842 0
1 0.451698 0
1 0.450507 0
1 0.449577 0
0 0.439216 0
0 0.444221 0
0.0132906 0.449531 0
0.0434424 0.454398 0
0.074403 0.459144 0
0.105852 0.463752 0
0.138231 0.468055 0
0.172091 0.471855 0
0.208515 0.474907 0
0.2486 0.476905 0
0.288075 0.479026 0
0.328023 0.480537 0
0.368811 0.482017 0
0.409888 0.483284 0
0.450004 0.484535 0
0.489082 0.485893 0
0.526665 0.487541 0.00128176
0.563195 0.489326 0.00282292
0.599268 0.491127 0.00328069
0.635019 0.492973 0.00195315
0.670848 0.494957 0
0.707073 0.497002 0
0.743801 0.499016 0
0.780316 0.501137 0
0.816663 0.503334 0
0.855192 0.505302 0
0.897292 0.506767 0
0.941711 0.50782 0
0.986923 0.50869 0
1 0.509239 0
1 0.509468 0
1 0.509438 0
1 0.509209 0
0 0.483955 0
0 0.488884 0
0.0224918 0.493965 0
0.0524758 0.498726 0
0.0830091 0.503166 0
0.114137 0.507576 0
0.146151 0.511681 0
0.179522 0.515297 0
0.215122 0.518196 0
0.254948 0.519905 0
0.294636 0.521523 0
0.334722 0.522835 0.000366217
0.37528 0.523873 0.00163272
0.416068 0.524697 0.00267033
0.455894 0.525521 0.00369268
0.494591 0.526421 0.00476081
0.531762 0.527581 0.00608835
0.56791 0.528969 0.00762951
0.603418 0.530449 0.00895705
0.638209 0.532097 0.00962844
0.672328 0.533944 0.0091249
0.705928 0.535958 0.00698863
0.739574 0.538354 0.00318914
0.772396 0.540688 0
0.804929 0.543175 0
0.836942 0.54583 0
0.868391 0.548775 0
0.899458 0.551507 0
0.932357 0.554116 0
0.967788 0.556405 0
1 0.558389 0
1 0.559792 0
1 0.560861 0
0 0.527733 0
0.00306706 0.532479 0
0.0317693 0.537499 0
0.0614481 0.542016 0
0.0917983 0.546349 0
0.122515 0.550469 0
0.15404 0.554238 0
0.186954 0.55761 0
0.221622 0.560021 0.00241093
0.259831 0.561563 0.00421149
0.300404 0.562432 0.00535592
0.340398 0.563241 0.00642405
0.380697 0.563775 0.00720226
0.42118 0.564111 0.0077821
0.460761 0.564569 0.00846876
0.499321 0.565194 0.009308
0.53637 0.56614 0.0104219
0.572381 0.567315 0.01178
0.607736 0.568612 0.0132448
0.64213 0.570031 0.0146029
0.675547 0.571694 0.0155489
0.708034 0.573632 0.0157778
0.739757 0.575814 0.0148928
0.770321 0.578256 0.0129854
0.800229 0.580911 0.00972
0.829404 0.583795 0.00555428
0.857877 0.586816 0.000717174
0.885756 0.589914 0
0.912825 0.593118 0
0.939651 0.596323 0
0.966552 0.599481 0
0.995483 0.602274 0
1 0.604669 0
0 0.570611 0
0.0122072 0.57499 0
0.040528 0.579705 0
0.0698405 0.583917 0
0.0997482 0.587915 0
0.130007 0.591684 0
0.161059 0.595117 0.00335698
0.193362 0.598062 0.00656138
0.227543 0.600336 0.00909438
0.264393 0.601724 0.0107729
0.305348 0.601968 0.0113069
0.345449 0.602365 0.0119936
0.385748 0.602609 0.0124971
0.426184 0.602716 0.0128634
0.465705 0.602945 0.0133516
0.504173 0.603387 0.0140078
0.5411 0.604105 0.0149386
0.576944 0.605035 0.0160678
0.612116 0.606088 0.0173037
0.646326 0.607279 0.018677
0.679362 0.608682 0.0200656
0.711223 0.610346 0.0212558
0.742 0.612284 0.0219577
0.771328 0.614572 0.0220951
0.799527 0.61709 0.0214694
0.826658 0.619883 0.0202029
0.852949 0.622904 0.0181888
0.878553 0.626047 0.0155032
0.903319 0.629313 0.0124208
0.927855 0.632563 0.00881972
0.952224 0.635828 0.00479133
0.976577 0.638987 0.000289921
1 0.641993 0
0 0.612238 0
0.0211948 0.616342 0
0.049073 0.620661 0
0.0779278 0.624475 0
0.107378 0.628092 0.00323491
0.137118 0.631418 0.00680552
0.16759 0.634409 0.0100557
0.199283 0.636927 0.0128328
0.233112 0.639078 0.0152743
0.269184 0.64033 0.0168002
0.309758 0.640284 0.0170748
0.35021 0.640284 0.01738
0.390707 0.640391 0.0177615
0.430945 0.640146 0.0178073
0.47039 0.640101 0.0180362
0.508751 0.640284 0.0184787
0.545525 0.640772 0.0191958
0.581186 0.641443 0.0200656
0.616144 0.642206 0.0210422
0.650156 0.643168 0.0221866
0.682979 0.644297 0.0234989
0.714473 0.64567 0.024918
0.744717 0.647303 0.0262303
0.773327 0.649332 0.0274205
0.800671 0.651713 0.0283207
0.826627 0.654276 0.0287022
0.851453 0.657099 0.028687
0.875425 0.660136 0.028275
0.898589 0.663417 0.0274357
0.921279 0.66659 0.025864
0.943709 0.669779 0.0237736
0.96611 0.672923 0.021088
0.988724 0.675929 0.0177157
0.000686656 0.651957 0
0.0294499 0.655665 0
0.0563668 0.65951 0.00282292
0.0852064 0.662913 0.00648508
0.11426 0.666224 0.0100404
0.143694 0.669322 0.0134127
0.173907 0.672145 0.016495
0.205417 0.674617 0.0192264
0.238788 0.676539 0.0214389
0.274449 0.677745 0.0229496
0.313832 0.677882 0.0233921
0.355352 0.677394 0.0232242
0.395819 0.677089 0.0232548
0.436042 0.676677 0.0231327
0.47541 0.676341 0.0230869
0.513603 0.676249 0.02327
0.55021 0.676478 0.023743
0.585687 0.676875 0.0243687
0.620417 0.677348 0.0250553
0.654185 0.678004 0.0259403
0.686778 0.678874 0.0269932
0.718029 0.679942 0.0282444
0.747921 0.681254 0.0296483
0.776059 0.682963 0.0311742
0.802762 0.684977 0.032639
0.827985 0.687266 0.0339361
0.851911 0.689799 0.0349889
0.87483 0.692546 0.0357519
0.896712 0.695506 0.0362707
0.918273 0.698726 0.0366522
0.939269 0.701717 0.0361791
0.960113 0.704677 0.0351415
0.981094 0.707576 0.0334173
0.00926223 0.690044 0.00303655
0.0376898 0.693462 0.00671397
0.0643473 0.697108 0.0105745
0.0929427 0.700328 0.0140688
0.121782 0.703471 0.0174563
0.150973 0.706416 0.0206607
0.180926 0.709056 0.0235752
0.212116 0.711315 0.0261082
0.245136 0.713054 0.0281224
0.280369 0.714107 0.0294957
0.318593 0.714244 0.0299687
0.360647 0.713268 0.0293278
0.40119 0.712642 0.0290227
0.441306 0.711955 0.0286564
0.480568 0.711299 0.0283207
0.518547 0.710903 0.0281987
0.554971 0.710826 0.028397
0.590234 0.710948 0.0287633
0.624735 0.711116 0.0291752
0.658244 0.711467 0.0297246
0.690578 0.712032 0.0305028
0.721569 0.71281 0.0314794
0.751186 0.713832 0.0326696
0.778973 0.71519 0.0341497
0.805249 0.716884 0.0357519
0.829999 0.718868 0.0373999
0.853346 0.721096 0.0389715
0.875563 0.723522 0.0404059
0.896651 0.726177 0.0417182
0.91725 0.728985 0.0428168
0.937362 0.731868 0.0435645
0.957092 0.734585 0.0437476
0.976761 0.737209 0.0434119
0.0178988 0.726619 0.011368
0.046128 0.729885 0.0148928
0.0726024 0.733349 0.0186007
0.100938 0.73637 0.0218814
0.129519 0.739284 0.0250553
0.15845 0.742031 0.0280766
0.188128 0.744472 0.0307927
0.218997 0.746487 0.0330968
0.251652 0.747982 0.0348974
0.286473 0.748852 0.0360876
0.323995 0.748867 0.0364385
0.365896 0.747585 0.0355077
0.406546 0.746563 0.0348363
0.446525 0.745556 0.0341802
0.485695 0.744595 0.0335393
0.523476 0.743877 0.0331273
0.559655 0.743496 0.0330205
0.594705 0.743313 0.0330968
0.629206 0.74342 0.033463
0.662455 0.743435 0.0337224
0.694499 0.743664 0.034165
0.725231 0.744152 0.0348669
0.754559 0.744854 0.0357671
0.782055 0.745892 0.0369879
0.80798 0.747234 0.0384527
0.832349 0.748882 0.0400854
0.855283 0.75079 0.0418097
0.877028 0.752911 0.0434882
0.897642 0.755322 0.0452583
0.917586 0.757809 0.0468147
0.936889 0.760235 0.0480201
0.95584 0.762661 0.0489052
0.97467 0.765011 0.0493019
0.0274662 0.762219 0.0206302
0.0554513 0.765255 0.0239261
0.0816968 0.768521 0.0274357
0.109773 0.771328 0.0305028
0.138048 0.773983 0.0334325
0.166705 0.776501 0.0362097
0.196094 0.778714 0.0386969
0.226642 0.780484 0.0407721
0.25893 0.78172 0.0423133
0.293339 0.782345 0.0432746
0.330297 0.782177 0.0434577
0.371679 0.780682 0.0423285
0.412497 0.779202 0.0412299
0.452308 0.777874 0.0402533
0.491371 0.776593 0.0393072
0.528939 0.77557 0.0386053
0.564858 0.774838 0.0381781
0.599649 0.774319 0.0379339
0.633677 0.773907 0.0377813
0.666819 0.773785 0.0379034
0.698634 0.773724 0.0380865
0.729061 0.773861 0.0384375
0.758068 0.774258 0.0390478
0.785306 0.774975 0.0399634
0.810925 0.775982 0.0411383
0.834928 0.777264 0.0425574
0.857481 0.77882 0.0441596
0.878859 0.780636 0.0458686
0.899123 0.782788 0.0477607
0.918486 0.784817 0.0493629
0.93724 0.786908 0.0507973
0.955627 0.789029 0.052018
0.973846 0.791089 0.0529183
0.0376287 0.796475 0.0304723
0.0653239 0.799252 0.0335241
0.0912795 0.802258 0.036759
0.119142 0.804852 0.0396277
0.147112 0.807248 0.042298
0.175433 0.809476 0.0448005
0.204517 0.811429 0.0470436
0.23476 0.812955 0.0488746
0.266712 0.813931 0.0501564
0.300694 0.814267 0.0508431
0.337148 0.813855 0.050782
0.377569 0.812268 0.0495766
0.418845 0.8103 0.0479896
0.458488 0.808591 0.0466621
0.497337 0.806958 0.0453956
0.534707 0.805615 0.0443885
0.570367 0.804578 0.0436408
0.604868 0.803708 0.0430762
0.638621 0.802945 0.0425879
0.671321 0.802335 0.0422522
0.703029 0.802121 0.0422827
0.733135 0.801923 0.0423133
0.761791 0.801953 0.0425727
0.788739 0.802335 0.0431525
0.814038 0.803006 0.044007
0.837736 0.803967 0.0451209
0.860151 0.805386 0.0466926
0.881132 0.806806 0.048188
0.900862 0.808469 0.0498054
0.919875 0.810193 0.0513771
0.938323 0.81207 0.0529488
0.95639 0.813993 0.0544137
0.974136 0.815763 0.0555123
0.0479591 0.829114 0.0404974
0.0749065 0.831601 0.0432441
0.101045 0.834363 0.0462654
0.128603 0.836683 0.0488594
0.156283 0.838819 0.0512703
0.184283 0.840757 0.0534829
0.213016 0.842405 0.055436
0.242954 0.843671 0.0569924
0.274708 0.844511 0.0581521
0.308339 0.844602 0.0586099
0.34435 0.843946 0.05832
0.383581 0.842298 0.0570535
0.425391 0.839796 0.054963
0.464881 0.83772 0.0532692
0.503517 0.835737 0.0516518
0.540627 0.834043 0.050309
0.576028 0.832685 0.0492714
0.610269 0.831479 0.0483864
0.643717 0.830381 0.0475776
0.67631 0.829618 0.0470741
0.7075 0.828855 0.0465858
0.737301 0.828305 0.0462806
0.765606 0.828016 0.0462196
0.792248 0.828031 0.0464485
0.817319 0.828458 0.0470588
0.840864 0.829236 0.0480201
0.862791 0.830152 0.0491035
0.883452 0.831281 0.0503548
0.902876 0.832593 0.0517739
0.921767 0.834241 0.0534371
0.939834 0.835752 0.0548562
0.957443 0.837278 0.0561837
0.97499 0.838926 0.0574807
0.0587625 0.860563 0.0509804
0.08542 0.862776 0.0534676
0.111238 0.865232 0.0561837
0.138476 0.867247 0.0584878
0.165866 0.869123 0.0606394
0.193545 0.870771 0.062562
0.221958 0.872114 0.06421
0.25153 0.87306 0.0654765
0.282811 0.873487 0.0662242
0.31606 0.873304 0.066392
0.351705 0.872435 0.0659037
0.390249 0.870588 0.0644541
0.432029 0.867704 0.0619821
0.471382 0.865263 0.0599527
0.509758 0.862928 0.0579995
0.546578 0.860868 0.0563058
0.581704 0.859144 0.0549172
0.615656 0.857618 0.0537118
0.649012 0.856382 0.0527657
0.681102 0.855055 0.0517433
0.711971 0.853941 0.0509041
0.741482 0.853086 0.0502937
0.769482 0.852506 0.049958
0.796078 0.85243 0.0500954
0.820783 0.852461 0.0503243
0.843885 0.852796 0.0508431
0.865538 0.853407 0.0516365
0.886122 0.854475 0.0528573
0.905318 0.855528 0.0540475
0.92372 0.856687 0.0552987
0.941649 0.858076 0.056733
0.958999 0.859358 0.0579843
0.976104 0.860594 0.0590829
0.0695201 0.890623 0.0614481
0.0959029 0.892561 0.0636606
0.121416 0.894713 0.0660868
0.148302 0.896406 0.0680705
0.175372 0.897978 0.0699168
0.202747 0.899336 0.0715648
0.230808 0.900389 0.0729229
0.260029 0.900999 0.0738537
0.290944 0.901091 0.0742809
