src/avatar/assets/lut/Apple_prores_422_6.A002_02161207_C015.cube
TITLE "Generated by Resolve"
LUT_3D_SIZE 5
0 0 0
0.290806 0 0
0.961898 0 0
1 0 0
1 0 0
0 0.137957 0
0.160494 0.163455 0
0.736034 0.130282 0
1 0.0643931 0
1 0.0657206 0
0 0.483955 0
0.215122 0.518196 0
0.531762 0.527581 0.00608835
0.804929 0.543175 0
1 0.560861 0
0.0376287 0.796475 0.0304723
0.266712 0.813931 0.0501564
0.570367 0.804578 0.0436408
0.814038 0.803006 0.044007
0.974136 0.815763 0.0555123
0.116518 1 0.107149
0.325475 1 0.108064
0.6103 0.990707 0.0835584
0.838437 0.971771 0.0671702
0.984817 0.97055 0.0673686
0 0 0.0591287
0.262913 0 0.323323
0.952422 0 0.270039
1 0 0.206973
1 0 0.201724
0 0.138369 0.156481
0.160555 0.164202 0.183185
0.822507 0.084596 0.128191
1 0.0378271 0.0796063
1 0.0397345 0.0826886
0 0.487556 0.207568
0.215656 0.519997 0.240299
0.53109 0.526726 0.246494
0.909987 0.523888 0.0855879
1 0.494972 0
0.0341192 0.79411 0.267247
0.261402 0.80972 0.28426
0.563973 0.798367 0.274662
0.806058 0.794446 0.271763
0.966079 0.805188 0.276509
0.10631 1 0.336507
0.313329 1 0.334722
0.597406 0.978424 0.307332
0.825254 0.958144 0.288762
0.971023 0.955932 0.287587
0 0 0.408927
0.190356 0 0.943206
0.91458 0 1
1 0 0.959197
1 0 0.954192
0 0.13193 0.467567
0.150179 0.155474 0.536126
0.784512 0.0467536 0.874067
1 0 0.826917
1 0 0.771038
0 0.483757 0.51957
0.204456 0.514046 0.550698
0.522499 0.51603 0.569375
1 0.445304 0.543465
1 0.425696 0.525261
0.0198825 0.783307 0.576226
0.245075 0.796948 0.591287
0.547555 0.782849 0.579843
0.788998 0.776593 0.575402
1 0.777218 0.493736
0.0854963 0.993515 0.638544
0.2907 0.988357 0.635264
0.574533 0.957168 0.606592
0.803128 0.935424 0.586725
0.948928 0.932708 0.584482
0 0 0.677409
0.143297 0 1
0.892073 0 1
1 0 1
1 0 1
0 0.132952 0.709972
0.15024 0.156268 0.807691
0.755322 0.0304112 1
1 0 1
1 0 1
0 0.487068 0.7579
0.201144 0.514763 0.787945
0.517754 0.512093 0.837034
1 0.416449 1
1 0.394705 1
0.01355 0.780362 0.806165
0.236469 0.792325 0.819577
0.537179 0.775921 0.805753
0.790127 0.760082 0.833082
1 0.710109 0.792401
0.0726329 0.983856 0.860975
0.275715 0.97705 0.856229
0.558618 0.944488 0.826474
0.788983 0.921309 0.806302
0.934646 0.917617 0.804089
0 0 0.849805
0.14493 0 1
0.881285 0 1
1 0 1
1 0 1
0 0.14461 0.867185
0.162264 0.167987 0.981674
0.727184 0.0470741 1
1 0 1
1 0 1
0 0.498894 0.911376
0.208957 0.523995 0.940307
0.523781 0.51809 1
1 0.407095 1
1 0.383383 1
0.0173953 0.786313 0.952026
0.237705 0.795941 0.963531
0.536141 0.77734 0.948974
0.778454 0.761151 0.985443
1 0.698955 1
0.0694285 0.982803 0.999207
0.27071 0.974578 0.993225
0.552346 0.941131 0.962844
0.782666 0.916793 0.941695
0.948119 0.903853 0.969696
