src/avatar/assets/lut/PictureFX-Galeries-Lafayette-Haussmann-Gold-3DL25.cube
#Generated with IWLTBAP LUT Generator
#Website: http://luts.iwltbap.com
TITLE "PictureFX-Galeries-Lafayette-Haussmann-Gold-N125"
#LUT size
LUT_3D_SIZE 25
#LUT data points
0.117647 0.000000 0.000000
0.133333 0.000000 0.000000
0.149020 0.000000 0.000000
0.180392 0.000000 0.000000
0.219608 0.011765 0.000000
0.254902 0.039216 0.000000
0.286275 0.078431 0.000000
0.309804 0.109804 0.000000
0.333333 0.137255 0.000000
0.364706 0.156863 0.000000
0.403922 0.164706 0.000000
0.447059 0.168627 0.000000
0.490196 0.168627 0.000000
0.533333 0.168627 0.000000
0.576471 0.172549 0.000000
0.623529 0.172549 0.000000
0.666667 0.172549 0.000000
0.709804 0.176471 0.000000
0.749020 0.176471 0.000000
0.792157 0.176471 0.000000
0.835294 0.180392 0.000000
0.874510 0.180392 0.000000
0.917647 0.180392 0.000000
0.956863 0.176471 0.000000
0.996078 0.176471 0.000000
0.113725 0.007843 0.000000
0.133333 0.003922 0.000000
0.164706 0.039216 0.000000
0.196078 0.047059 0.000000
0.231373 0.050980 0.000000
0.258824 0.074510 0.000000
0.286275 0.098039 0.000000
0.309804 0.121569 0.000000
0.333333 0.145098 0.000000
0.360784 0.160784 0.000000
0.396078 0.172549 0.000000
0.439216 0.176471 0.000000
0.486275 0.180392 0.000000
0.529412 0.180392 0.000000
0.572549 0.180392 0.000000
0.615686 0.184314 0.000000
0.658824 0.184314 0.000000
0.701961 0.184314 0.000000
0.745098 0.188235 0.000000
0.788235 0.188235 0.000000
0.831373 0.188235 0.000000
0.874510 0.192157 0.000000
0.913725 0.188235 0.000000
0.952941 0.188235 0.000000
0.992157 0.188235 0.000000
0.129412 0.090196 0.000000
0.149020 0.086275 0.000000
0.176471 0.086275 0.000000
0.211765 0.090196 0.000000
0.243137 0.098039 0.000000
0.262745 0.109804 0.000000
0.286275 0.125490 0.023529
0.313725 0.141176 0.027451
0.337255 0.156863 0.000000
0.364706 0.172549 0.000000
0.396078 0.184314 0.000000
0.439216 0.192157 0.000000
0.482353 0.192157 0.000000
0.525490 0.196078 0.000000
0.568627 0.196078 0.000000
0.611765 0.196078 0.000000
0.658824 0.200000 0.000000
0.701961 0.200000 0.000000
0.745098 0.200000 0.000000
0.784314 0.203922 0.000000
0.827451 0.203922 0.000000
0.870588 0.203922 0.000000
0.909804 0.203922 0.000000
0.949020 0.203922 0.000000
0.992157 0.200000 0.000000
0.121569 0.149020 0.000000
0.145098 0.145098 0.000000
0.176471 0.145098 0.000000
0.219608 0.141176 0.000000
0.250980 0.141176 0.000000
0.266667 0.152941 0.000000
0.278431 0.164706 0.086275
0.309804 0.172549 0.094118
0.345098 0.180392 0.066667
0.376471 0.192157 0.019608
0.407843 0.203922 0.000000
0.443137 0.211765 0.000000
0.482353 0.215686 0.000000
0.525490 0.219608 0.000000
0.568627 0.219608 0.000000
0.611765 0.219608 0.000000
0.654902 0.223529 0.000000
0.698039 0.223529 0.000000
0.741176 0.223529 0.000000
0.784314 0.223529 0.000000
0.827451 0.227451 0.000000
0.870588 0.227451 0.000000
0.909804 0.223529 0.000000
0.949020 0.223529 0.000000
0.988235 0.223529 0.000000
0.117647 0.200000 0.000000
0.149020 0.200000 0.000000
0.180392 0.196078 0.000000
0.215686 0.196078 0.000000
0.247059 0.192157 0.000000
0.266667 0.200000 0.031373
0.262745 0.211765 0.156863
0.282353 0.219608 0.196078
0.333333 0.219608 0.160784
0.380392 0.223529 0.105882
0.419608 0.227451 0.050980
0.450980 0.235294 0.003922
0.490196 0.243137 0.000000
0.529412 0.247059 0.000000
0.572549 0.250980 0.000000
0.615686 0.250980 0.000000
0.658824 0.254902 0.000000
0.701961 0.254902 0.000000
0.745098 0.254902 0.000000
0.788235 0.254902 0.000000
0.827451 0.254902 0.000000
0.870588 0.254902 0.000000
0.909804 0.250980 0.000000
0.949020 0.250980 0.000000
0.988235 0.247059 0.000000
0.133333 0.247059 0.000000
0.156863 0.247059 0.000000
0.180392 0.247059 0.000000
0.211765 0.243137 0.000000
0.243137 0.243137 0.000000
0.270588 0.243137 0.035294
0.274510 0.250980 0.141176
0.270588 0.262745 0.239216
0.309804 0.266667 0.247059
0.368627 0.262745 0.192157
0.419608 0.262745 0.129412
0.458824 0.266667 0.074510
0.498039 0.270588 0.027451
0.533333 0.274510 0.000000
0.576471 0.278431 0.000000
0.615686 0.282353 0.000000
0.658824 0.282353 0.000000
0.701961 0.286275 0.000000
0.745098 0.286275 0.000000
0.784314 0.286275 0.000000
0.827451 0.286275 0.000000
0.866667 0.282353 0.000000
0.909804 0.282353 0.000000
0.949020 0.282353 0.000000
0.988235 0.278431 0.000000
0.129412 0.282353 0.000000
0.152941 0.282353 0.000000
0.176471 0.278431 0.000000
0.203922 0.278431 0.000000
0.235294 0.278431 0.000000
0.266667 0.278431 0.007843
0.290196 0.278431 0.078431
0.301961 0.286275 0.164706
0.309804 0.294118 0.231373
0.349020 0.298039 0.235294
0.403922 0.294118 0.192157
0.454902 0.298039 0.137255
0.494118 0.298039 0.090196
0.533333 0.301961 0.047059
0.572549 0.305882 0.011765
0.611765 0.309804 0.000000
0.654902 0.313725 0.000000
0.698039 0.313725 0.000000
0.741176 0.317647 0.000000
0.780392 0.317647 0.000000
0.823529 0.313725 0.000000
0.862745 0.313725 0.000000
0.905882 0.313725 0.000000
0.945098 0.313725 0.000000
0.988235 0.309804 0.000000
0.133333 0.317647 0.000000
0.152941 0.317647 0.000000
0.172549 0.317647 0.000000
0.203922 0.317647 0.000000
0.235294 0.313725 0.000000
0.266667 0.313725 0.000000
0.298039 0.313725 0.031373
0.321569 0.317647 0.098039
0.341176 0.321569 0.164706
0.360784 0.329412 0.211765
0.400000 0.329412 0.215686
0.447059 0.333333 0.188235
0.494118 0.333333 0.145098
0.533333 0.333333 0.101961
0.572549 0.337255 0.062745
0.611765 0.341176 0.031373
0.654902 0.345098 0.007843
0.694118 0.345098 0.000000
0.737255 0.349020 0.000000
0.776471 0.349020 0.000000
0.819608 0.349020 0.000000
0.858824 0.345098 0.000000
0.901961 0.345098 0.000000
0.941176 0.345098 0.000000
0.984314 0.345098 0.000000
0.137255 0.356863 0.000000
0.156863 0.356863 0.000000
0.176471 0.356863 0.000000
0.203922 0.356863 0.000000
0.235294 0.352941 0.000000
0.270588 0.352941 0.000000
0.301961 0.352941 0.000000
0.333333 0.356863 0.050980
0.360784 0.356863 0.105882
0.384314 0.360784 0.160784
0.411765 0.364706 0.196078
0.447059 0.368627 0.200000
0.490196 0.368627 0.180392
0.533333 0.372549 0.145098
0.576471 0.372549 0.109804
0.615686 0.376471 0.078431
0.654902 0.380392 0.047059
0.698039 0.380392 0.023529
0.737255 0.380392 0.003922
0.776471 0.380392 0.000000
0.815686 0.380392 0.000000
0.858824 0.380392 0.000000
0.898039 0.380392 0.000000
0.941176 0.380392 0.000000
0.980392 0.380392 0.000000
0.145098 0.400000 0.000000
0.160784 0.400000 0.000000
0.184314 0.400000 0.000000
0.207843 0.396078 0.000000
0.239216 0.396078 0.000000
0.274510 0.396078 0.000000
0.305882 0.396078 0.000000
0.341176 0.396078 0.015686
0.372549 0.396078 0.066667
0.403922 0.400000 0.113725
0.431373 0.403922 0.152941
0.462745 0.407843 0.180392
0.498039 0.407843 0.184314
0.537255 0.411765 0.172549
0.580392 0.411765 0.149020
0.619608 0.411765 0.117647
0.658824 0.415686 0.090196
0.698039 0.415686 0.062745
0.737255 0.415686 0.031373
0.776471 0.415686 0.011765
0.815686 0.415686 0.000000
0.854902 0.415686 0.000000
0.898039 0.415686 0.000000
0.937255 0.415686 0.000000
0.976471 0.411765 0.000000
0.156863 0.443137 0.000000
0.172549 0.443137 0.000000
0.192157 0.443137 0.000000
0.215686 0.443137 0.000000
0.247059 0.443137 0.000000
0.278431 0.443137 0.000000
0.313725 0.439216 0.000000
0.349020 0.439216 0.000000
0.380392 0.439216 0.027451
0.415686 0.439216 0.074510
0.447059 0.443137 0.113725
0.478431 0.443137 0.149020
0.509804 0.447059 0.168627
0.545098 0.447059 0.176471
0.584314 0.450980 0.164706
0.623529 0.450980 0.145098
0.662745 0.450980 0.121569
0.698039 0.450980 0.094118
0.737255 0.450980 0.066667
0.776471 0.454902 0.043137
0.815686 0.454902 0.019608
0.858824 0.454902 0.003922
0.898039 0.454902 0.000000
0.937255 0.454902 0.000000
0.980392 0.454902 0.000000
0.160784 0.482353 0.000000
0.176471 0.478431 0.000000
0.192157 0.478431 0.000000
0.215686 0.478431 0.000000
0.247059 0.478431 0.000000
0.278431 0.478431 0.000000
0.313725 0.478431 0.000000
0.349020 0.478431 0.000000
0.384314 0.478431 0.000000
0.415686 0.478431 0.031373
0.450980 0.478431 0.074510
0.482353 0.478431 0.109804
0.517647 0.482353 0.137255
0.549020 0.482353 0.152941
0.584314 0.482353 0.156863
0.623529 0.482353 0.152941
0.658824 0.486275 0.137255
0.698039 0.486275 0.117647
0.737255 0.486275 0.094118
0.776471 0.486275 0.070588
0.815686 0.490196 0.047059
0.858824 0.490196 0.027451
0.898039 0.490196 0.007843
0.937255 0.490196 0.000000
0.976471 0.490196 0.000000
0.164706 0.517647 0.000000
0.176471 0.517647 0.000000
0.196078 0.517647 0.000000
0.219608 0.517647 0.000000
0.247059 0.517647 0.000000
0.278431 0.517647 0.000000
0.313725 0.517647 0.000000
0.349020 0.517647 0.000000
0.384314 0.513725 0.000000
0.419608 0.513725 0.000000
0.450980 0.513725 0.027451
0.486275 0.513725 0.070588
0.521569 0.513725 0.101961
0.552941 0.517647 0.125490
0.588235 0.517647 0.141176
0.623529 0.517647 0.145098
0.662745 0.521569 0.141176
0.701961 0.521569 0.129412
0.737255 0.521569 0.113725
0.776471 0.521569 0.094118
0.815686 0.525490 0.070588
0.854902 0.525490 0.050980
0.894118 0.525490 0.027451
0.933333 0.525490 0.007843
0.972549 0.525490 0.000000
0.164706 0.556863 0.000000
0.180392 0.556863 0.000000
0.196078 0.556863 0.000000
0.219608 0.556863 0.000000
0.247059 0.556863 0.000000
0.278431 0.556863 0.000000
0.309804 0.552941 0.000000
0.345098 0.552941 0.000000
0.380392 0.552941 0.000000
0.419608 0.552941 0.000000
0.454902 0.552941 0.000000
0.490196 0.552941 0.023529
0.525490 0.552941 0.062745
0.556863 0.552941 0.094118
0.592157 0.552941 0.113725
0.627451 0.552941 0.125490
0.666667 0.556863 0.133333
0.701961 0.556863 0.129412
0.741176 0.556863 0.121569
0.776471 0.556863 0.105882
0.815686 0.560784 0.090196
0.854902 0.560784 0.070588
0.894118 0.560784 0.047059
0.929412 0.556863 0.019608
0.968627 0.556863 0.000000
0.168627 0.596078 0.000000
0.180392 0.596078 0.000000
0.196078 0.596078 0.000000
0.219608 0.596078 0.000000
0.247059 0.592157 0.000000
0.278431 0.592157 0.000000
0.309804 0.592157 0.000000
0.345098 0.592157 0.000000
0.380392 0.592157 0.000000
0.419608 0.592157 0.000000
0.454902 0.592157 0.000000
0.490196 0.588235 0.000000
0.525490 0.588235 0.015686
0.560784 0.588235 0.054902
0.596078 0.592157 0.082353
0.631373 0.592157 0.101961
0.666667 0.592157 0.113725
0.705882 0.592157 0.121569
0.741176 0.592157 0.117647
0.776471 0.592157 0.109804
0.815686 0.592157 0.094118
0.850980 0.592157 0.074510
0.886275 0.588235 0.050980
0.921569 0.588235 0.023529
0.960784 0.584314 0.000000
0.172549 0.635294 0.000000
0.184314 0.635294 0.000000
0.200000 0.635294 0.000000
0.223529 0.635294 0.000000
0.250980 0.635294 0.000000
0.278431 0.635294 0.000000
0.313725 0.635294 0.000000
0.349020 0.635294 0.000000
0.384314 0.631373 0.000000
0.419608 0.631373 0.000000
0.458824 0.631373 0.000000
0.494118 0.631373 0.000000
0.529412 0.631373 0.000000
0.568627 0.631373 0.011765
0.603922 0.631373 0.047059
0.639216 0.631373 0.074510
0.674510 0.631373 0.094118
0.709804 0.631373 0.105882
0.745098 0.631373 0.109804
0.780392 0.631373 0.105882
0.815686 0.631373 0.098039
0.854902 0.627451 0.086275
0.890196 0.627451 0.070588
0.929412 0.627451 0.047059
0.964706 0.627451 0.023529
0.172549 0.674510 0.000000
0.188235 0.674510 0.000000
0.203922 0.674510 0.000000
0.223529 0.674510 0.000000
0.250980 0.674510 0.000000
0.278431 0.674510 0.000000
0.313725 0.674510 0.000000
0.349020 0.674510 0.000000
0.384314 0.670588 0.000000
0.419608 0.670588 0.000000
0.454902 0.670588 0.000000
0.494118 0.670588 0.000000
0.529412 0.670588 0.000000
0.568627 0.670588 0.000000
0.603922 0.670588 0.000000
0.639216 0.666667 0.031373
0.674510 0.666667 0.058824
0.709804 0.666667 0.078431
0.745098 0.666667 0.090196
0.780392 0.666667 0.094118
0.819608 0.666667 0.090196
0.854902 0.666667 0.086275
0.890196 0.666667 0.074510
0.929412 0.666667 0.058824
0.968627 0.666667 0.039216
0.176471 0.713725 0.000000
0.188235 0.713725 0.000000
0.203922 0.713725 0.000000
0.223529 0.713725 0.000000
0.250980 0.713725 0.000000
0.278431 0.713725 0.000000
0.309804 0.709804 0.000000
0.345098 0.709804 0.000000
0.380392 0.709804 0.000000
0.419608 0.709804 0.000000
0.454902 0.709804 0.000000
0.490196 0.705882 0.000000
0.529412 0.705882 0.000000
0.564706 0.705882 0.000000
0.603922 0.705882 0.000000
0.639216 0.701961 0.000000
0.674510 0.701961 0.007843
0.709804 0.701961 0.035294
0.745098 0.701961 0.054902
0.780392 0.701961 0.066667
0.819608 0.701961 0.074510
0.854902 0.701961 0.070588
0.890196 0.701961 0.066667
0.929412 0.701961 0.054902
0.964706 0.701961 0.039216
0.172549 0.749020 0.000000
0.184314 0.749020 0.000000
0.200000 0.749020 0.000000
0.219608 0.749020 0.000000
0.243137 0.749020 0.000000
0.274510 0.749020 0.000000
0.305882 0.745098 0.000000
0.341176 0.745098 0.000000
0.376471 0.745098 0.000000
0.411765 0.745098 0.000000
0.447059 0.741176 0.000000
0.486275 0.741176 0.000000
0.521569 0.741176 0.000000
0.560784 0.737255 0.000000
0.596078 0.737255 0.000000
0.635294 0.737255 0.000000
0.670588 0.737255 0.000000
0.705882 0.733333 0.000000
0.741176 0.733333 0.000000
0.776471 0.733333 0.015686
0.815686 0.733333 0.031373
0.850980 0.733333 0.039216
0.890196 0.733333 0.039216
0.925490 0.733333 0.039216
0.964706 0.737255 0.031373
0.156863 0.780392 0.000000
0.172549 0.780392 0.000000
0.184314 0.780392 0.000000
0.207843 0.780392 0.000000
0.235294 0.780392 0.000000
0.262745 0.780392 0.000000
0.298039 0.776471 0.000000
0.329412 0.776471 0.000000
0.364706 0.776471 0.000000
0.403922 0.776471 0.000000
0.439216 0.772549 0.000000
0.478431 0.772549 0.000000
0.513725 0.772549 0.000000
0.552941 0.768627 0.000000
0.588235 0.768627 0.000000
0.623529 0.768627 0.000000
0.662745 0.764706 0.000000
0.698039 0.764706 0.000000
0.733333 0.764706 0.000000
0.772549 0.764706 0.000000
0.807843 0.764706 0.000000
0.847059 0.764706 0.000000
0.886275 0.768627 0.000000
0.925490 0.768627 0.007843
0.964706 0.772549 0.007843
0.145098 0.815686 0.000000
0.156863 0.815686 0.000000
0.176471 0.815686 0.000000
0.200000 0.811765 0.000000
0.227451 0.815686 0.000000
0.254902 0.811765 0.000000
0.290196 0.811765 0.000000
0.325490 0.811765 0.000000
0.360784 0.811765 0.000000
0.400000 0.811765 0.000000
0.435294 0.811765 0.000000
0.474510 0.811765 0.000000
0.513725 0.811765 0.000000
0.549020 0.807843 0.000000
0.588235 0.807843 0.000000
0.627451 0.807843 0.000000
0.666667 0.807843 0.000000
0.705882 0.811765 0.000000
0.745098 0.811765 0.000000
0.784314 0.811765 0.000000
0.823529 0.815686 0.000000
0.862745 0.815686 0.000000
0.901961 0.819608 0.003922
0.941176 0.819608 0.023529
0.980392 0.823529 0.035294
0.145098 0.854902 0.000000
0.160784 0.854902 0.000000
0.176471 0.854902 0.000000
0.200000 0.854902 0.000000
0.227451 0.854902 0.000000
0.258824 0.854902 0.000000
0.294118 0.854902 0.000000
0.329412 0.854902 0.000000
0.364706 0.854902 0.000000
0.403922 0.854902 0.000000
0.439216 0.854902 0.000000
0.478431 0.854902 0.000000
0.517647 0.854902 0.000000
0.556863 0.854902 0.000000
0.596078 0.854902 0.000000
0.635294 0.854902 0.000000
0.674510 0.854902 0.000000
0.713725 0.858824 0.000000
0.752941 0.858824 0.000000
0.792157 0.858824 0.000000
0.831373 0.862745 0.000000
0.870588 0.862745 0.000000
0.909804 0.862745 0.000000
0.949020 0.866667 0.015686
0.988235 0.866667 0.031373
0.152941 0.898039 0.000000
0.168627 0.898039 0.000000
0.184314 0.898039 0.000000
0.207843 0.898039 0.000000
0.235294 0.898039 0.000000
0.262745 0.898039 0.000000
0.298039 0.898039 0.000000
0.333333 0.898039 0.000000
0.368627 0.898039 0.000000
0.407843 0.898039 0.000000
0.443137 0.898039 0.000000
0.482353 0.898039 0.000000
0.521569 0.901961 0.000000
0.560784 0.901961 0.000000
0.600000 0.901961 0.000000
0.639216 0.901961 0.000000
0.678431 0.901961 0.000000
0.717647 0.901961 0.000000
0.760784 0.901961 0.000000
0.800000 0.901961 0.000000
0.839216 0.905882 0.000000
0.878431 0.905882 0.000000
0.917647 0.905882 0.000000
0.952941 0.905882 0.000000
0.996078 0.909804 0.007843
0.160784 0.941176 0.000000
0.172549 0.941176 0.000000
0.188235 0.941176 0.000000
0.207843 0.941176 0.000000
0.235294 0.941176 0.000000
0.266667 0.941176 0.000000
0.298039 0.941176 0.000000
0.333333 0.941176 0.000000
0.368627 0.941176 0.000000
0.407843 0.941176 0.000000
0.443137 0.941176 0.000000
0.482353 0.941176 0.000000
0.521569 0.941176 0.000000
0.560784 0.941176 0.000000
0.600000 0.941176 0.000000
0.639216 0.941176 0.000000
0.678431 0.941176 0.000000
0.721569 0.941176 0.000000
0.760784 0.941176 0.000000
0.800000 0.941176 0.000000
0.839216 0.945098 0.000000
0.878431 0.945098 0.000000
0.917647 0.945098 0.000000
0.956863 0.949020 0.000000
0.996078 0.949020 0.000000
0.160784 0.980392 0.000000
0.172549 0.980392 0.000000
0.188235 0.980392 0.000000
0.207843 0.980392 0.000000
0.231373 0.980392 0.000000
0.262745 0.980392 0.000000
0.298039 0.980392 0.000000
0.329412 0.980392 0.000000
0.368627 0.980392 0.000000
0.403922 0.980392 0.000000
0.443137 0.980392 0.000000
0.482353 0.980392 0.000000
0.521569 0.980392 0.000000
0.560784 0.980392 0.000000
0.600000 0.980392 0.000000
0.639216 0.980392 0.000000
0.678431 0.980392 0.000000
0.717647 0.980392 0.000000
0.756863 0.980392 0.000000
0.800000 0.984314 0.000000
0.839216 0.984314 0.000000
0.878431 0.984314 0.000000
0.917647 0.988235 0.000000
0.960784 0.988235 0.000000
1.000000 0.992157 0.000000
0.117647 0.000000 0.000000
0.133333 0.000000 0.000000
0.149020 0.000000 0.000000
0.184314 0.000000 0.000000
0.223529 0.003922 0.000000
0.262745 0.027451 0.000000
0.294118 0.066667 0.011765
0.317647 0.098039 0.007843
0.341176 0.129412 0.000000
0.364706 0.152941 0.000000
0.400000 0.164706 0.000000
0.439216 0.172549 0.000000
0.482353 0.176471 0.000000
0.529412 0.176471 0.000000
0.572549 0.176471 0.000000
0.615686 0.176471 0.000000
0.662745 0.176471 0.000000
0.705882 0.180392 0.000000
0.745098 0.180392 0.000000
0.788235 0.180392 0.000000
0.831373 0.184314 0.000000
0.874510 0.184314 0.000000
0.913725 0.180392 0.000000
0.952941 0.180392 0.000000
0.996078 0.180392 0.000000
0.109804 0.007843 0.000000
0.141176 0.031373 0.000000
0.164706 0.039216 0.000000
0.196078 0.039216 0.000000
0.235294 0.047059 0.000000
0.266667 0.066667 0.000000
0.294118 0.086275 0.011765
0.317647 0.113725 0.011765
0.337255 0.137255 0.000000
0.360784 0.160784 0.000000
0.392157 0.172549 0.000000
0.431373 0.180392 0.000000
0.474510 0.184314 0.000000
0.521569 0.184314 0.000000
0.564706 0.184314 0.000000
0.611765 0.188235 0.000000
0.654902 0.188235 0.000000
0.698039 0.188235 0.000000
0.741176 0.188235 0.000000
0.784314 0.192157 0.000000
0.827451 0.192157 0.000000
0.870588 0.192157 0.000000
0.909804 0.192157 0.000000
0.952941 0.188235 0.000000
0.992157 0.188235 0.000000
0.125490 0.086275 0.000000
0.149020 0.086275 0.000000
0.180392 0.086275 0.000000
0.211765 0.086275 0.000000
0.243137 0.090196 0.000000
0.270588 0.101961 0.000000
0.294118 0.113725 0.019608
0.317647 0.133333 0.031373
0.341176 0.152941 0.015686
0.360784 0.172549 0.000000
0.392157 0.184314 0.000000
0.427451 0.196078 0.000000
0.470588 0.200000 0.000000
0.517647 0.200000 0.000000
0.560784 0.200000 0.000000
0.607843 0.200000 0.000000
0.650980 0.203922 0.000000
0.694118 0.203922 0.000000
0.741176 0.203922 0.000000
0.784314 0.203922 0.000000
0.827451 0.207843 0.000000
0.866667 0.207843 0.000000
0.909804 0.203922 0.000000
0.949020 0.203922 0.000000
0.992157 0.203922 0.000000
0.121569 0.145098 0.000000
0.149020 0.145098 0.000000
0.184314 0.141176 0.000000
0.223529 0.137255 0.000000
0.258824 0.137255 0.000000
0.282353 0.141176 0.000000
0.298039 0.152941 0.039216
0.321569 0.164706 0.074510
0.349020 0.176471 0.066667
0.372549 0.188235 0.035294
0.400000 0.203922 0.000000
0.431373 0.215686 0.000000
0.474510 0.219608 0.000000
0.517647 0.223529 0.000000
0.560784 0.223529 0.000000
0.607843 0.227451 0.000000
0.650980 0.227451 0.000000
0.694118 0.227451 0.000000
0.737255 0.227451 0.000000
0.780392 0.227451 0.000000
0.823529 0.227451 0.000000
0.866667 0.227451 0.000000
0.905882 0.227451 0.000000
0.949020 0.223529 0.000000
0.988235 0.223529 0.000000
0.125490 0.196078 0.000000
0.152941 0.196078 0.000000
0.184314 0.192157 0.000000
0.223529 0.188235 0.000000
0.258824 0.188235 0.000000
0.286275 0.188235 0.000000
0.298039 0.200000 0.074510
0.309804 0.207843 0.145098
0.345098 0.215686 0.145098
0.384314 0.219608 0.109804
0.415686 0.227451 0.062745
0.447059 0.239216 0.019608
0.482353 0.247059 0.000000
0.521569 0.250980 0.000000
0.564706 0.254902 0.000000
0.607843 0.254902 0.000000
0.650980 0.254902 0.000000
0.698039 0.254902 0.000000
0.741176 0.254902 0.000000
0.784314 0.258824 0.000000
0.827451 0.258824 0.000000
0.866667 0.254902 0.000000
0.905882 0.254902 0.000000
0.949020 0.250980 0.000000
0.988235 0.250980 0.000000
0.137255 0.247059 0.000000
0.160784 0.247059 0.000000
0.188235 0.243137 0.000000
0.219608 0.239216 0.000000
0.254902 0.239216 0.000000
0.286275 0.239216 0.003922
0.301961 0.243137 0.094118
0.294118 0.254902 0.207843
0.313725 0.262745 0.247059
0.368627 0.262745 0.207843
0.419608 0.262745 0.149020
0.454902 0.266667 0.094118
0.490196 0.274510 0.050980
0.529412 0.278431 0.019608
0.568627 0.282353 0.007843
0.611765 0.286275 0.003922
0.654902 0.286275 0.003922
0.698039 0.286275 0.003922
0.741176 0.286275 0.000000
0.784314 0.290196 0.003922
0.823529 0.286275 0.000000
0.866667 0.286275 0.000000
0.905882 0.282353 0.000000
0.949020 0.282353 0.000000
0.988235 0.282353 0.000000
0.137255 0.278431 0.000000
0.156863 0.278431 0.000000
0.180392 0.278431 0.000000
0.211765 0.274510 0.000000
0.243137 0.274510 0.000000
0.274510 0.274510 0.007843
0.298039 0.274510 0.070588
0.305882 0.282353 0.164706
0.301961 0.294118 0.262745
0.333333 0.298039 0.278431
0.396078 0.298039 0.231373
0.447059 0.298039 0.168627
0.490196 0.298039 0.117647
0.529412 0.305882 0.074510
0.568627 0.309804 0.043137
0.607843 0.313725 0.023529
0.650980 0.313725 0.011765
0.690196 0.317647 0.007843
0.737255 0.317647 0.003922
0.776471 0.317647 0.003922
0.819608 0.317647 0.000000
0.862745 0.313725 0.000000
0.901961 0.313725 0.000000
0.945098 0.313725 0.000000
0.984314 0.313725 0.000000
0.137255 0.317647 0.000000
0.156863 0.313725 0.000000
0.176471 0.313725 0.000000
0.207843 0.313725 0.000000
0.239216 0.313725 0.000000
0.270588 0.309804 0.000000
0.301961 0.309804 0.043137
0.325490 0.313725 0.109804
0.337255 0.321569 0.188235
0.345098 0.329412 0.254902
0.384314 0.333333 0.266667
0.435294 0.333333 0.231373
0.486275 0.333333 0.176471
0.529412 0.333333 0.129412
0.568627 0.337255 0.090196
0.607843 0.341176 0.062745
0.650980 0.345098 0.039216
0.690196 0.349020 0.023529
0.733333 0.349020 0.015686
0.772549 0.349020 0.011765
0.815686 0.349020 0.003922
0.858824 0.349020 0.000000
0.898039 0.349020 0.000000
0.941176 0.345098 0.000000
0.984314 0.345098 0.000000
0.141176 0.352941 0.000000
0.156863 0.352941 0.000000
0.180392 0.352941 0.000000
0.207843 0.352941 0.000000
0.239216 0.352941 0.000000
0.270588 0.352941 0.000000
0.305882 0.352941 0.023529
0.333333 0.352941 0.070588
0.360784 0.356863 0.129412
0.380392 0.360784 0.188235
0.400000 0.364706 0.235294
0.439216 0.368627 0.243137
0.482353 0.368627 0.219608
0.529412 0.372549 0.180392
0.572549 0.372549 0.141176
0.611765 0.376471 0.105882
0.650980 0.380392 0.078431
0.694118 0.380392 0.054902
0.733333 0.384314 0.039216
0.772549 0.384314 0.023529
0.811765 0.384314 0.015686
0.854902 0.380392 0.007843
0.898039 0.380392 0.000000
0.937255 0.380392 0.000000
0.980392 0.380392 0.000000
0.149020 0.396078 0.000000
0.164706 0.396078 0.000000
0.184314 0.396078 0.000000
0.211765 0.396078 0.000000
0.243137 0.396078 0.000000
0.274510 0.396078 0.000000
0.309804 0.396078 0.007843
0.341176 0.396078 0.047059
0.372549 0.396078 0.090196
0.400000 0.400000 0.137255
0.427451 0.403922 0.184314
0.454902 0.407843 0.215686
0.490196 0.407843 0.223529
0.533333 0.411765 0.207843
0.576471 0.411765 0.180392
0.615686 0.411765 0.145098
0.658824 0.415686 0.117647
0.694118 0.415686 0.090196
0.733333 0.415686 0.066667
0.772549 0.415686 0.047059
0.811765 0.415686 0.031373
0.854902 0.415686 0.019608
0.894118 0.415686 0.007843
0.937255 0.415686 0.000000
0.976471 0.415686 0.000000
0.160784 0.443137 0.000000
0.176471 0.443137 0.000000
0.196078 0.443137 0.000000
0.219608 0.443137 0.000000
0.247059 0.443137 0.000000
0.282353 0.439216 0.000000
0.313725 0.439216 0.000000
