src/avatar/assets/lut/PictureFX-Galeries-Lafayette-Haussmann-Gold-3DL25.cube
#Generated with IWLTBAP LUT Generator
#Website: http://luts.iwltbap.com
TITLE "PictureFX-Galeries-Lafayette-Haussmann-Gold-N125"
#LUT size
LUT_3D_SIZE 5
#LUT data points
0.117647 0.000000 0.000000
0.286275 0.078431 0.000000
0.490196 0.168627 0.000000
0.749020 0.176471 0.000000
0.996078 0.176471 0.000000
0.129412 0.282353 0.000000
0.290196 0.278431 0.078431
0.494118 0.298039 0.090196
0.741176 0.317647 0.000000
0.988235 0.309804 0.000000
0.164706 0.517647 0.000000
0.313725 0.517647 0.000000
0.521569 0.513725 0.101961
0.737255 0.521569 0.113725
0.972549 0.525490 0.000000
0.172549 0.749020 0.000000
0.305882 0.745098 0.000000
0.521569 0.741176 0.000000
0.741176 0.733333 0.000000
0.964706 0.737255 0.031373
0.160784 0.980392 0.000000
0.298039 0.980392 0.000000
0.521569 0.980392 0.000000
0.756863 0.980392 0.000000
1.000000 0.992157 0.000000
0.129412 0.000000 0.168627
0.337255 0.000000 0.211765
0.529412 0.105882 0.203922
0.737255 0.184314 0.203922
0.988235 0.192157 0.211765
0.180392 0.266667 0.172549
0.356863 0.250980 0.160784
0.521569 0.278431 0.203922
0.705882 0.337255 0.184314
0.976471 0.325490 0.211765
0.192157 0.509804 0.176471
0.329412 0.509804 0.180392
0.521569 0.509804 0.282353
0.713725 0.529412 0.345098
0.960784 0.537255 0.231373
0.196078 0.752941 0.164706
0.321569 0.749020 0.168627
0.537255 0.745098 0.196078
0.749020 0.741176 0.270588
0.968627 0.749020 0.286275
0.192157 0.988235 0.121569
0.313725 0.988235 0.125490
0.533333 0.984314 0.141176
0.768627 0.984314 0.184314
1.000000 0.996078 0.247059
0.258824 0.000000 0.454902
0.376471 0.000000 0.450980
0.576471 0.000000 0.443137
0.788235 0.066667 0.439216
1.000000 0.149020 0.439216
0.258824 0.250980 0.427451
0.376471 0.243137 0.423529
0.572549 0.239216 0.427451
0.776471 0.270588 0.431373
0.992157 0.305882 0.435294
0.250980 0.505882 0.407843
0.372549 0.501961 0.400000
0.607843 0.482353 0.384314
0.776471 0.505882 0.431373
0.933333 0.560784 0.415686
0.247059 0.749020 0.415686
0.356863 0.749020 0.415686
0.568627 0.741176 0.411765
0.764706 0.741176 0.498039
0.929412 0.760784 0.619608
0.235294 0.992157 0.415686
0.341176 0.988235 0.415686
0.549020 0.984314 0.419608
0.780392 0.984314 0.447059
1.000000 0.996078 0.521569
0.341176 0.000000 0.698039
0.423529 0.000000 0.690196
0.607843 0.000000 0.682353
0.823529 0.000000 0.678431
1.000000 0.000000 0.674510
0.325490 0.243137 0.678431
0.411765 0.239216 0.674510
0.600000 0.231373 0.674510
0.815686 0.231373 0.670588
1.000000 0.247059 0.670588
0.329412 0.498039 0.658824
0.423529 0.494118 0.654902
0.615686 0.486275 0.654902
0.823529 0.482353 0.658824
1.000000 0.498039 0.658824
0.301961 0.745098 0.647059
0.396078 0.741176 0.639216
0.600000 0.733333 0.623529
0.850980 0.713725 0.607843
1.000000 0.729412 0.650980
0.278431 0.984314 0.650980
0.376471 0.984314 0.647059
0.576471 0.980392 0.647059
0.811765 0.976471 0.647059
1.000000 0.992157 0.733333
0.411765 0.000000 0.937255
0.482353 0.000000 0.933333
0.643137 0.000000 0.925490
0.850980 0.000000 0.921569
1.000000 0.000000 0.909804
0.400000 0.235294 0.925490
0.470588 0.231373 0.921569
0.639216 0.223529 0.921569
0.843137 0.207843 0.913725
1.000000 0.200000 0.905882
0.388235 0.494118 0.909804
0.462745 0.490196 0.909804
0.631373 0.482353 0.905882
0.839216 0.474510 0.901961
1.000000 0.466667 0.890196
0.364706 0.729412 0.882353
0.443137 0.725490 0.878431
0.619608 0.717647 0.866667
0.839216 0.701961 0.862745
1.000000 0.705882 0.874510
0.329412 0.976471 0.878431
0.411765 0.976471 0.874510
0.600000 0.976471 0.870588
0.839216 0.972549 0.858824
1.000000 0.972549 0.862745
