src/avatar/assets/lut/PictureFX-Galeries-Lafayette-Haussmann-Gold-3DL25.cube
#Generated with IWLTBAP LUT Generator
#Website: http://luts.iwltbap.com
TITLE "PictureFX-Galeries-Lafayette-Haussmann-Gold-N125"
#LUT size
LUT_3D_SIZE 9
#LUT data points
0.117647 0.000000 0.000000
0.180392 0.000000 0.000000
0.286275 0.078431 0.000000
0.364706 0.156863 0.000000
0.490196 0.168627 0.000000
0.623529 0.172549 0.000000
0.749020 0.176471 0.000000
0.874510 0.180392 0.000000
0.996078 0.176471 0.000000
0.121569 0.149020 0.000000
0.219608 0.141176 0.000000
0.278431 0.164706 0.086275
0.376471 0.192157 0.019608
0.482353 0.215686 0.000000
0.611765 0.219608 0.000000
0.741176 0.223529 0.000000
0.870588 0.227451 0.000000
0.988235 0.223529 0.000000
0.129412 0.282353 0.000000
0.203922 0.278431 0.000000
0.290196 0.278431 0.078431
0.349020 0.298039 0.235294
0.494118 0.298039 0.090196
0.611765 0.309804 0.000000
0.741176 0.317647 0.000000
0.862745 0.313725 0.000000
0.988235 0.309804 0.000000
0.145098 0.400000 0.000000
0.207843 0.396078 0.000000
0.305882 0.396078 0.000000
0.403922 0.400000 0.113725
0.498039 0.407843 0.184314
0.619608 0.411765 0.117647
0.737255 0.415686 0.031373
0.854902 0.415686 0.000000
0.976471 0.411765 0.000000
0.164706 0.517647 0.000000
0.219608 0.517647 0.000000
0.313725 0.517647 0.000000
0.419608 0.513725 0.000000
0.521569 0.513725 0.101961
0.623529 0.517647 0.145098
0.737255 0.521569 0.113725
0.854902 0.525490 0.050980
0.972549 0.525490 0.000000
0.172549 0.635294 0.000000
0.223529 0.635294 0.000000
0.313725 0.635294 0.000000
0.419608 0.631373 0.000000
0.529412 0.631373 0.000000
0.639216 0.631373 0.074510
0.745098 0.631373 0.109804
0.854902 0.627451 0.086275
0.964706 0.627451 0.023529
0.172549 0.749020 0.000000
0.219608 0.749020 0.000000
0.305882 0.745098 0.000000
0.411765 0.745098 0.000000
0.521569 0.741176 0.000000
0.635294 0.737255 0.000000
0.741176 0.733333 0.000000
0.850980 0.733333 0.039216
0.964706 0.737255 0.031373
0.145098 0.854902 0.000000
0.200000 0.854902 0.000000
0.294118 0.854902 0.000000
0.403922 0.854902 0.000000
0.517647 0.854902 0.000000
0.635294 0.854902 0.000000
0.752941 0.858824 0.000000
0.870588 0.862745 0.000000
0.988235 0.866667 0.031373
0.160784 0.980392 0.000000
0.207843 0.980392 0.000000
0.298039 0.980392 0.000000
0.403922 0.980392 0.000000
0.521569 0.980392 0.000000
0.639216 0.980392 0.000000
0.756863 0.980392 0.000000
0.878431 0.984314 0.000000
1.000000 0.992157 0.000000
0.113725 0.000000 0.015686
0.192157 0.000000 0.062745
0.317647 0.023529 0.094118
0.400000 0.113725 0.090196
0.482353 0.172549 0.066667
0.607843 0.188235 0.074510
0.741176 0.188235 0.086275
0.870588 0.188235 0.090196
0.992157 0.184314 0.090196
0.125490 0.141176 0.047059
0.223529 0.129412 0.043137
0.321569 0.133333 0.066667
0.392157 0.172549 0.090196
0.458824 0.223529 0.047059
0.592157 0.235294 0.058824
0.729412 0.235294 0.078431
0.858824 0.231373 0.086275
0.984314 0.227451 0.086275
0.152941 0.274510 0.047059
0.227451 0.270588 0.031373
0.337255 0.258824 0.003922
0.388235 0.282353 0.200000
0.490196 0.298039 0.152941
0.592157 0.321569 0.074510
0.725490 0.325490 0.086275
0.854902 0.321569 0.090196
0.984314 0.317647 0.090196
0.156863 0.392157 0.043137
0.219608 0.392157 0.047059
0.317647 0.392157 0.070588
0.403922 0.396078 0.180392
0.458824 0.411765 0.337255
0.607843 0.415686 0.215686
0.725490 0.419608 0.129412
0.847059 0.419608 0.101961
0.972549 0.419608 0.090196
0.168627 0.513725 0.027451
0.223529 0.513725 0.035294
0.317647 0.513725 0.058824
0.419608 0.509804 0.105882
0.517647 0.513725 0.192157
0.611765 0.521569 0.247059
0.733333 0.525490 0.203922
0.850980 0.529412 0.149020
0.972549 0.529412 0.117647
0.180392 0.635294 0.000000
0.227451 0.635294 0.000000
0.317647 0.635294 0.015686
0.423529 0.631373 0.058824
0.533333 0.631373 0.113725
0.639216 0.631373 0.172549
0.745098 0.635294 0.200000
0.854902 0.635294 0.180392
0.968627 0.631373 0.141176
0.180392 0.749020 0.000000
0.227451 0.749020 0.000000
0.313725 0.749020 0.000000
0.415686 0.745098 0.000000
0.529412 0.741176 0.019608
0.639216 0.741176 0.086275
0.745098 0.737255 0.133333
0.854902 0.737255 0.156863
0.968627 0.741176 0.149020
0.164706 0.862745 0.000000
0.215686 0.862745 0.000000
0.305882 0.862745 0.000000
0.411765 0.862745 0.000000
0.525490 0.862745 0.000000
0.643137 0.862745 0.000000
0.760784 0.862745 0.066667
0.878431 0.866667 0.121569
0.996078 0.874510 0.149020
0.172549 0.984314 0.000000
0.219608 0.984314 0.000000
0.305882 0.984314 0.000000
0.411765 0.984314 0.000000
0.525490 0.984314 0.000000
0.643137 0.984314 0.000000
0.760784 0.984314 0.000000
0.882353 0.984314 0.035294
1.000000 0.996078 0.109804
0.129412 0.000000 0.168627
0.223529 0.000000 0.200000
0.337255 0.000000 0.211765
0.439216 0.031373 0.211765
0.529412 0.105882 0.203922
0.623529 0.156863 0.200000
0.737255 0.184314 0.203922
0.862745 0.196078 0.207843
0.988235 0.192157 0.211765
0.168627 0.125490 0.180392
0.239216 0.121569 0.180392
0.337255 0.113725 0.188235
0.427451 0.129412 0.196078
0.509804 0.172549 0.192157
0.603922 0.215686 0.188235
0.721569 0.235294 0.192157
0.854902 0.239216 0.203922
0.980392 0.235294 0.207843
0.180392 0.266667 0.172549
0.243137 0.262745 0.164706
0.356863 0.250980 0.160784
0.450980 0.247059 0.172549
0.521569 0.278431 0.203922
0.584314 0.325490 0.180392
0.705882 0.337255 0.184314
0.843137 0.329412 0.200000
0.976471 0.325490 0.211765
0.184314 0.388235 0.168627
0.243137 0.388235 0.168627
0.345098 0.380392 0.152941
0.466667 0.376471 0.129412
0.521569 0.392157 0.278431
0.607843 0.411765 0.282353
0.698039 0.435294 0.196078
0.827451 0.435294 0.203922
0.960784 0.427451 0.211765
0.192157 0.509804 0.176471
0.239216 0.509804 0.176471
0.329412 0.509804 0.180392
0.439216 0.505882 0.196078
0.521569 0.509804 0.282353
0.564706 0.529412 0.458824
0.713725 0.529412 0.345098
0.839216 0.537255 0.254902
0.960784 0.537255 0.231373
0.196078 0.635294 0.180392
0.243137 0.635294 0.180392
0.329412 0.631373 0.184314
0.435294 0.631373 0.196078
0.541176 0.631373 0.231373
0.635294 0.631373 0.298039
0.729412 0.639216 0.352941
0.847059 0.639216 0.317647
0.964706 0.643137 0.266667
0.196078 0.752941 0.164706
0.239216 0.752941 0.164706
0.321569 0.749020 0.168627
0.427451 0.749020 0.176471
0.537255 0.745098 0.196078
0.647059 0.741176 0.227451
0.749020 0.741176 0.270588
0.854902 0.745098 0.294118
0.968627 0.749020 0.286275
0.188235 0.866667 0.141176
0.235294 0.866667 0.145098
0.317647 0.866667 0.149020
0.423529 0.866667 0.156863
0.537255 0.866667 0.172549
0.650980 0.866667 0.196078
0.768627 0.870588 0.227451
0.882353 0.874510 0.258824
0.996078 0.878431 0.282353
0.192157 0.988235 0.121569
0.235294 0.988235 0.121569
0.313725 0.988235 0.125490
0.419608 0.984314 0.129412
0.533333 0.984314 0.141176
0.647059 0.984314 0.160784
0.768627 0.984314 0.184314
0.886275 0.988235 0.215686
1.000000 0.996078 0.247059
0.203922 0.000000 0.325490
0.262745 0.000000 0.329412
0.356863 0.000000 0.333333
0.458824 0.000000 0.329412
0.556863 0.019608 0.321569
0.658824 0.090196 0.321569
0.764706 0.141176 0.321569
0.874510 0.172549 0.321569
0.992157 0.184314 0.325490
0.203922 0.117647 0.309804
0.254902 0.113725 0.309804
0.345098 0.105882 0.309804
0.447059 0.105882 0.309804
0.545098 0.125490 0.309804
0.647059 0.160784 0.309804
0.749020 0.196078 0.313725
0.862745 0.219608 0.317647
0.984314 0.231373 0.321569
0.223529 0.258824 0.298039
0.274510 0.254902 0.294118
0.368627 0.243137 0.294118
0.466667 0.239216 0.301961
0.556863 0.250980 0.309804
0.643137 0.278431 0.313725
0.737255 0.309804 0.309804
0.850980 0.325490 0.313725
0.976471 0.325490 0.321569
0.215686 0.384314 0.286275
0.266667 0.384314 0.286275
0.360784 0.380392 0.278431
0.486275 0.368627 0.274510
0.580392 0.368627 0.286275
0.650980 0.392157 0.321569
0.709804 0.431373 0.301961
0.815686 0.443137 0.298039
0.952941 0.435294 0.313725
0.219608 0.509804 0.294118
0.266667 0.505882 0.290196
0.352941 0.505882 0.282353
0.470588 0.498039 0.270588
0.592157 0.490196 0.243137
0.650980 0.505882 0.360784
0.725490 0.525490 0.403922
0.815686 0.552941 0.317647
0.941176 0.552941 0.317647
0.223529 0.635294 0.301961
0.266667 0.631373 0.301961
0.349020 0.631373 0.298039
0.454902 0.627451 0.301961
0.564706 0.623529 0.313725
0.647059 0.627451 0.396078
0.674510 0.647059 0.584314
0.823529 0.647059 0.482353
0.949020 0.650980 0.376471
0.219608 0.752941 0.298039
0.258824 0.749020 0.298039
0.337255 0.749020 0.298039
0.439216 0.745098 0.301961
0.549020 0.745098 0.313725
0.654902 0.741176 0.345098
0.749020 0.745098 0.407843
0.839216 0.749020 0.466667
0.956863 0.752941 0.439216
0.207843 0.866667 0.290196
0.250980 0.866667 0.290196
0.333333 0.870588 0.294118
0.435294 0.866667 0.298039
0.545098 0.866667 0.309804
0.662745 0.866667 0.325490
0.772549 0.870588 0.356863
0.882353 0.874510 0.396078
0.992157 0.882353 0.427451
0.211765 0.992157 0.286275
0.250980 0.988235 0.286275
0.325490 0.988235 0.286275
0.427451 0.988235 0.290196
0.541176 0.984314 0.294118
0.654902 0.984314 0.305882
0.772549 0.984314 0.321569
0.886275 0.988235 0.349020
1.000000 0.996078 0.380392
0.258824 0.000000 0.454902
0.298039 0.000000 0.454902
0.376471 0.000000 0.450980
0.470588 0.000000 0.447059
0.576471 0.000000 0.443137
0.682353 0.000000 0.439216
0.788235 0.066667 0.439216
0.898039 0.117647 0.439216
1.000000 0.149020 0.439216
0.239216 0.105882 0.427451
0.278431 0.101961 0.427451
0.360784 0.098039 0.427451
0.458824 0.094118 0.427451
0.564706 0.098039 0.427451
0.670588 0.117647 0.431373
0.776471 0.149020 0.431373
0.886275 0.176471 0.431373
0.996078 0.200000 0.435294
0.258824 0.250980 0.427451
0.298039 0.247059 0.427451
0.376471 0.243137 0.423529
0.470588 0.239216 0.427451
0.572549 0.239216 0.427451
0.674510 0.250980 0.431373
0.776471 0.270588 0.431373
0.878431 0.294118 0.431373
0.992157 0.305882 0.435294
0.258824 0.376471 0.407843
0.301961 0.376471 0.407843
0.384314 0.372549 0.403922
0.494118 0.364706 0.407843
0.596078 0.360784 0.415686
0.686275 0.372549 0.427451
0.768627 0.392157 0.427451
0.858824 0.415686 0.423529
0.968627 0.423529 0.423529
0.250980 0.505882 0.407843
0.290196 0.505882 0.407843
0.372549 0.501961 0.400000
0.482353 0.494118 0.388235
0.607843 0.482353 0.384314
0.705882 0.486275 0.396078
0.776471 0.505882 0.431373
0.835294 0.541176 0.423529
0.933333 0.560784 0.415686
0.254902 0.631373 0.415686
0.290196 0.631373 0.415686
0.368627 0.627451 0.411765
0.474510 0.627451 0.403922
0.596078 0.619608 0.388235
0.721569 0.611765 0.360784
0.784314 0.623529 0.454902
0.847059 0.639216 0.525490
0.929412 0.666667 0.435294
0.247059 0.749020 0.415686
0.282353 0.749020 0.415686
0.356863 0.749020 0.415686
0.458824 0.745098 0.411765
0.568627 0.741176 0.411765
0.682353 0.737255 0.423529
0.764706 0.741176 0.498039
0.780392 0.760784 0.701961
0.929412 0.760784 0.619608
0.235294 0.866667 0.415686
0.274510 0.870588 0.415686
0.349020 0.870588 0.419608
0.450980 0.870588 0.419608
0.560784 0.866667 0.427451
0.674510 0.866667 0.439216
0.784314 0.870588 0.470588
0.882353 0.874510 0.537255
0.972549 0.886275 0.603922
0.235294 0.992157 0.415686
0.270588 0.988235 0.415686
0.341176 0.988235 0.415686
0.439216 0.988235 0.415686
0.549020 0.984314 0.419608
0.662745 0.984314 0.427451
0.780392 0.984314 0.447059
0.894118 0.988235 0.474510
1.000000 0.996078 0.521569
0.301961 0.000000 0.576471
0.333333 0.000000 0.576471
0.400000 0.000000 0.572549
0.490196 0.000000 0.564706
0.592157 0.000000 0.560784
0.698039 0.000000 0.560784
0.807843 0.000000 0.556863
0.917647 0.031373 0.556863
1.000000 0.082353 0.556863
0.274510 0.098039 0.552941
0.309804 0.094118 0.552941
0.380392 0.090196 0.552941
0.474510 0.082353 0.549020
0.580392 0.078431 0.549020
0.690196 0.086275 0.549020
0.800000 0.105882 0.549020
0.905882 0.129412 0.549020
1.000000 0.156863 0.549020
0.290196 0.247059 0.552941
0.321569 0.243137 0.552941
0.392157 0.239216 0.552941
0.486275 0.235294 0.549020
0.588235 0.235294 0.549020
0.694118 0.235294 0.549020
0.800000 0.247059 0.549020
0.905882 0.258824 0.549020
1.000000 0.278431 0.549020
0.294118 0.372549 0.541176
0.329412 0.372549 0.541176
0.400000 0.372549 0.541176
0.498039 0.364706 0.541176
0.600000 0.364706 0.545098
0.701961 0.364706 0.545098
0.800000 0.372549 0.545098
0.898039 0.384314 0.545098
1.000000 0.396078 0.545098
0.294118 0.501961 0.529412
0.325490 0.501961 0.529412
0.400000 0.498039 0.525490
0.501961 0.490196 0.517647
0.615686 0.482353 0.517647
0.721569 0.482353 0.529412
0.811765 0.490196 0.537255
0.894118 0.509804 0.545098
0.980392 0.529412 0.541176
0.282353 0.631373 0.533333
0.317647 0.627451 0.529412
0.392157 0.627451 0.525490
0.490196 0.623529 0.517647
0.607843 0.615686 0.505882
0.737255 0.603922 0.501961
0.831373 0.603922 0.509804
0.901961 0.619608 0.545098
0.956863 0.650980 0.537255
0.274510 0.749020 0.529412
0.305882 0.745098 0.529412
0.376471 0.745098 0.525490
0.474510 0.741176 0.521569
0.588235 0.737255 0.509804
0.713725 0.729412 0.494118
0.839216 0.717647 0.466667
0.905882 0.729412 0.545098
0.960784 0.752941 0.635294
0.258824 0.862745 0.529412
0.294118 0.866667 0.529412
0.368627 0.866667 0.533333
0.462745 0.866667 0.529412
0.576471 0.862745 0.529412
0.694118 0.862745 0.533333
0.811765 0.862745 0.545098
0.898039 0.866667 0.619608
0.909804 0.894118 0.835294
0.254902 0.988235 0.533333
0.286275 0.988235 0.533333
0.356863 0.984314 0.533333
0.450980 0.984314 0.533333
0.560784 0.984314 0.537255
0.674510 0.980392 0.541176
0.792157 0.980392 0.552941
0.901961 0.984314 0.584314
1.000000 0.996078 0.658824
0.341176 0.000000 0.698039
0.364706 0.000000 0.694118
0.423529 0.000000 0.690196
0.509804 0.000000 0.686275
0.607843 0.000000 0.682353
0.713725 0.000000 0.678431
0.823529 0.000000 0.678431
0.929412 0.000000 0.674510
1.000000 0.000000 0.674510
0.313725 0.086275 0.674510
0.345098 0.082353 0.674510
0.407843 0.078431 0.674510
0.494118 0.070588 0.670588
0.596078 0.066667 0.670588
0.705882 0.062745 0.670588
0.815686 0.070588 0.670588
0.925490 0.082353 0.670588
1.000000 0.101961 0.666667
0.325490 0.243137 0.678431
0.352941 0.239216 0.678431
0.411765 0.239216 0.674510
0.501961 0.235294 0.674510
0.600000 0.231373 0.674510
0.709804 0.227451 0.670588
0.815686 0.231373 0.670588
0.925490 0.235294 0.670588
1.000000 0.247059 0.670588
0.325490 0.372549 0.666667
0.356863 0.372549 0.666667
0.419608 0.368627 0.666667
0.505882 0.364706 0.670588
0.607843 0.364706 0.670588
0.713725 0.360784 0.666667
0.815686 0.360784 0.666667
0.921569 0.364706 0.662745
1.000000 0.372549 0.662745
0.329412 0.498039 0.658824
0.360784 0.498039 0.654902
0.423529 0.494118 0.654902
0.513725 0.490196 0.654902
0.615686 0.486275 0.654902
0.721569 0.482353 0.654902
0.823529 0.482353 0.658824
0.921569 0.490196 0.662745
1.000000 0.498039 0.658824
0.321569 0.627451 0.650980
0.352941 0.627451 0.650980
0.419608 0.623529 0.647059
0.513725 0.619608 0.643137
0.623529 0.611765 0.635294
0.741176 0.603922 0.635294
0.843137 0.596078 0.639216
0.929412 0.603922 0.647059
1.000000 0.619608 0.650980
0.301961 0.745098 0.647059
0.329412 0.745098 0.643137
0.396078 0.741176 0.639216
0.490196 0.737255 0.635294
0.600000 0.733333 0.623529
0.721569 0.725490 0.611765
0.850980 0.713725 0.607843
0.949020 0.713725 0.615686
1.000000 0.729412 0.650980
0.286275 0.858824 0.643137
0.317647 0.862745 0.643137
0.384314 0.862745 0.643137
0.478431 0.862745 0.639216
0.588235 0.858824 0.635294
0.709804 0.854902 0.627451
0.843137 0.850980 0.615686
0.976471 0.847059 0.588235
1.000000 0.858824 0.658824
0.278431 0.984314 0.650980
0.309804 0.984314 0.650980
0.376471 0.984314 0.647059
0.466667 0.984314 0.647059
0.576471 0.980392 0.647059
0.690196 0.980392 0.643137
0.811765 0.976471 0.647059
0.933333 0.980392 0.658824
1.000000 0.992157 0.733333
0.376471 0.000000 0.815686
0.400000 0.000000 0.815686
0.450980 0.000000 0.811765
0.529412 0.000000 0.807843
0.623529 0.000000 0.803922
0.729412 0.000000 0.800000
0.839216 0.000000 0.800000
0.945098 0.000000 0.796078
1.000000 0.000000 0.792157
0.356863 0.074510 0.800000
0.380392 0.070588 0.800000
0.435294 0.066667 0.796078
0.517647 0.058824 0.796078
0.615686 0.050980 0.796078
0.721569 0.039216 0.796078
0.831373 0.035294 0.792157
0.937255 0.027451 0.788235
1.000000 0.039216 0.788235
0.360784 0.239216 0.803922
0.384314 0.239216 0.800000
0.439216 0.235294 0.800000
0.521569 0.231373 0.800000
0.619608 0.227451 0.796078
0.725490 0.223529 0.796078
0.831373 0.219608 0.792157
0.941176 0.219608 0.788235
1.000000 0.223529 0.788235
0.360784 0.368627 0.796078
0.384314 0.368627 0.796078
0.443137 0.368627 0.796078
0.525490 0.364706 0.796078
0.619608 0.360784 0.792157
0.721569 0.356863 0.788235
0.827451 0.352941 0.788235
0.937255 0.352941 0.784314
1.000000 0.352941 0.780392
0.360784 0.498039 0.784314
0.384314 0.494118 0.784314
0.443137 0.494118 0.784314
0.525490 0.490196 0.784314
0.623529 0.486275 0.780392
0.725490 0.482353 0.780392
0.831373 0.478431 0.780392
0.937255 0.478431 0.780392
1.000000 0.478431 0.776471
0.356863 0.623529 0.776471
0.384314 0.619608 0.776471
0.443137 0.619608 0.772549
0.529412 0.615686 0.772549
0.627451 0.607843 0.768627
0.737255 0.603922 0.764706
0.839216 0.596078 0.764706
0.937255 0.592157 0.764706
1.000000 0.596078 0.764706
0.333333 0.737255 0.760784
0.360784 0.737255 0.760784
0.419608 0.733333 0.756863
0.509804 0.729412 0.752941
0.611765 0.725490 0.745098
0.729412 0.717647 0.733333
0.847059 0.705882 0.733333
0.952941 0.705882 0.741176
1.000000 0.713725 0.756863
0.309804 0.854902 0.756863
0.337255 0.854902 0.756863
0.400000 0.854902 0.752941
0.490196 0.854902 0.752941
0.596078 0.850980 0.745098
0.717647 0.850980 0.741176
0.843137 0.847059 0.729412
0.980392 0.839216 0.729412
1.000000 0.843137 0.741176
0.301961 0.980392 0.764706
0.329412 0.980392 0.760784
0.392157 0.980392 0.760784
0.482353 0.980392 0.760784
0.588235 0.976471 0.756863
0.705882 0.976471 0.752941
0.831373 0.976471 0.745098
0.968627 0.972549 0.733333
1.000000 0.972549 0.713725
0.411765 0.000000 0.937255
0.431373 0.000000 0.933333
0.482353 0.000000 0.933333
0.552941 0.000000 0.929412
0.643137 0.000000 0.925490
0.745098 0.000000 0.925490
0.850980 0.000000 0.921569
0.956863 0.000000 0.913725
1.000000 0.000000 0.909804
0.396078 0.058824 0.921569
0.419608 0.058824 0.921569
0.470588 0.050980 0.921569
0.545098 0.043137 0.921569
0.635294 0.031373 0.917647
0.737255 0.015686 0.917647
0.843137 0.000000 0.913725
0.952941 0.000000 0.909804
1.000000 0.000000 0.905882
0.400000 0.235294 0.925490
0.419608 0.235294 0.925490
0.470588 0.231373 0.921569
0.545098 0.227451 0.921569
0.639216 0.223529 0.921569
0.737255 0.219608 0.917647
0.843137 0.207843 0.913725
0.949020 0.203922 0.909804
1.000000 0.200000 0.905882
0.392157 0.368627 0.917647
0.415686 0.368627 0.921569
0.466667 0.368627 0.917647
0.545098 0.364706 0.917647
0.635294 0.360784 0.913725
0.733333 0.352941 0.909804
0.839216 0.349020 0.905882
0.945098 0.341176 0.901961
1.000000 0.337255 0.898039
0.388235 0.494118 0.909804
0.411765 0.494118 0.909804
0.462745 0.490196 0.909804
0.541176 0.486275 0.905882
0.631373 0.482353 0.905882
0.733333 0.478431 0.901961
0.839216 0.474510 0.901961
0.945098 0.470588 0.898039
1.000000 0.466667 0.890196
0.388235 0.615686 0.901961
0.411765 0.615686 0.898039
0.462745 0.615686 0.898039
0.541176 0.611765 0.898039
0.635294 0.607843 0.894118
0.733333 0.600000 0.890196
0.835294 0.592157 0.886275
0.937255 0.584314 0.882353
1.000000 0.584314 0.878431
0.364706 0.729412 0.882353
0.388235 0.729412 0.878431
0.443137 0.725490 0.878431
0.525490 0.721569 0.874510
0.619608 0.717647 0.866667
0.729412 0.709804 0.862745
0.839216 0.701961 0.862745
0.949020 0.701961 0.866667
1.000000 0.705882 0.874510
0.337255 0.847059 0.870588
0.364706 0.847059 0.870588
0.423529 0.847059 0.870588
0.509804 0.847059 0.866667
0.611765 0.847059 0.862745
0.729412 0.843137 0.858824
0.854902 0.839216 0.854902
0.980392 0.835294 0.854902
1.000000 0.835294 0.870588
0.329412 0.976471 0.878431
0.352941 0.976471 0.878431
0.411765 0.976471 0.874510
0.498039 0.976471 0.874510
0.600000 0.976471 0.870588
0.717647 0.976471 0.866667
0.839216 0.972549 0.858824
0.976471 0.976471 0.854902
1.000000 0.972549 0.862745
